( Made using CamBam - http://www.cambam.co.uk )
( CNCWorkstation1.0.sheet2 1/12/2013 12:01:40 )
( T4 : 0.25 )
( T6 : 0.25 )
( CUTVIEWER )
( FROM/0,0,5 )
( Select dummy tool to avoid warnings )
( TOOL/MILL,1,0,20.0,0 )
( STOCK/BLOCK,,,,,, )
G20 G90 G91.1 G64 G40
G0 Z1.5
( T6 : 0.25 )
( Tool Taper coming soon )
( TOOL/MILL,0.25,0.0,0.0,0 )
T6 M6
( Drill1 )
G17
M3 S1000
G0 X0.0 Y47.998
G0 Z1.5
G0 X0.0025 Y47.998
G1 F10.0 Z0.0
G2 F30.0 X-0.0013 Y47.9958 Z-0.1833 I-0.0025 J0.0
G2 Y48.0002 Z-0.3667 I0.0012 J0.0022
G2 X0.0025 Y47.998 Z-0.55 I0.0013 J-0.0022
G2 X-0.0013 Y47.9958 I-0.0025 J0.0
G2 Y48.0002 I0.0012 J0.0022
G2 X0.0025 Y47.998 I0.0013 J-0.0022
G0 Z1.5
G0 Y0.0
G1 F10.0 Z0.0
G2 F30.0 X-0.0013 Y-0.0022 Z-0.1833 I-0.0025 J0.0
G2 Y0.0022 Z-0.3667 I0.0013 J0.0022
G2 X0.0025 Y0.0 Z-0.55 I0.0013 J-0.0022
G2 X-0.0013 Y-0.0022 I-0.0025 J0.0
G2 Y0.0022 I0.0013 J0.0022
G2 X0.0025 Y0.0 I0.0013 J-0.0022
G0 Z1.5
G0 X96.0005
G1 F10.0 Z0.0
G2 F30.0 X95.9968 Y-0.0022 Z-0.1833 I-0.0025 J0.0
G2 Y0.0022 Z-0.3667 I0.0012 J0.0022
G2 X96.0005 Y0.0 Z-0.55 I0.0012 J-0.0022
G2 X95.9968 Y-0.0022 I-0.0025 J0.0
G2 Y0.0022 I0.0012 J0.0022
G2 X96.0005 Y0.0 I0.0012 J-0.0022
G0 Z1.5
G0 Y47.998
G1 F10.0 Z0.0
G2 F30.0 X95.9968 Y47.9958 Z-0.1833 I-0.0025 J0.0
G2 Y48.0002 Z-0.3667 I0.0012 J0.0022
G2 X96.0005 Y47.998 Z-0.55 I0.0012 J-0.0022
G2 X95.9968 Y47.9958 I-0.0025 J0.0
G2 Y48.0002 I0.0012 J0.0022
G2 X96.0005 Y47.998 I0.0012 J-0.0022
( Profile1 )
G0 Z1.5
( T4 : 0.25 )
( Tool Taper coming soon )
( TOOL/MILL,0.25,0.0,0.0,0 )
T4 M6
M3 S1000
G0 X33.4122 Y35.9835
G1 F10.0 Z0.0
G2 F30.0 X33.4075 Y35.979 I-0.0047 J0.0002
G3 X33.407 I-0.0003 J-0.125
G2 X33.4026 Y35.9832 Z-0.0001 I0.0 J0.0044
G3 X33.2777 Y36.1026 Z-0.001 I-0.1249 J-0.0056
G1 X31.3284 Z-0.0107
G3 X31.2034 Y35.9776 Z-0.0117 I0.0 J-0.125
G1 Y34.3658 Z-0.0198
G3 X31.3225 Y34.2409 Z-0.0207 I0.125 J0.0
G2 X31.327 Y34.2363 I-0.0002 J-0.0047
G3 Y34.2357 I0.125 J-0.0003
G2 X31.3228 Y34.2313 Z-0.0208 I-0.0044 J0.0
G3 X31.3077 Y34.2297 I0.0056 J-0.1249
G1 X31.0593 Z-0.0221
G1 X30.8683 Z-0.023
G3 X30.7433 Y34.1047 Z-0.024 I0.0 J-0.125
G1 Y33.136 Z-0.0288
G3 X30.8683 Y33.011 Z-0.0298 I0.125 J0.0
G1 X31.2465 Z-0.0317
G1 X31.3076 Z-0.032
G3 X31.3228 Y33.0093 Z-0.0321 I0.0208 J0.1233
G2 X31.327 Y33.005 I-0.0002 J-0.0044
G3 Y33.0044 I0.125 J-0.0003
G2 X31.3226 Y32.9997 Z-0.0322 I-0.0047 J0.0
G3 X31.2034 Y32.8748 Z-0.0331 I0.0058 J-0.1249
G1 Y31.329 Z-0.0408
G3 X31.3228 Y31.2041 Z-0.0418 I0.125 J0.0
G2 X31.327 Y31.1997 I-0.0002 J-0.0044
G3 Y31.1991 I0.125 J-0.0003
G2 X31.3225 Y31.1946 I-0.0045 J0.0
G3 X31.3221 I-0.0004 J-0.125
G1 X31.0834 Z-0.043
G3 X31.0831 Y31.1947 I-0.0198 J-0.1234
G3 X31.0823 Y31.1948 I-0.0251 J-0.1225
G3 X31.0819 Y31.1949 I-0.0257 J-0.1223
G2 X31.081 Y31.1951 I0.0073 J0.035
G3 X31.0432 Y31.1981 Z-0.0432 I-0.0286 J-0.1217
G1 X30.8683 Z-0.0441
G3 X30.7433 Y31.0731 Z-0.0451 I0.0 J-0.125
G1 Y30.1047 Z-0.0499
G3 X30.8683 Y29.9797 Z-0.0509 I0.125 J0.0
G1 X31.0555 Z-0.0518
G1 X31.2461 Z-0.0528
G1 X31.3077 Z-0.0531
G3 X31.3225 Y29.9781 Z-0.0532 I0.0207 J0.1233
G2 X31.327 Y29.9734 I-0.0002 J-0.0047
G3 Y29.9729 I0.125 J-0.0003
G2 X31.3228 Y29.9685 I-0.0044 J0.0
G3 X31.2034 Y29.8436 Z-0.0542 I0.0056 J-0.1249
G1 Y27.2601 Z-0.0671
G0 Z0.8
G1 Y26.7601
G1 F10.0 Z-0.0695
G1 F30.0 Y25.8634 Z-0.074
G3 X31.3225 Y25.7385 Z-0.075 I0.125 J0.0
G2 X31.327 Y25.7338 I-0.0002 J-0.0047
G3 Y25.7333 I0.125 J-0.0003
G2 X31.3228 Y25.7289 I-0.0044 J0.0
G3 X31.3077 Y25.7273 Z-0.0751 I0.0056 J-0.1249
G1 X31.0593 Z-0.0763
G1 X30.8683 Z-0.0773
G3 X30.7433 Y25.6023 Z-0.0783 I0.0 J-0.125
G1 Y24.6335 Z-0.0831
G3 X30.8683 Y24.5085 Z-0.0841 I0.125 J0.0
G1 X31.2465 Z-0.086
G1 X31.3077 Z-0.0863
G3 X31.3228 Y24.5069 Z-0.0864 I0.0207 J0.1233
G2 X31.327 Y24.5026 I-0.0002 J-0.0044
G3 Y24.502 I0.125 J-0.0003
G2 X31.3225 Y24.4973 I-0.0047 J0.0
G3 X31.2034 Y24.3724 Z-0.0874 I0.0059 J-0.1249
G1 Y22.8266 Z-0.0951
G3 X31.3228 Y22.7017 Z-0.096 I0.125 J0.0
G2 X31.327 Y22.6973 Z-0.0961 I-0.0002 J-0.0044
G3 Y22.6967 I0.125 J-0.0003
G2 X31.3225 Y22.6922 I-0.0045 J0.0
G3 X31.3221 I-0.0004 J-0.125
G1 X31.0835 Z-0.0973
G3 X31.0831 Y22.6923 I-0.0198 J-0.1234
G3 X31.0823 Y22.6924 I-0.0251 J-0.1225
G3 X31.0814 Y22.6926 I-0.0257 J-0.1223
G3 X31.0432 Y22.6957 Z-0.0975 I-0.029 J-0.1216
G1 X30.8683 Z-0.0984
G3 X30.7433 Y22.5707 Z-0.0993 I0.0 J-0.125
G1 Y21.6023 Z-0.1042
G3 X30.8683 Y21.4773 Z-0.1051 I0.125 J0.0
G1 X31.0555 Z-0.1061
G1 X31.2461 Z-0.107
G1 X31.3077 Z-0.1073
G3 X31.3225 Y21.4757 Z-0.1074 I0.0207 J0.1233
G2 X31.327 Y21.471 I-0.0002 J-0.0047
G3 Y21.4704 Z-0.1075 I0.125 J-0.0003
G2 X31.3228 Y21.4661 I-0.0044 J0.0
G3 X31.2034 Y21.3412 Z-0.1084 I0.0056 J-0.1249
G1 Y19.729 Z-0.1165
G3 X31.3284 Y19.604 Z-0.1174 I0.125 J0.0
G1 X33.2777 Z-0.1272
G3 X33.4026 Y19.7238 Z-0.1281 I0.0 J0.125
G2 X33.4069 Y19.728 Z-0.1282 I0.0043 J-0.0002
G3 X33.4075 I0.0003 J0.125
G2 X33.4122 Y19.7235 I0.0 J-0.0047
G3 X33.4138 Y19.7083 Z-0.1283 I0.1249 J0.0055
G1 Y19.6662 Z-0.1285
G1 Y19.479 Z-0.1294
G3 X33.5388 Y19.354 Z-0.1304 I0.125 J0.0
G1 X34.5041 Z-0.1352
G3 X34.6288 Y19.4882 Z-0.1362 I0.0 J0.125
G1 Y19.7231 Z-0.1374
G3 Y19.7235 I-0.125 J0.0
G2 X34.6333 Y19.728 I0.0045 J0.0
G3 X34.6339 I0.0004 J0.125
G2 X34.6382 Y19.7238 Z-0.1375 I0.0 J-0.0044
G3 X34.7631 Y19.604 Z-0.1384 I0.1249 J0.0052
G1 X36.309 Z-0.1461
G3 X36.4338 Y19.7235 Z-0.1471 I0.0 J0.125
G2 X36.4385 Y19.728 I0.0047 J-0.0002
G3 X36.4391 I0.0003 J0.125
G2 X36.4434 Y19.7238 I0.0 J-0.0044
G3 X36.4451 Y19.7082 Z-0.1472 I0.1249 J0.0052
G1 Y19.479 Z-0.1484
G3 X36.5701 Y19.354 Z-0.1493 I0.125 J0.0
G1 X37.5388 Z-0.1542
G3 X37.6638 Y19.479 Z-0.1552 I0.0 J0.125
G1 Y19.67 Z-0.1561
G1 Y19.7083 Z-0.1563
G3 X37.6654 Y19.7238 Z-0.1564 I-0.1233 J0.0207
G2 X37.6698 Y19.728 I0.0044 J-0.0002
G3 X37.6704 I0.0003 J0.125
G2 X37.6751 Y19.7235 I0.0 J-0.0047
G3 X37.7999 Y19.604 Z-0.1574 I0.1249 J0.0055
G1 X43.0041 Z-0.1833
G3 X43.129 Y19.7238 Z-0.1843 I0.0 J0.125
G2 X43.1334 Y19.728 I0.0044 J-0.0002
G3 X43.1339 I0.0003 J0.125
G2 X43.1386 Y19.7235 Z-0.1844 I0.0 J-0.0047
G3 X43.1402 Y19.7083 I0.1249 J0.0055
G1 Y19.6662 Z-0.1846
G1 Y19.479 Z-0.1856
G3 X43.2652 Y19.354 Z-0.1866 I0.125 J0.0
G1 X44.2305 Z-0.1914
G3 X44.3552 Y19.4882 Z-0.1924 I0.0 J0.125
G1 Y19.7231 Z-0.1936
G3 Y19.7235 I-0.125 J0.0
G2 X44.3597 Y19.728 I0.0045 J0.0
G3 X44.3603 I0.0004 J0.125
G2 X44.3646 Y19.7238 I0.0 J-0.0044
G3 X44.4895 Y19.604 Z-0.1946 I0.1249 J0.0052
G1 X46.0354 Z-0.2023
G3 X46.1602 Y19.7235 Z-0.2032 I0.0 J0.125
G2 X46.1649 Y19.728 Z-0.2033 I0.0047 J-0.0002
G3 X46.1655 I0.0003 J0.125
G2 X46.1699 Y19.7238 I0.0 J-0.0044
G3 X46.1715 Y19.7083 Z-0.2034 I0.1249 J0.0052
G1 Y19.479 Z-0.2045
G3 X46.2965 Y19.354 Z-0.2055 I0.125 J0.0
G1 X47.2652 Z-0.2103
G3 X47.3902 Y19.479 Z-0.2113 I0.0 J0.125
G1 Y19.67 Z-0.2123
G1 Y19.7082 Z-0.2125
G3 X47.3919 Y19.7238 I-0.1233 J0.0208
G2 X47.3962 Y19.728 Z-0.2126 I0.0043 J-0.0002
G3 X47.3968 I0.0003 J0.125
G2 X47.4015 Y19.7235 I0.0 J-0.0047
G3 X47.5263 Y19.604 Z-0.2136 I0.1249 J0.0055
G1 X49.5728 Z-0.2238
G0 Z0.8
G1 X50.0728
G1 F10.0 Z-0.2263
G1 F30.0 X52.7305 Z-0.2395
G3 X52.8554 Y19.7238 Z-0.2405 I0.0 J0.125
G2 X52.8597 Y19.728 I0.0043 J-0.0002
G3 X52.8603 I0.0003 J0.125
G2 X52.865 Y19.7235 I0.0 J-0.0047
G3 X52.8666 Y19.7083 Z-0.2406 I0.1249 J0.0055
G1 Y19.6662 Z-0.2408
G1 Y19.479 Z-0.2417
G3 X52.9916 Y19.354 Z-0.2427 I0.125 J0.0
G1 X53.9569 Z-0.2475
G3 X54.0816 Y19.4882 Z-0.2486 I0.0 J0.125
G1 Y19.7231 Z-0.2497
G3 Y19.7235 I-0.125 J0.0
G2 X54.0861 Y19.728 Z-0.2498 I0.0045 J0.0
G3 X54.0867 I0.0004 J0.125
G2 X54.091 Y19.7238 I0.0 J-0.0044
G3 X54.2159 Y19.604 Z-0.2508 I0.1249 J0.0052
G1 X55.7618 Z-0.2585
G3 X55.8866 Y19.7235 Z-0.2594 I0.0 J0.125
G2 X55.8913 Y19.728 I0.0047 J-0.0002
G3 X55.8919 Z-0.2595 I0.0003 J0.125
G2 X55.8962 Y19.7238 I0.0 J-0.0044
G3 X55.8979 Y19.7082 Z-0.2596 I0.1249 J0.0052
G1 Y19.479 Z-0.2607
G3 X56.0229 Y19.354 Z-0.2617 I0.125 J0.0
G1 X56.9916 Z-0.2665
G3 X57.1166 Y19.479 Z-0.2675 I0.0 J0.125
G1 Y19.67 Z-0.2684
G1 Y19.7083 Z-0.2686
G3 X57.1182 Y19.7238 Z-0.2687 I-0.1233 J0.0207
G2 X57.1226 Y19.728 I0.0044 J-0.0002
G3 X57.1232 I0.0003 J0.125
G2 X57.1279 Y19.7235 Z-0.2688 I0.0 J-0.0047
G3 X57.2527 Y19.604 Z-0.2697 I0.1249 J0.0055
G1 X59.202 Z-0.2795
G3 X59.327 Y19.729 Z-0.2804 I0.0 J0.125
G1 Y21.3412 Z-0.2885
G3 X59.2076 Y21.4661 Z-0.2894 I-0.125 J0.0
G2 X59.2034 Y21.4704 I0.0002 J0.0044
G3 Y21.471 Z-0.2895 I-0.125 J0.0003
G2 X59.2079 Y21.4757 I0.0047 J0.0
G3 X59.2228 Y21.4773 Z-0.2896 I-0.0059 J0.1249
G1 X59.2843 Z-0.2899
G1 X59.475 Z-0.2908
G1 X59.6621 Z-0.2918
G3 X59.7871 Y21.6023 Z-0.2927 I0.0 J0.125
G1 Y22.5707 Z-0.2976
G3 X59.6621 Y22.6957 Z-0.2985 I-0.125 J0.0
G1 X59.4872 Z-0.2994
G3 X59.4862 Y22.6958 I-0.0128 J-0.1806
G3 X59.4486 Y22.6925 Z-0.2996 I-0.0081 J-0.1247
G2 X59.447 Y22.6922 I-0.0038 J0.0155
G1 X59.2083 Z-0.3008
G3 X59.2079 I0.0 J-0.125
G2 X59.2034 Y22.6967 I0.0 J0.0045
G3 Y22.6974 I-0.125 J0.0004
G2 X59.2076 Y22.7017 Z-0.3009 I0.0044 J0.0
G3 X59.327 Y22.8266 Z-0.3018 I-0.0055 J0.1249
G1 Y24.3724 Z-0.3095
G3 X59.2079 Y24.4973 Z-0.3105 I-0.125 J0.0
G2 X59.2034 Y24.502 I0.0002 J0.0047
G3 Y24.5026 I-0.125 J0.0003
G2 X59.2076 Y24.5069 I0.0044 J0.0
G3 X59.2228 Y24.5085 Z-0.3106 I-0.0055 J0.1249
G1 X59.284 Z-0.3109
G1 X59.6621 Z-0.3128
G3 X59.7871 Y24.6335 Z-0.3138 I0.0 J0.125
G1 Y25.6023 Z-0.3186
G3 X59.6621 Y25.7273 Z-0.3196 I-0.125 J0.0
G1 X59.4711 Z-0.3206
G1 X59.2228 Z-0.3218
G3 X59.2076 Y25.7289 Z-0.3219 I-0.0207 J-0.1233
G2 X59.2034 Y25.7333 I0.0002 J0.0044
G3 Y25.7338 I-0.125 J0.0003
G2 X59.2079 Y25.7385 I0.0047 J0.0
G3 X59.327 Y25.8634 Z-0.3229 I-0.0059 J0.1249
G1 Y27.8144 Z-0.3326
G0 Z0.8
G1 Y28.3144
G1 F10.0 Z-0.3351
G1 F30.0 Y29.8436 Z-0.3427
G3 X59.2076 Y29.9685 Z-0.3437 I-0.125 J0.0
G2 X59.2034 Y29.9729 I0.0002 J0.0044
G3 Y29.9734 I-0.125 J0.0003
G2 X59.2079 Y29.9781 I0.0047 J0.0
G3 X59.2228 Y29.9797 Z-0.3438 I-0.0058 J0.1249
G1 X59.2843 Z-0.3441
G1 X59.475 Z-0.3451
G1 X59.6621 Z-0.346
G3 X59.7871 Y30.1047 Z-0.347 I0.0 J0.125
G1 Y31.0731 Z-0.3518
G3 X59.6621 Y31.1981 Z-0.3528 I-0.125 J0.0
G1 X59.4872 Z-0.3537
G3 X59.4862 Y31.1982 I-0.0128 J-0.1806
G3 X59.4491 Y31.195 Z-0.3539 I-0.0081 J-0.1247
G3 X59.4472 Y31.1946 I0.0253 J-0.1224
G1 X59.2083 Z-0.3551
G3 X59.2079 I0.0 J-0.125
G2 X59.2034 Y31.1991 I0.0 J0.0045
G3 Y31.1998 I-0.125 J0.0004
G2 X59.2076 Y31.2041 I0.0044 J0.0
G3 X59.327 Y31.329 Z-0.3561 I-0.0056 J0.1249
G1 Y32.8748 Z-0.3638
G3 X59.2079 Y32.9997 Z-0.3647 I-0.125 J0.0
G2 X59.2034 Y33.0044 Z-0.3648 I0.0002 J0.0047
G3 Y33.005 I-0.125 J0.0003
G2 X59.2076 Y33.0093 I0.0044 J0.0
G3 X59.2229 Y33.011 Z-0.3649 I-0.0056 J0.1249
G1 X59.284 Z-0.3652
G1 X59.6621 Z-0.3671
G3 X59.7871 Y33.136 Z-0.3681 I0.0 J0.125
G1 Y34.1047 Z-0.3729
G3 X59.6621 Y34.2297 Z-0.3739 I-0.125 J0.0
G1 X59.4711 Z-0.3748
G1 X59.2228 Z-0.3761
G3 X59.2076 Y34.2313 I-0.0207 J-0.1233
G2 X59.2034 Y34.2357 Z-0.3762 I0.0002 J0.0044
G3 Y34.2363 I-0.125 J0.0003
G2 X59.2079 Y34.2409 I0.0047 J0.0
G3 X59.327 Y34.3658 Z-0.3771 I-0.0058 J0.1249
G1 Y35.9776 Z-0.3852
G3 X59.202 Y36.1026 Z-0.3862 I-0.125 J0.0
G1 X57.2527 Z-0.3959
G3 X57.1279 Y35.9835 Z-0.3968 I0.0 J-0.125
G2 X57.1232 Y35.979 Z-0.3969 I-0.0047 J0.0002
G3 X57.1226 I-0.0003 J-0.125
G2 X57.1182 Y35.9832 I0.0 J0.0044
G3 X57.1166 Y35.9984 Z-0.397 I-0.1249 J-0.0056
G1 Y36.2467 Z-0.3982
G1 Y36.4377 Z-0.3992
G3 X56.9916 Y36.5627 Z-0.4001 I-0.125 J0.0
G1 X56.0229 Z-0.405
G3 X55.8979 Y36.4377 Z-0.4059 I0.0 J-0.125
G1 Y36.0596 Z-0.4078
G1 Y35.9984 Z-0.4081
G3 X55.8963 Y35.9832 Z-0.4082 I0.1233 J-0.0208
G2 X55.8919 Y35.979 I-0.0043 J0.0002
G3 X55.8913 Z-0.4083 I-0.0003 J-0.125
G2 X55.8866 Y35.9835 I0.0 J0.0047
G3 X55.7618 Y36.1026 Z-0.4092 I-0.1249 J-0.0059
G1 X54.2159 Z-0.4169
G3 X54.0911 Y35.9832 Z-0.4179 I0.0 J-0.125
G2 X54.0867 Y35.979 I-0.0044 J0.0002
G3 X54.086 I-0.0003 J-0.125
G2 X54.0816 Y35.9835 Z-0.418 I0.0 J0.0045
G3 Y35.9839 I-0.125 J0.0004
G1 Y36.2225 Z-0.4192
G1 X54.0817 Y36.2235
G2 X54.0818 Y36.2241 I0.0092 J-0.0016
G3 X54.0851 Y36.2624 Z-0.4194 I-0.1215 J0.0296
G1 X54.085 Y36.2628
G1 Y36.4377 Z-0.4202
G3 X53.96 Y36.5627 Z-0.4212 I-0.125 J0.0
G1 X52.9916 Z-0.426
G3 X52.8666 Y36.4377 Z-0.427 I0.0 J-0.125
G1 Y36.2505 Z-0.4279
G1 Y36.0599 Z-0.4289
G1 Y35.9984 Z-0.4292
G3 X52.865 Y35.9835 Z-0.4293 I0.1233 J-0.0207
G2 X52.8603 Y35.979 I-0.0047 J0.0002
G3 X52.8598 I-0.0003 J-0.125
G2 X52.8554 Y35.9832 I0.0 J0.0044
G3 X52.7305 Y36.1026 Z-0.4303 I-0.1249 J-0.0056
G1 X47.5264 Z-0.4562
G3 X47.4015 Y35.9835 Z-0.4572 I0.0 J-0.125
G2 X47.3968 Y35.979 I-0.0047 J0.0002
G3 X47.3962 I-0.0003 J-0.125
G2 X47.3919 Y35.9832 Z-0.4573 I0.0 J0.0044
G3 X47.3906 Y35.9963 I-0.1249 J-0.0055
G1 Y36.2467 Z-0.4586
G1 Y36.4377 Z-0.4595
G3 X47.2656 Y36.5627 Z-0.4605 I-0.125 J0.0
G1 X46.2969 Z-0.4653
G3 X46.1719 Y36.4377 Z-0.4663 I0.0 J-0.125
G1 Y36.0596 Z-0.4682
G1 Y36.0003 Z-0.4685
G3 X46.1699 Y35.9832 Z-0.4686 I0.1229 J-0.0227
G2 X46.1655 Y35.979 I-0.0044 J0.0002
G3 X46.165 I-0.0003 J-0.125
G2 X46.1603 Y35.9835 I0.0 J0.0047
G3 X46.0354 Y36.1026 Z-0.4696 I-0.1249 J-0.0059
G1 X44.4896 Z-0.4773
G3 X44.3647 Y35.9832 Z-0.4783 I0.0 J-0.125
G2 X44.3603 Y35.979 I-0.0044 J0.0002
G3 X44.3597 I-0.0003 J-0.125
G2 X44.3552 Y35.9835 I0.0 J0.0045
G3 Y35.9839 I-0.125 J0.0004
G1 Y36.2227 Z-0.4795
G2 X44.3555 Y36.2249 I0.0112 J-0.0004
G3 X44.359 Y36.2544 Z-0.4797 I-0.1215 J0.0294
G1 Y36.2571
G1 Y36.4377 Z-0.4806
G3 X44.234 Y36.5627 Z-0.4816 I-0.125 J0.0
G1 X43.2656 Z-0.4864
G3 X43.1406 Y36.4377 Z-0.4874 I0.0 J-0.125
G1 Y36.2505 Z-0.4883
G1 Y36.0599 Z-0.4893
G1 Y36.0003 Z-0.4896
G3 X43.1387 Y35.9835 I0.1229 J-0.0227
G2 X43.134 Y35.979 Z-0.4897 I-0.0047 J0.0002
G3 X43.1334 I-0.0003 J-0.125
G2 X43.129 Y35.9832 I0.0 J0.0044
G3 X43.0041 Y36.1026 Z-0.4907 I-0.1249 J-0.0056
G1 X40.5403 Z-0.5029
G0 Z0.8
G1 X40.0403
G1 F10.0 Z-0.5054
G1 F30.0 X37.8 Z-0.5166
G3 X37.6751 Y35.9835 Z-0.5175 I0.0 J-0.125
G2 X37.6704 Y35.979 Z-0.5176 I-0.0047 J0.0002
G3 X37.6699 I-0.0003 J-0.125
G2 X37.6655 Y35.9832 I0.0 J0.0044
G3 X37.6642 Y35.9961 Z-0.5177 I-0.1249 J-0.0056
G1 Y36.2467 Z-0.5189
G1 Y36.4377 Z-0.5199
G3 X37.5392 Y36.5627 Z-0.5209 I-0.125 J0.0
G1 X36.5705 Z-0.5257
G3 X36.4455 Y36.4377 Z-0.5267 I0.0 J-0.125
G1 Y36.0596 Z-0.5286
G1 Y36.0004 Z-0.5289
G3 X36.4435 Y35.9832 I0.1229 J-0.0228
G2 X36.4391 Y35.979 Z-0.529 I-0.0044 J0.0002
G3 X36.4386 I-0.0003 J-0.125
G2 X36.4339 Y35.9835 I0.0 J0.0047
G3 X36.309 Y36.1026 Z-0.53 I-0.1249 J-0.0059
G1 X34.7632 Z-0.5377
G3 X34.6383 Y35.9832 Z-0.5386 I0.0 J-0.125
G2 X34.6339 Y35.979 I-0.0044 J0.0002
G3 X34.6333 Z-0.5387 I-0.0003 J-0.125
G2 X34.6288 Y35.9835 I0.0 J0.0045
G3 Y35.9839 I-0.125 J0.0004
G1 Y36.2233 Z-0.5399
G2 X34.629 Y36.2249 I0.0075 J-0.0002
G3 X34.6326 Y36.2547 Z-0.54 I-0.1214 J0.0298
G1 Y36.2571 Z-0.5401
G1 Y36.4377 Z-0.541
G3 X34.5076 Y36.5627 Z-0.5419 I-0.125 J0.0
G1 X33.5392 Z-0.5468
G3 X33.4142 Y36.4377 Z-0.5477 I0.0 J-0.125
G1 Y36.2505 Z-0.5487
G1 Y36.0599 Z-0.5496
G1 Y36.0004 Z-0.5499
G3 X33.4122 Y35.9835 Z-0.55 I0.1229 J-0.0228
G2 X33.4075 Y35.979 I-0.0047 J0.0002
G3 X33.407 I-0.0003 J-0.125
G2 X33.4026 Y35.9832 I0.0 J0.0044
G3 X33.2777 Y36.1026 I-0.1249 J-0.0056
G1 X31.3284
G3 X31.2034 Y35.9776 I0.0 J-0.125
G1 Y34.3658
G3 X31.3225 Y34.2409 I0.125 J0.0
G2 X31.327 Y34.2363 I-0.0002 J-0.0047
G3 Y34.2357 I0.125 J-0.0003
G2 X31.3228 Y34.2313 I-0.0044 J0.0
G3 X31.3077 Y34.2297 I0.0056 J-0.1249
G1 X31.0593
G1 X30.8683
G3 X30.7433 Y34.1047 I0.0 J-0.125
G1 Y33.136
G3 X30.8683 Y33.011 I0.125 J0.0
G1 X31.2465
G1 X31.3076
G3 X31.3228 Y33.0093 I0.0208 J0.1233
G2 X31.327 Y33.005 I-0.0002 J-0.0044
G3 Y33.0044 I0.125 J-0.0003
G2 X31.3226 Y32.9997 I-0.0047 J0.0
G3 X31.2034 Y32.8748 I0.0058 J-0.1249
G1 Y31.329
G3 X31.3228 Y31.2041 I0.125 J0.0
G2 X31.327 Y31.1997 I-0.0002 J-0.0044
G3 Y31.1991 I0.125 J-0.0003
G2 X31.3225 Y31.1946 I-0.0045 J0.0
G3 X31.3221 I-0.0004 J-0.125
G1 X31.0834
G3 X31.0831 Y31.1947 I-0.0198 J-0.1234
G3 X31.0823 Y31.1948 I-0.0251 J-0.1225
G3 X31.0819 Y31.1949 I-0.0257 J-0.1223
G2 X31.081 Y31.1951 I0.0073 J0.035
G3 X31.0432 Y31.1981 I-0.0286 J-0.1217
G1 X30.8683
G3 X30.7433 Y31.0731 I0.0 J-0.125
G1 Y30.1047
G3 X30.8683 Y29.9797 I0.125 J0.0
G1 X31.0555
G1 X31.2461
G1 X31.3077
G3 X31.3225 Y29.9781 I0.0207 J0.1233
G2 X31.327 Y29.9734 I-0.0002 J-0.0047
G3 Y29.9729 I0.125 J-0.0003
G2 X31.3228 Y29.9685 I-0.0044 J0.0
G3 X31.2034 Y29.8436 I0.0056 J-0.1249
G1 Y27.2601
G0 Z0.8
G1 Y26.7601
G1 F10.0 Z-0.55
G1 F30.0 Y25.8634
G3 X31.3225 Y25.7385 I0.125 J0.0
G2 X31.327 Y25.7338 I-0.0002 J-0.0047
G3 Y25.7333 I0.125 J-0.0003
G2 X31.3228 Y25.7289 I-0.0044 J0.0
G3 X31.3077 Y25.7273 I0.0056 J-0.1249
G1 X31.0593
G1 X30.8683
G3 X30.7433 Y25.6023 I0.0 J-0.125
G1 Y24.6335
G3 X30.8683 Y24.5085 I0.125 J0.0
G1 X31.2465
G1 X31.3077
G3 X31.3228 Y24.5069 I0.0207 J0.1233
G2 X31.327 Y24.5026 I-0.0002 J-0.0044
G3 Y24.502 I0.125 J-0.0003
G2 X31.3225 Y24.4973 I-0.0047 J0.0
G3 X31.2034 Y24.3724 I0.0059 J-0.1249
G1 Y22.8266
G3 X31.3228 Y22.7017 I0.125 J0.0
G2 X31.327 Y22.6973 I-0.0002 J-0.0044
G3 Y22.6967 I0.125 J-0.0003
G2 X31.3225 Y22.6922 I-0.0045 J0.0
G3 X31.3221 I-0.0004 J-0.125
G1 X31.0835
G3 X31.0831 Y22.6923 I-0.0198 J-0.1234
G3 X31.0823 Y22.6924 I-0.0251 J-0.1225
G3 X31.0814 Y22.6926 I-0.0257 J-0.1223
G3 X31.0432 Y22.6957 I-0.029 J-0.1216
G1 X30.8683
G3 X30.7433 Y22.5707 I0.0 J-0.125
G1 Y21.6023
G3 X30.8683 Y21.4773 I0.125 J0.0
G1 X31.0555
G1 X31.2461
G1 X31.3077
G3 X31.3225 Y21.4757 I0.0207 J0.1233
G2 X31.327 Y21.471 I-0.0002 J-0.0047
G3 Y21.4704 I0.125 J-0.0003
G2 X31.3228 Y21.4661 I-0.0044 J0.0
G3 X31.2034 Y21.3412 I0.0056 J-0.1249
G1 Y19.729
G3 X31.3284 Y19.604 I0.125 J0.0
G1 X33.2777
G3 X33.4026 Y19.7238 I0.0 J0.125
G2 X33.4069 Y19.728 I0.0043 J-0.0002
G3 X33.4075 I0.0003 J0.125
G2 X33.4122 Y19.7235 I0.0 J-0.0047
G3 X33.4138 Y19.7083 I0.1249 J0.0055
G1 Y19.6662
G1 Y19.479
G3 X33.5388 Y19.354 I0.125 J0.0
G1 X34.5041
G3 X34.6288 Y19.4882 I0.0 J0.125
G1 Y19.7231
G3 Y19.7235 I-0.125 J0.0
G2 X34.6333 Y19.728 I0.0045 J0.0
G3 X34.6339 I0.0004 J0.125
G2 X34.6382 Y19.7238 I0.0 J-0.0044
G3 X34.7631 Y19.604 I0.1249 J0.0052
G1 X36.309
G3 X36.4338 Y19.7235 I0.0 J0.125
G2 X36.4385 Y19.728 I0.0047 J-0.0002
G3 X36.4391 I0.0003 J0.125
G2 X36.4434 Y19.7238 I0.0 J-0.0044
G3 X36.4451 Y19.7082 I0.1249 J0.0052
G1 Y19.479
G3 X36.5701 Y19.354 I0.125 J0.0
G1 X37.5388
G3 X37.6638 Y19.479 I0.0 J0.125
G1 Y19.67
G1 Y19.7083
G3 X37.6654 Y19.7238 I-0.1233 J0.0207
G2 X37.6698 Y19.728 I0.0044 J-0.0002
G3 X37.6704 I0.0003 J0.125
G2 X37.6751 Y19.7235 I0.0 J-0.0047
G3 X37.7999 Y19.604 I0.1249 J0.0055
G1 X43.0041
G3 X43.129 Y19.7238 I0.0 J0.125
G2 X43.1334 Y19.728 I0.0044 J-0.0002
G3 X43.1339 I0.0003 J0.125
G2 X43.1386 Y19.7235 I0.0 J-0.0047
G3 X43.1402 Y19.7083 I0.1249 J0.0055
G1 Y19.6662
G1 Y19.479
G3 X43.2652 Y19.354 I0.125 J0.0
G1 X44.2305
G3 X44.3552 Y19.4882 I0.0 J0.125
G1 Y19.7231
G3 Y19.7235 I-0.125 J0.0
G2 X44.3597 Y19.728 I0.0045 J0.0
G3 X44.3603 I0.0004 J0.125
G2 X44.3646 Y19.7238 I0.0 J-0.0044
G3 X44.4895 Y19.604 I0.1249 J0.0052
G1 X46.0354
G3 X46.1602 Y19.7235 I0.0 J0.125
G2 X46.1649 Y19.728 I0.0047 J-0.0002
G3 X46.1655 I0.0003 J0.125
G2 X46.1699 Y19.7238 I0.0 J-0.0044
G3 X46.1715 Y19.7083 I0.1249 J0.0052
G1 Y19.479
G3 X46.2965 Y19.354 I0.125 J0.0
G1 X47.2652
G3 X47.3902 Y19.479 I0.0 J0.125
G1 Y19.67
G1 Y19.7082
G3 X47.3919 Y19.7238 I-0.1233 J0.0208
G2 X47.3962 Y19.728 I0.0043 J-0.0002
G3 X47.3968 I0.0003 J0.125
G2 X47.4015 Y19.7235 I0.0 J-0.0047
G3 X47.5263 Y19.604 I0.1249 J0.0055
G1 X49.5728
G0 Z0.8
G1 X50.0728
G1 F10.0 Z-0.55
G1 F30.0 X52.7305
G3 X52.8554 Y19.7238 I0.0 J0.125
G2 X52.8597 Y19.728 I0.0043 J-0.0002
G3 X52.8603 I0.0003 J0.125
G2 X52.865 Y19.7235 I0.0 J-0.0047
G3 X52.8666 Y19.7083 I0.1249 J0.0055
G1 Y19.6662
G1 Y19.479
G3 X52.9916 Y19.354 I0.125 J0.0
G1 X53.9569
G3 X54.0816 Y19.4882 I0.0 J0.125
G1 Y19.7231
G3 Y19.7235 I-0.125 J0.0
G2 X54.0861 Y19.728 I0.0045 J0.0
G3 X54.0867 I0.0004 J0.125
G2 X54.091 Y19.7238 I0.0 J-0.0044
G3 X54.2159 Y19.604 I0.1249 J0.0052
G1 X55.7618
G3 X55.8866 Y19.7235 I0.0 J0.125
G2 X55.8913 Y19.728 I0.0047 J-0.0002
G3 X55.8919 I0.0003 J0.125
G2 X55.8962 Y19.7238 I0.0 J-0.0044
G3 X55.8979 Y19.7082 I0.1249 J0.0052
G1 Y19.479
G3 X56.0229 Y19.354 I0.125 J0.0
G1 X56.9916
G3 X57.1166 Y19.479 I0.0 J0.125
G1 Y19.67
G1 Y19.7083
G3 X57.1182 Y19.7238 I-0.1233 J0.0207
G2 X57.1226 Y19.728 I0.0044 J-0.0002
G3 X57.1232 I0.0003 J0.125
G2 X57.1279 Y19.7235 I0.0 J-0.0047
G3 X57.2527 Y19.604 I0.1249 J0.0055
G1 X59.202
G3 X59.327 Y19.729 I0.0 J0.125
G1 Y21.3412
G3 X59.2076 Y21.4661 I-0.125 J0.0
G2 X59.2034 Y21.4704 I0.0002 J0.0044
G3 Y21.471 I-0.125 J0.0003
G2 X59.2079 Y21.4757 I0.0047 J0.0
G3 X59.2228 Y21.4773 I-0.0059 J0.1249
G1 X59.2843
G1 X59.475
G1 X59.6621
G3 X59.7871 Y21.6023 I0.0 J0.125
G1 Y22.5707
G3 X59.6621 Y22.6957 I-0.125 J0.0
G1 X59.4872
G3 X59.4862 Y22.6958 I-0.0128 J-0.1806
G3 X59.4486 Y22.6925 I-0.0081 J-0.1247
G2 X59.447 Y22.6922 I-0.0038 J0.0155
G1 X59.2083
G3 X59.2079 I0.0 J-0.125
G2 X59.2034 Y22.6967 I0.0 J0.0045
G3 Y22.6974 I-0.125 J0.0004
G2 X59.2076 Y22.7017 I0.0044 J0.0
G3 X59.327 Y22.8266 I-0.0055 J0.1249
G1 Y24.3724
G3 X59.2079 Y24.4973 I-0.125 J0.0
G2 X59.2034 Y24.502 I0.0002 J0.0047
G3 Y24.5026 I-0.125 J0.0003
G2 X59.2076 Y24.5069 I0.0044 J0.0
G3 X59.2228 Y24.5085 I-0.0055 J0.1249
G1 X59.284
G1 X59.6621
G3 X59.7871 Y24.6335 I0.0 J0.125
G1 Y25.6023
G3 X59.6621 Y25.7273 I-0.125 J0.0
G1 X59.4711
G1 X59.2228
G3 X59.2076 Y25.7289 I-0.0207 J-0.1233
G2 X59.2034 Y25.7333 I0.0002 J0.0044
G3 Y25.7338 I-0.125 J0.0003
G2 X59.2079 Y25.7385 I0.0047 J0.0
G3 X59.327 Y25.8634 I-0.0059 J0.1249
G1 Y27.8144
G0 Z0.8
G1 Y28.3144
G1 F10.0 Z-0.55
G1 F30.0 Y29.8436
G3 X59.2076 Y29.9685 I-0.125 J0.0
G2 X59.2034 Y29.9729 I0.0002 J0.0044
G3 Y29.9734 I-0.125 J0.0003
G2 X59.2079 Y29.9781 I0.0047 J0.0
G3 X59.2228 Y29.9797 I-0.0058 J0.1249
G1 X59.2843
G1 X59.475
G1 X59.6621
G3 X59.7871 Y30.1047 I0.0 J0.125
G1 Y31.0731
G3 X59.6621 Y31.1981 I-0.125 J0.0
G1 X59.4872
G3 X59.4862 Y31.1982 I-0.0128 J-0.1806
G3 X59.4491 Y31.195 I-0.0081 J-0.1247
G3 X59.4472 Y31.1946 I0.0253 J-0.1224
G1 X59.2083
G3 X59.2079 I0.0 J-0.125
G2 X59.2034 Y31.1991 I0.0 J0.0045
G3 Y31.1998 I-0.125 J0.0004
G2 X59.2076 Y31.2041 I0.0044 J0.0
G3 X59.327 Y31.329 I-0.0056 J0.1249
G1 Y32.8748
G3 X59.2079 Y32.9997 I-0.125 J0.0
G2 X59.2034 Y33.0044 I0.0002 J0.0047
G3 Y33.005 I-0.125 J0.0003
G2 X59.2076 Y33.0093 I0.0044 J0.0
G3 X59.2229 Y33.011 I-0.0056 J0.1249
G1 X59.284
G1 X59.6621
G3 X59.7871 Y33.136 I0.0 J0.125
G1 Y34.1047
G3 X59.6621 Y34.2297 I-0.125 J0.0
G1 X59.4711
G1 X59.2228
G3 X59.2076 Y34.2313 I-0.0207 J-0.1233
G2 X59.2034 Y34.2357 I0.0002 J0.0044
G3 Y34.2363 I-0.125 J0.0003
G2 X59.2079 Y34.2409 I0.0047 J0.0
G3 X59.327 Y34.3658 I-0.0058 J0.1249
G1 Y35.9776
G3 X59.202 Y36.1026 I-0.125 J0.0
G1 X57.2527
G3 X57.1279 Y35.9835 I0.0 J-0.125
G2 X57.1232 Y35.979 I-0.0047 J0.0002
G3 X57.1226 I-0.0003 J-0.125
G2 X57.1182 Y35.9832 I0.0 J0.0044
G3 X57.1166 Y35.9984 I-0.1249 J-0.0056
G1 Y36.2467
G1 Y36.4377
G3 X56.9916 Y36.5627 I-0.125 J0.0
G1 X56.0229
G3 X55.8979 Y36.4377 I0.0 J-0.125
G1 Y36.0596
G1 Y35.9984
G3 X55.8963 Y35.9832 I0.1233 J-0.0208
G2 X55.8919 Y35.979 I-0.0043 J0.0002
G3 X55.8913 I-0.0003 J-0.125
G2 X55.8866 Y35.9835 I0.0 J0.0047
G3 X55.7618 Y36.1026 I-0.1249 J-0.0059
G1 X54.2159
G3 X54.0911 Y35.9832 I0.0 J-0.125
G2 X54.0867 Y35.979 I-0.0044 J0.0002
G3 X54.086 I-0.0003 J-0.125
G2 X54.0816 Y35.9835 I0.0 J0.0045
G3 Y35.9839 I-0.125 J0.0004
G1 Y36.2225
G1 X54.0817 Y36.2235
G2 X54.0818 Y36.2241 I0.0092 J-0.0016
G3 X54.0851 Y36.2624 I-0.1215 J0.0296
G1 X54.085 Y36.2628
G1 Y36.4377
G3 X53.96 Y36.5627 I-0.125 J0.0
G1 X52.9916
G3 X52.8666 Y36.4377 I0.0 J-0.125
G1 Y36.2505
G1 Y36.0599
G1 Y35.9984
G3 X52.865 Y35.9835 I0.1233 J-0.0207
G2 X52.8603 Y35.979 I-0.0047 J0.0002
G3 X52.8598 I-0.0003 J-0.125
G2 X52.8554 Y35.9832 I0.0 J0.0044
G3 X52.7305 Y36.1026 I-0.1249 J-0.0056
G1 X47.5264
G3 X47.4015 Y35.9835 I0.0 J-0.125
G2 X47.3968 Y35.979 I-0.0047 J0.0002
G3 X47.3962 I-0.0003 J-0.125
G2 X47.3919 Y35.9832 I0.0 J0.0044
G3 X47.3906 Y35.9963 I-0.1249 J-0.0055
G1 Y36.2467
G1 Y36.4377
G3 X47.2656 Y36.5627 I-0.125 J0.0
G1 X46.2969
G3 X46.1719 Y36.4377 I0.0 J-0.125
G1 Y36.0596
G1 Y36.0003
G3 X46.1699 Y35.9832 I0.1229 J-0.0227
G2 X46.1655 Y35.979 I-0.0044 J0.0002
G3 X46.165 I-0.0003 J-0.125
G2 X46.1603 Y35.9835 I0.0 J0.0047
G3 X46.0354 Y36.1026 I-0.1249 J-0.0059
G1 X44.4896
G3 X44.3647 Y35.9832 I0.0 J-0.125
G2 X44.3603 Y35.979 I-0.0044 J0.0002
G3 X44.3597 I-0.0003 J-0.125
G2 X44.3552 Y35.9835 I0.0 J0.0045
G3 Y35.9839 I-0.125 J0.0004
G1 Y36.2227
G2 X44.3555 Y36.2249 I0.0112 J-0.0004
G3 X44.359 Y36.2544 I-0.1215 J0.0294
G1 Y36.2571
G1 Y36.4377
G3 X44.234 Y36.5627 I-0.125 J0.0
G1 X43.2656
G3 X43.1406 Y36.4377 I0.0 J-0.125
G1 Y36.2505
G1 Y36.0599
G1 Y36.0003
G3 X43.1387 Y35.9835 I0.1229 J-0.0227
G2 X43.134 Y35.979 I-0.0047 J0.0002
G3 X43.1334 I-0.0003 J-0.125
G2 X43.129 Y35.9832 I0.0 J0.0044
G3 X43.0041 Y36.1026 I-0.1249 J-0.0056
G1 X40.5403
G0 Z0.8
G1 X40.0403
G1 F10.0 Z-0.55
G1 F30.0 X37.8
G3 X37.6751 Y35.9835 I0.0 J-0.125
G2 X37.6704 Y35.979 I-0.0047 J0.0002
G3 X37.6699 I-0.0003 J-0.125
G2 X37.6655 Y35.9832 I0.0 J0.0044
G3 X37.6642 Y35.9961 I-0.1249 J-0.0056
G1 Y36.2467
G1 Y36.4377
G3 X37.5392 Y36.5627 I-0.125 J0.0
G1 X36.5705
G3 X36.4455 Y36.4377 I0.0 J-0.125
G1 Y36.0596
G1 Y36.0004
G3 X36.4435 Y35.9832 I0.1229 J-0.0228
G2 X36.4391 Y35.979 I-0.0044 J0.0002
G3 X36.4386 I-0.0003 J-0.125
G2 X36.4339 Y35.9835 I0.0 J0.0047
G3 X36.309 Y36.1026 I-0.1249 J-0.0059
G1 X34.7632
G3 X34.6383 Y35.9832 I0.0 J-0.125
G2 X34.6339 Y35.979 I-0.0044 J0.0002
G3 X34.6333 I-0.0003 J-0.125
G2 X34.6288 Y35.9835 I0.0 J0.0045
G3 Y35.9839 I-0.125 J0.0004
G1 Y36.2233
G2 X34.629 Y36.2249 I0.0075 J-0.0002
G3 X34.6326 Y36.2547 I-0.1214 J0.0298
G1 Y36.2571
G1 Y36.4377
G3 X34.5076 Y36.5627 I-0.125 J0.0
G1 X33.5392
G3 X33.4142 Y36.4377 I0.0 J-0.125
G1 Y36.2505
G1 Y36.0599
G1 Y36.0004
G3 X33.4122 Y35.9835 I0.1229 J-0.0228
G0 Z1.5
G0 Y37.5804
G1 F10.0 Z0.0
G1 F30.0 X33.5234 Z-0.0008
G3 X33.6484 Y37.7054 Z-0.0023 I0.0 J0.125
G1 Y37.9968 Z-0.0045
G3 X33.6094 Y38.0874 Z-0.0052 I-0.125 J0.0
G2 X33.6081 Y38.0905 Z-0.0053 I0.0029 J0.0031
G3 Y38.0912 I-0.125 J0.0003
G2 X33.6126 Y38.0957 I0.0045 J0.0
G3 X33.6135 I0.0004 J0.125
G2 X33.6166 Y38.0944 Z-0.0054 I0.0 J-0.0045
G3 X33.7039 Y38.0589 Z-0.0061 I0.0873 J0.0895
G1 X34.3425 Z-0.0109
G3 X34.4298 Y38.0944 Z-0.0116 I0.0 J0.125
G2 X34.4329 Y38.0957 I0.0031 J-0.0032
G3 X34.4339 I0.0005 J0.125
G2 X34.4387 Y38.0909 Z-0.0117 I0.0 J-0.0048
G3 Y38.0907 I0.125 J-0.0001
G2 X34.4372 Y38.0873 I-0.0046 J0.0
G3 X34.3984 Y37.9968 Z-0.0125 I0.0862 J-0.0906
G1 Y37.7054 Z-0.0146
G3 X34.5234 Y37.5804 Z-0.0161 I0.125 J0.0
G1 X36.5546 Z-0.0313
G3 X36.6796 Y37.7054 Z-0.0328 I0.0 J0.125
G1 Y37.9968 Z-0.035
G3 X36.6407 Y38.0874 Z-0.0357 I-0.125 J0.0
G2 X36.6393 Y38.0905 Z-0.0358 I0.0029 J0.0031
G3 Y38.0912 I-0.125 J0.0003
G2 X36.6438 Y38.0957 I0.0045 J0.0
G3 X36.6447 I0.0004 J0.125
G2 X36.6479 Y38.0945 I0.0 J-0.0045
G3 X36.7352 Y38.0589 Z-0.0366 I0.0873 J0.0895
G1 X37.3737 Z-0.0413
G3 X37.461 Y38.0944 Z-0.0421 I0.0 J0.125
G2 X37.4642 Y38.0957 I0.0032 J-0.0033
G3 X37.4651 I0.0005 J0.125
G2 X37.4699 Y38.0909 Z-0.0422 I0.0 J-0.0048
G3 Y38.0907 I0.125 J-0.0001
G2 X37.4684 Y38.0873 I-0.0048 J0.0
G3 X37.4296 Y37.9968 Z-0.0429 I0.0862 J-0.0905
G1 Y37.7054 Z-0.0451
G3 X37.5546 Y37.5804 Z-0.0466 I0.125 J0.0
G1 X39.2315 Z-0.0591
G0 Z0.8
G1 X39.7315
G1 F10.0 Z-0.0629
G1 F30.0 X43.2498 Z-0.0892
G3 X43.3748 Y37.7054 Z-0.0907 I0.0 J0.125
G1 Y37.9968 Z-0.0929
G3 X43.3358 Y38.0874 Z-0.0936 I-0.125 J0.0
G2 X43.3345 Y38.0905 Z-0.0937 I0.0029 J0.0031
G3 Y38.0912 I-0.125 J0.0003
G2 X43.339 Y38.0957 I0.0045 J0.0
G3 X43.3398 I0.0004 J0.125
G2 X43.343 Y38.0944 I0.0 J-0.0045
G3 X43.4303 Y38.0589 Z-0.0945 I0.0873 J0.0895
G1 X44.0689 Z-0.0993
G3 X44.1562 Y38.0944 Z-0.1 I0.0 J0.125
G2 X44.1593 Y38.0957 I0.0031 J-0.0032
G3 X44.1603 I0.0005 J0.125
G2 X44.165 Y38.0909 Z-0.1001 I0.0 J-0.0048
G3 Y38.0907 I0.125 J-0.0001
G2 X44.1636 Y38.0873 I-0.0046 J0.0
G3 X44.1248 Y37.9968 Z-0.1009 I0.0862 J-0.0906
G1 Y37.7054 Z-0.103
G3 X44.2498 Y37.5804 Z-0.1045 I0.125 J0.0
G1 X46.281 Z-0.1197
G3 X46.406 Y37.7054 Z-0.1212 I0.0 J0.125
G1 Y37.9968 Z-0.1234
G3 X46.3671 Y38.0874 Z-0.1241 I-0.125 J0.0
G2 X46.3657 Y38.0905 I0.0029 J0.0031
G3 Y38.0912 I-0.125 J0.0003
G2 X46.3702 Y38.0957 Z-0.1242 I0.0045 J0.0
G3 X46.3711 I0.0004 J0.125
G2 X46.3743 Y38.0944 I0.0 J-0.0045
G3 X46.4616 Y38.0589 Z-0.125 I0.0873 J0.0895
G1 X47.1001 Z-0.1297
G3 X47.1874 Y38.0944 Z-0.1305 I0.0 J0.125
G2 X47.1906 Y38.0957 I0.0032 J-0.0033
G3 X47.1915 I0.0005 J0.125
G2 X47.1963 Y38.0909 I0.0 J-0.0048
G3 Y38.0907 Z-0.1306 I0.125 J-0.0001
G2 X47.1948 Y38.0873 I-0.0048 J0.0
G3 X47.156 Y37.9968 Z-0.1313 I0.0862 J-0.0905
G1 Y37.7054 Z-0.1335
G3 X47.281 Y37.5804 Z-0.135 I0.125 J0.0
G1 X52.9758 Z-0.1776
G3 X53.1008 Y37.7054 Z-0.1791 I0.0 J0.125
G1 Y37.9968 Z-0.1813
G3 X53.0619 Y38.0874 Z-0.182 I-0.125 J0.0
G2 X53.0605 Y38.0906 I0.003 J0.0031
G3 Y38.0912 Z-0.1821 I-0.125 J0.0003
G2 X53.065 Y38.0957 I0.0045 J0.0
G3 X53.0659 I0.0004 J0.125
G2 X53.0691 Y38.0945 I0.0 J-0.0045
G3 X53.1564 Y38.0589 Z-0.1829 I0.0873 J0.0895
G1 X53.7949 Z-0.1876
G3 X53.8822 Y38.0944 Z-0.1884 I0.0 J0.125
G2 X53.8854 Y38.0957 I0.0031 J-0.0032
G3 X53.8863 I0.0005 J0.125
G2 X53.8911 Y38.0909 Z-0.1885 I0.0 J-0.0048
G3 Y38.0907 I0.125 J-0.0001
G2 X53.8896 Y38.0873 I-0.0048 J0.0
G3 X53.8508 Y37.9968 Z-0.1892 I0.0862 J-0.0905
G1 Y37.7054 Z-0.1914
G3 X53.9758 Y37.5804 Z-0.1929 I0.125 J0.0
G1 X54.4186 Z-0.1962
G0 Z0.8
G1 X54.9186
G1 F10.0 Z-0.1999
G1 F30.0 X56.0071 Z-0.2081
G3 X56.1321 Y37.7054 Z-0.2096 I0.0 J0.125
G1 Y37.9968 Z-0.2117
G3 X56.0931 Y38.0874 Z-0.2125 I-0.125 J0.0
G2 X56.0918 Y38.0905 I0.0029 J0.0031
G3 Y38.0912 I-0.125 J0.0003
G2 X56.0963 Y38.0957 Z-0.2126 I0.0045 J0.0
G3 X56.0971 I0.0004 J0.125
G2 X56.1003 Y38.0944 I0.0 J-0.0045
G3 X56.1876 Y38.0589 Z-0.2133 I0.0873 J0.0895
G1 X56.8262 Z-0.2181
G3 X56.9135 Y38.0944 Z-0.2188 I0.0 J0.125
G2 X56.9166 Y38.0957 Z-0.2189 I0.0031 J-0.0032
G3 X56.9175 I0.0005 J0.125
G2 X56.9223 Y38.0909 I0.0 J-0.0048
G3 Y38.0907 I0.125 J-0.0001
G2 X56.9209 Y38.0873 Z-0.219 I-0.0046 J0.0
G3 X56.8821 Y37.9968 Z-0.2197 I0.0862 J-0.0906
G1 Y37.7054 Z-0.2219
G3 X57.0071 Y37.5804 Z-0.2234 I0.125 J0.0
G1 X59.6696 Z-0.2433
G3 X59.7946 Y37.7054 Z-0.2448 I0.0 J0.125
G1 Y38.8922 Z-0.2537
G3 X59.6696 Y39.0172 Z-0.2551 I-0.125 J0.0
G1 X59.3782 Z-0.2573
G3 X59.2876 Y38.9783 Z-0.2581 I0.0 J-0.125
G2 X59.2845 Y38.977 I-0.0031 J0.0029
G3 X59.2838 I-0.0003 J-0.125
G2 X59.2793 Y38.9815 I0.0 J0.0045
G3 Y38.9823 Z-0.2582 I-0.125 J0.0004
G2 X59.2806 Y38.9856 I0.0046 J0.0
G3 X59.3161 Y39.0728 Z-0.2589 I-0.0895 J0.0872
G1 Y39.7113 Z-0.2637
G3 X59.2805 Y39.7987 Z-0.2644 I-0.125 J0.0
G2 X59.2793 Y39.8018 I0.0032 J0.0031
G3 Y39.8027 I-0.125 J0.0006
G2 X59.284 Y39.8075 Z-0.2645 I0.0048 J0.0
G3 X59.2842 I0.0001 J0.125
G2 X59.2877 Y39.806 I0.0 J-0.0048
G3 X59.3782 Y39.7672 Z-0.2653 I0.0905 J0.0862
G1 X59.6696 Z-0.2675
G3 X59.7946 Y39.8922 Z-0.2689 I0.0 J0.125
G1 Y41.0791 Z-0.2778
G3 X59.6696 Y41.2041 Z-0.2793 I-0.125 J0.0
G1 X53.4601 Z-0.3258
G0 Z0.8
G1 X52.9601
G1 F10.0 Z-0.3295
G1 F30.0 X35.286 Z-0.4618
G0 Z0.8
G1 X34.786
G1 F10.0 Z-0.4655
G1 F30.0 X30.8609 Z-0.4949
G3 X30.7359 Y41.0791 Z-0.4964 I0.0 J-0.125
G1 Y39.8922 Z-0.5053
G3 X30.8609 Y39.7672 Z-0.5067 I0.125 J0.0
G1 X31.1522 Z-0.5089
G3 X31.2428 Y39.8062 Z-0.5097 I0.0 J0.125
G2 X31.246 Y39.8075 I0.0031 J-0.003
G3 X31.2467 I0.0003 J0.125
G2 X31.2512 Y39.803 Z-0.5098 I0.0 J-0.0045
G3 Y39.8021 I0.125 J-0.0004
G2 X31.2499 Y39.799 I-0.0045 J0.0
G3 X31.2143 Y39.7117 Z-0.5105 I0.0895 J-0.0873
G1 Y39.0732 Z-0.5153
G3 X31.2499 Y38.9859 Z-0.516 I0.125 J0.0
G2 X31.2512 Y38.9827 I-0.0033 J-0.0032
G3 Y38.9818 Z-0.5161 I0.125 J-0.0005
G2 X31.2464 Y38.977 I-0.0048 J0.0
G3 X31.2462 I-0.0001 J-0.125
G2 X31.2427 Y38.9784 I0.0 J0.0047
G3 X31.1522 Y39.0172 Z-0.5169 I-0.0905 J-0.0862
G1 X30.8609 Z-0.5191
G3 X30.7359 Y38.8922 Z-0.5206 I0.0 J-0.125
G1 Y37.7054 Z-0.5294
G3 X30.8609 Y37.5804 Z-0.5309 I0.125 J0.0
G1 X33.4122 Z-0.55
G1 X33.5234
G3 X33.6484 Y37.7054 I0.0 J0.125
G1 Y37.9968
G3 X33.6094 Y38.0874 I-0.125 J0.0
G2 X33.6081 Y38.0905 I0.0029 J0.0031
G3 Y38.0912 I-0.125 J0.0003
G2 X33.6126 Y38.0957 I0.0045 J0.0
G3 X33.6135 I0.0004 J0.125
G2 X33.6166 Y38.0944 I0.0 J-0.0045
G3 X33.7039 Y38.0589 I0.0873 J0.0895
G1 X34.3425
G3 X34.4298 Y38.0944 I0.0 J0.125
G2 X34.4329 Y38.0957 I0.0031 J-0.0032
G3 X34.4339 I0.0005 J0.125
G2 X34.4387 Y38.0909 I0.0 J-0.0048
G3 Y38.0907 I0.125 J-0.0001
G2 X34.4372 Y38.0873 I-0.0046 J0.0
G3 X34.3984 Y37.9968 I0.0862 J-0.0906
G1 Y37.7054
G3 X34.5234 Y37.5804 I0.125 J0.0
G1 X36.5546
G3 X36.6796 Y37.7054 I0.0 J0.125
G1 Y37.9968
G3 X36.6407 Y38.0874 I-0.125 J0.0
G2 X36.6393 Y38.0905 I0.0029 J0.0031
G3 Y38.0912 I-0.125 J0.0003
G2 X36.6438 Y38.0957 I0.0045 J0.0
G3 X36.6447 I0.0004 J0.125
G2 X36.6479 Y38.0945 I0.0 J-0.0045
G3 X36.7352 Y38.0589 I0.0873 J0.0895
G1 X37.3737
G3 X37.461 Y38.0944 I0.0 J0.125
G2 X37.4642 Y38.0957 I0.0032 J-0.0033
G3 X37.4651 I0.0005 J0.125
G2 X37.4699 Y38.0909 I0.0 J-0.0048
G3 Y38.0907 I0.125 J-0.0001
G2 X37.4684 Y38.0873 I-0.0048 J0.0
G3 X37.4296 Y37.9968 I0.0862 J-0.0905
G1 Y37.7054
G3 X37.5546 Y37.5804 I0.125 J0.0
G1 X39.2315
G0 Z0.8
G1 X39.7315
G1 F10.0 Z-0.55
G1 F30.0 X43.2498
G3 X43.3748 Y37.7054 I0.0 J0.125
G1 Y37.9968
G3 X43.3358 Y38.0874 I-0.125 J0.0
G2 X43.3345 Y38.0905 I0.0029 J0.0031
G3 Y38.0912 I-0.125 J0.0003
G2 X43.339 Y38.0957 I0.0045 J0.0
G3 X43.3398 I0.0004 J0.125
G2 X43.343 Y38.0944 I0.0 J-0.0045
G3 X43.4303 Y38.0589 I0.0873 J0.0895
G1 X44.0689
G3 X44.1562 Y38.0944 I0.0 J0.125
G2 X44.1593 Y38.0957 I0.0031 J-0.0032
G3 X44.1603 I0.0005 J0.125
G2 X44.165 Y38.0909 I0.0 J-0.0048
G3 Y38.0907 I0.125 J-0.0001
G2 X44.1636 Y38.0873 I-0.0046 J0.0
G3 X44.1248 Y37.9968 I0.0862 J-0.0906
G1 Y37.7054
G3 X44.2498 Y37.5804 I0.125 J0.0
G1 X46.281
G3 X46.406 Y37.7054 I0.0 J0.125
G1 Y37.9968
G3 X46.3671 Y38.0874 I-0.125 J0.0
G2 X46.3657 Y38.0905 I0.0029 J0.0031
G3 Y38.0912 I-0.125 J0.0003
G2 X46.3702 Y38.0957 I0.0045 J0.0
G3 X46.3711 I0.0004 J0.125
G2 X46.3743 Y38.0944 I0.0 J-0.0045
G3 X46.4616 Y38.0589 I0.0873 J0.0895
G1 X47.1001
G3 X47.1874 Y38.0944 I0.0 J0.125
G2 X47.1906 Y38.0957 I0.0032 J-0.0033
G3 X47.1915 I0.0005 J0.125
G2 X47.1963 Y38.0909 I0.0 J-0.0048
G3 Y38.0907 I0.125 J-0.0001
G2 X47.1948 Y38.0873 I-0.0048 J0.0
G3 X47.156 Y37.9968 I0.0862 J-0.0905
G1 Y37.7054
G3 X47.281 Y37.5804 I0.125 J0.0
G1 X52.9758
G3 X53.1008 Y37.7054 I0.0 J0.125
G1 Y37.9968
G3 X53.0619 Y38.0874 I-0.125 J0.0
G2 X53.0605 Y38.0906 I0.003 J0.0031
G3 Y38.0912 I-0.125 J0.0003
G2 X53.065 Y38.0957 I0.0045 J0.0
G3 X53.0659 I0.0004 J0.125
G2 X53.0691 Y38.0945 I0.0 J-0.0045
G3 X53.1564 Y38.0589 I0.0873 J0.0895
G1 X53.7949
G3 X53.8822 Y38.0944 I0.0 J0.125
G2 X53.8854 Y38.0957 I0.0031 J-0.0032
G3 X53.8863 I0.0005 J0.125
G2 X53.8911 Y38.0909 I0.0 J-0.0048
G3 Y38.0907 I0.125 J-0.0001
G2 X53.8896 Y38.0873 I-0.0048 J0.0
G3 X53.8508 Y37.9968 I0.0862 J-0.0905
G1 Y37.7054
G3 X53.9758 Y37.5804 I0.125 J0.0
G1 X54.4186
G0 Z0.8
G1 X54.9186
G1 F10.0 Z-0.55
G1 F30.0 X56.0071
G3 X56.1321 Y37.7054 I0.0 J0.125
G1 Y37.9968
G3 X56.0931 Y38.0874 I-0.125 J0.0
G2 X56.0918 Y38.0905 I0.0029 J0.0031
G3 Y38.0912 I-0.125 J0.0003
G2 X56.0963 Y38.0957 I0.0045 J0.0
G3 X56.0971 I0.0004 J0.125
G2 X56.1003 Y38.0944 I0.0 J-0.0045
G3 X56.1876 Y38.0589 I0.0873 J0.0895
G1 X56.8262
G3 X56.9135 Y38.0944 I0.0 J0.125
G2 X56.9166 Y38.0957 I0.0031 J-0.0032
G3 X56.9175 I0.0005 J0.125
G2 X56.9223 Y38.0909 I0.0 J-0.0048
G3 Y38.0907 I0.125 J-0.0001
G2 X56.9209 Y38.0873 I-0.0046 J0.0
G3 X56.8821 Y37.9968 I0.0862 J-0.0906
G1 Y37.7054
G3 X57.0071 Y37.5804 I0.125 J0.0
G1 X59.6696
G3 X59.7946 Y37.7054 I0.0 J0.125
G1 Y38.8922
G3 X59.6696 Y39.0172 I-0.125 J0.0
G1 X59.3782
G3 X59.2876 Y38.9783 I0.0 J-0.125
G2 X59.2845 Y38.977 I-0.0031 J0.0029
G3 X59.2838 I-0.0003 J-0.125
G2 X59.2793 Y38.9815 I0.0 J0.0045
G3 Y38.9823 I-0.125 J0.0004
G2 X59.2806 Y38.9856 I0.0046 J0.0
G3 X59.3161 Y39.0728 I-0.0895 J0.0872
G1 Y39.7113
G3 X59.2805 Y39.7987 I-0.125 J0.0
G2 X59.2793 Y39.8018 I0.0032 J0.0031
G3 Y39.8027 I-0.125 J0.0006
G2 X59.284 Y39.8075 I0.0048 J0.0
G3 X59.2842 I0.0001 J0.125
G2 X59.2877 Y39.806 I0.0 J-0.0048
G3 X59.3782 Y39.7672 I0.0905 J0.0862
G1 X59.6696
G3 X59.7946 Y39.8922 I0.0 J0.125
G1 Y41.0791
G3 X59.6696 Y41.2041 I-0.125 J0.0
G1 X53.4601
G0 Z0.8
G1 X52.9601
G1 F10.0 Z-0.55
G1 F30.0 X35.286
G0 Z0.8
G1 X34.786
G1 F10.0 Z-0.55
G1 F30.0 X30.8609
G3 X30.7359 Y41.0791 I0.0 J-0.125
G1 Y39.8922
G3 X30.8609 Y39.7672 I0.125 J0.0
G1 X31.1522
G3 X31.2428 Y39.8062 I0.0 J0.125
G2 X31.246 Y39.8075 I0.0031 J-0.003
G3 X31.2467 I0.0003 J0.125
G2 X31.2512 Y39.803 I0.0 J-0.0045
G3 Y39.8021 I0.125 J-0.0004
G2 X31.2499 Y39.799 I-0.0045 J0.0
G3 X31.2143 Y39.7117 I0.0895 J-0.0873
G1 Y39.0732
G3 X31.2499 Y38.9859 I0.125 J0.0
G2 X31.2512 Y38.9827 I-0.0033 J-0.0032
G3 Y38.9818 I0.125 J-0.0005
G2 X31.2464 Y38.977 I-0.0048 J0.0
G3 X31.2462 I-0.0001 J-0.125
G2 X31.2427 Y38.9784 I0.0 J0.0047
G3 X31.1522 Y39.0172 I-0.0905 J-0.0862
G1 X30.8609
G3 X30.7359 Y38.8922 I0.0 J-0.125
G1 Y37.7054
G3 X30.8609 Y37.5804 I0.125 J0.0
G1 X33.4122
G0 Z1.5
G0 Y42.2218
G1 F10.0 Z0.0
G1 F30.0 X33.5234 Z-0.0008
G3 X33.6484 Y42.3468 Z-0.0022 I0.0 J0.125
G1 Y42.6381 Z-0.0044
G3 X33.6094 Y42.7288 Z-0.0051 I-0.125 J0.0
G2 X33.6081 Y42.7319 I0.003 J0.0031
G3 Y42.7326 I-0.125 J0.0003
G2 X33.6126 Y42.7371 Z-0.0052 I0.0045 J0.0
G3 X33.6134 I0.0004 J0.125
G2 X33.6167 Y42.7358 I0.0 J-0.0047
G3 X33.7039 Y42.7003 Z-0.0059 I0.0872 J0.0895
G1 X34.3425 Z-0.0106
G3 X34.4298 Y42.7358 Z-0.0113 I0.0 J0.125
G2 X34.4329 Y42.7371 I0.003 J-0.0031
G3 X34.4339 I0.0006 J0.125
G2 X34.4387 Y42.7323 Z-0.0114 I0.0 J-0.0048
G3 Y42.7321 I0.125 J-0.0001
G2 X34.4372 Y42.7287 I-0.0047 J0.0
G3 X34.3984 Y42.6381 Z-0.0121 I0.0862 J-0.0905
G1 Y42.3468 Z-0.0143
G3 X34.5234 Y42.2218 Z-0.0157 I0.125 J0.0
G1 X36.5546 Z-0.0305
G3 X36.6796 Y42.3468 Z-0.0319 I0.0 J0.125
G1 Y42.6381 Z-0.034
G3 X36.6407 Y42.7288 Z-0.0348 I-0.125 J0.0
G2 X36.6393 Y42.7319 I0.003 J0.0031
G3 Y42.7326 I-0.125 J0.0003
G2 X36.6438 Y42.7371 Z-0.0349 I0.0045 J0.0
G3 X36.6447 I0.0004 J0.125
G2 X36.6479 Y42.7358 I0.0 J-0.0046
G3 X36.7352 Y42.7003 Z-0.0356 I0.0873 J0.0895
G1 X37.3737 Z-0.0402
G3 X37.461 Y42.7358 Z-0.041 I0.0 J0.125
G2 X37.4641 Y42.7371 I0.0031 J-0.0032
G3 X37.4651 I0.0006 J0.125
G2 X37.4699 Y42.7323 I0.0 J-0.0048
G3 Y42.7321 I0.125 J-0.0001
G2 X37.4684 Y42.7286 Z-0.0411 I-0.0048 J0.0
G3 X37.4296 Y42.6381 Z-0.0418 I0.0862 J-0.0905
G1 Y42.3468 Z-0.0439
G3 X37.5546 Y42.2218 Z-0.0454 I0.125 J0.0
G1 X38.3361 Z-0.0511
G0 Z0.8
G1 X38.8361
G1 F10.0 Z-0.0547
G1 F30.0 X43.2498 Z-0.0869
G3 X43.3748 Y42.3468 Z-0.0883 I0.0 J0.125
G1 Y42.6381 Z-0.0904
G3 X43.3358 Y42.7288 Z-0.0912 I-0.125 J0.0
G2 X43.3345 Y42.7319 I0.003 J0.0031
G3 Y42.7326 I-0.125 J0.0003
G2 X43.339 Y42.7371 I0.0045 J0.0
G3 X43.3398 I0.0004 J0.125
G2 X43.3431 Y42.7358 Z-0.0913 I0.0 J-0.0047
G3 X43.4303 Y42.7003 Z-0.092 I0.0872 J0.0895
G1 X44.0689 Z-0.0966
G3 X44.1561 Y42.7358 Z-0.0973 I0.0 J0.125
G2 X44.1593 Y42.7371 Z-0.0974 I0.0032 J-0.0032
G3 X44.1603 I0.0005 J0.125
G2 X44.165 Y42.7323 I0.0 J-0.0048
G3 Y42.7321 I0.125 J-0.0001
G2 X44.1636 Y42.7287 I-0.0047 J0.0
G3 X44.1248 Y42.6381 Z-0.0982 I0.0862 J-0.0905
G1 Y42.3468 Z-0.1003
G3 X44.2498 Y42.2218 Z-0.1017 I0.125 J0.0
G1 X46.281 Z-0.1165
G3 X46.406 Y42.3468 Z-0.118 I0.0 J0.125
G1 Y42.6381 Z-0.1201
G3 X46.3671 Y42.7288 Z-0.1208 I-0.125 J0.0
G2 X46.3657 Y42.7319 Z-0.1209 I0.003 J0.0031
G3 Y42.7326 I-0.125 J0.0003
G2 X46.3702 Y42.7371 I0.0045 J0.0
G3 X46.3711 I0.0004 J0.125
G2 X46.3743 Y42.7358 I0.0 J-0.0046
G3 X46.4616 Y42.7003 Z-0.1216 I0.0872 J0.0895
G1 X47.1001 Z-0.1263
G3 X47.1874 Y42.7358 Z-0.127 I0.0 J0.125
G2 X47.1906 Y42.7371 I0.0031 J-0.0032
G3 X47.1915 I0.0005 J0.125
G2 X47.1963 Y42.7323 Z-0.1271 I0.0 J-0.0048
G3 Y42.7321 I0.125 J-0.0001
G2 X47.1948 Y42.7286 I-0.0048 J0.0
G3 X47.156 Y42.6381 Z-0.1279 I0.0862 J-0.0905
G1 Y42.3468 Z-0.13
G3 X47.281 Y42.2218 Z-0.1314 I0.125 J0.0
G1 X52.9758 Z-0.1729
G3 X53.1008 Y42.3468 Z-0.1743 I0.0 J0.125
G1 Y42.6381 Z-0.1765
G3 X53.0618 Y42.7288 Z-0.1772 I-0.125 J0.0
G2 X53.0605 Y42.7319 I0.0029 J0.003
G3 Y42.7326 I-0.125 J0.0004
G2 X53.065 Y42.7371 Z-0.1773 I0.0045 J0.0
G3 X53.0659 I0.0004 J0.125
G2 X53.0691 Y42.7358 I0.0 J-0.0046
G3 X53.1564 Y42.7003 Z-0.178 I0.0873 J0.0895
G1 X53.7949 Z-0.1827
G3 X53.8822 Y42.7358 Z-0.1834 I0.0 J0.125
G2 X53.8854 Y42.7371 I0.0032 J-0.0033
G3 X53.8863 I0.0005 J0.125
G2 X53.8911 Y42.7323 Z-0.1835 I0.0 J-0.0047
G3 Y42.7321 I0.125 J-0.0001
G2 X53.8896 Y42.7286 I-0.0048 J0.0
G3 X53.8508 Y42.6381 Z-0.1842 I0.0862 J-0.0905
G1 Y42.3468 Z-0.1863
G3 X53.9758 Y42.2218 Z-0.1878 I0.125 J0.0
G1 X54.6883 Z-0.193
G0 Z0.8
G1 X55.1883
G1 F10.0 Z-0.1966
G1 F30.0 X56.0071 Z-0.2026
G3 X56.1321 Y42.3468 Z-0.204 I0.0 J0.125
G1 Y42.6381 Z-0.2061
G3 X56.0931 Y42.7288 Z-0.2069 I-0.125 J0.0
G2 X56.0918 Y42.7319 I0.003 J0.0031
G3 Y42.7326 I-0.125 J0.0003
G2 X56.0963 Y42.7371 Z-0.207 I0.0045 J0.0
G3 X56.0971 I0.0004 J0.125
G2 X56.1004 Y42.7358 I0.0 J-0.0047
G3 X56.1876 Y42.7003 Z-0.2077 I0.0872 J0.0895
G1 X56.8262 Z-0.2123
G3 X56.9135 Y42.7358 Z-0.213 I0.0 J0.125
G2 X56.9165 Y42.7371 Z-0.2131 I0.0031 J-0.0031
G3 X56.9175 I0.0006 J0.125
G2 X56.9223 Y42.7323 I0.0 J-0.0048
G3 Y42.7321 I0.125 J-0.0001
G2 X56.9209 Y42.7287 Z-0.2132 I-0.0047 J0.0
G3 X56.8821 Y42.6381 Z-0.2139 I0.0862 J-0.0905
G1 Y42.3468 Z-0.216
G3 X57.0071 Y42.2218 Z-0.2175 I0.125 J0.0
G1 X59.6696 Z-0.2369
G3 X59.7946 Y42.3468 Z-0.2383 I0.0 J0.125
G1 Y44.0336 Z-0.2506
G3 X59.6696 Y44.1586 Z-0.252 I-0.125 J0.0
G1 X59.3782 Z-0.2541
G3 X59.2876 Y44.1197 Z-0.2549 I0.0 J-0.125
G2 X59.2845 Y44.1183 I-0.0031 J0.0029
G3 X59.2838 I-0.0003 J-0.125
G2 X59.2793 Y44.1228 Z-0.255 I0.0 J0.0045
G3 Y44.1237 I-0.125 J0.0004
G2 X59.2806 Y44.1269 I0.0047 J0.0
G3 X59.3161 Y44.2142 Z-0.2557 I-0.0895 J0.0872
G1 Y44.8527 Z-0.2603
G3 X59.2806 Y44.94 Z-0.261 I-0.125 J0.0
G2 X59.2793 Y44.9432 Z-0.2611 I0.0032 J0.0032
G3 Y44.9441 I-0.125 J0.0005
G2 X59.284 Y44.9489 I0.0048 J0.0
G3 X59.2842 I0.0001 J0.125
G2 X59.2877 Y44.9474 Z-0.2612 I0.0 J-0.0048
G3 X59.3782 Y44.9086 Z-0.2619 I0.0905 J0.0862
G1 X59.6696 Z-0.264
G3 X59.7946 Y45.0336 Z-0.2655 I0.0 J0.125
G1 Y46.7204 Z-0.2777
G3 X59.6696 Y46.8454 Z-0.2792 I-0.125 J0.0
G1 X53.2357 Z-0.3261
G0 Z0.8
G1 X52.7357
G1 F10.0 Z-0.3297
G1 F30.0 X34.5617 Z-0.4621
G0 Z0.8
G1 X34.0617
G1 F10.0 Z-0.4658
G1 F30.0 X30.8609 Z-0.4891
G3 X30.7359 Y46.7204 Z-0.4905 I0.0 J-0.125
G1 Y45.0336 Z-0.5028
G3 X30.8609 Y44.9086 Z-0.5042 I0.125 J0.0
G1 X31.1522 Z-0.5064
G3 X31.2428 Y44.9476 Z-0.5071 I0.0 J0.125
G2 X31.246 Y44.9489 I0.0031 J-0.003
G3 X31.2467 I0.0003 J0.125
G2 X31.2512 Y44.9444 Z-0.5072 I0.0 J-0.0045
G3 Y44.9435 I0.125 J-0.0004
G2 X31.2499 Y44.9403 I-0.0045 J0.0
G3 X31.2143 Y44.8531 Z-0.5079 I0.0895 J-0.0873
G1 Y44.2145 Z-0.5126
G3 X31.2499 Y44.1272 Z-0.5133 I0.125 J0.0
G2 X31.2512 Y44.1241 I-0.0032 J-0.0031
G3 Y44.1231 I0.125 J-0.0005
G2 X31.2464 Y44.1183 Z-0.5134 I-0.0048 J0.0
G3 X31.2462 I-0.0001 J-0.125
G2 X31.2427 Y44.1198 I0.0 J0.0048
G3 X31.1522 Y44.1586 Z-0.5141 I-0.0905 J-0.0862
G1 X30.8609 Z-0.5163
G3 X30.7359 Y44.0336 Z-0.5177 I0.0 J-0.125
G1 Y42.3468 Z-0.53
G3 X30.8609 Y42.2218 Z-0.5314 I0.125 J0.0
G1 X33.4122 Z-0.55
G1 X33.5234
G3 X33.6484 Y42.3468 I0.0 J0.125
G1 Y42.6381
G3 X33.6094 Y42.7288 I-0.125 J0.0
G2 X33.6081 Y42.7319 I0.003 J0.0031
G3 Y42.7326 I-0.125 J0.0003
G2 X33.6126 Y42.7371 I0.0045 J0.0
G3 X33.6134 I0.0004 J0.125
G2 X33.6167 Y42.7358 I0.0 J-0.0047
G3 X33.7039 Y42.7003 I0.0872 J0.0895
G1 X34.3425
G3 X34.4298 Y42.7358 I0.0 J0.125
G2 X34.4329 Y42.7371 I0.003 J-0.0031
G3 X34.4339 I0.0006 J0.125
G2 X34.4387 Y42.7323 I0.0 J-0.0048
G3 Y42.7321 I0.125 J-0.0001
G2 X34.4372 Y42.7287 I-0.0047 J0.0
G3 X34.3984 Y42.6381 I0.0862 J-0.0905
G1 Y42.3468
G3 X34.5234 Y42.2218 I0.125 J0.0
G1 X36.5546
G3 X36.6796 Y42.3468 I0.0 J0.125
G1 Y42.6381
G3 X36.6407 Y42.7288 I-0.125 J0.0
G2 X36.6393 Y42.7319 I0.003 J0.0031
G3 Y42.7326 I-0.125 J0.0003
G2 X36.6438 Y42.7371 I0.0045 J0.0
G3 X36.6447 I0.0004 J0.125
G2 X36.6479 Y42.7358 I0.0 J-0.0046
G3 X36.7352 Y42.7003 I0.0873 J0.0895
G1 X37.3737
G3 X37.461 Y42.7358 I0.0 J0.125
G2 X37.4641 Y42.7371 I0.0031 J-0.0032
G3 X37.4651 I0.0006 J0.125
G2 X37.4699 Y42.7323 I0.0 J-0.0048
G3 Y42.7321 I0.125 J-0.0001
G2 X37.4684 Y42.7286 I-0.0048 J0.0
G3 X37.4296 Y42.6381 I0.0862 J-0.0905
G1 Y42.3468
G3 X37.5546 Y42.2218 I0.125 J0.0
G1 X38.3361
G0 Z0.8
G1 X38.8361
G1 F10.0 Z-0.55
G1 F30.0 X43.2498
G3 X43.3748 Y42.3468 I0.0 J0.125
G1 Y42.6381
G3 X43.3358 Y42.7288 I-0.125 J0.0
G2 X43.3345 Y42.7319 I0.003 J0.0031
G3 Y42.7326 I-0.125 J0.0003
G2 X43.339 Y42.7371 I0.0045 J0.0
G3 X43.3398 I0.0004 J0.125
G2 X43.3431 Y42.7358 I0.0 J-0.0047
G3 X43.4303 Y42.7003 I0.0872 J0.0895
G1 X44.0689
G3 X44.1561 Y42.7358 I0.0 J0.125
G2 X44.1593 Y42.7371 I0.0032 J-0.0032
G3 X44.1603 I0.0005 J0.125
G2 X44.165 Y42.7323 I0.0 J-0.0048
G3 Y42.7321 I0.125 J-0.0001
G2 X44.1636 Y42.7287 I-0.0047 J0.0
G3 X44.1248 Y42.6381 I0.0862 J-0.0905
G1 Y42.3468
G3 X44.2498 Y42.2218 I0.125 J0.0
G1 X46.281
G3 X46.406 Y42.3468 I0.0 J0.125
G1 Y42.6381
G3 X46.3671 Y42.7288 I-0.125 J0.0
G2 X46.3657 Y42.7319 I0.003 J0.0031
G3 Y42.7326 I-0.125 J0.0003
G2 X46.3702 Y42.7371 I0.0045 J0.0
G3 X46.3711 I0.0004 J0.125
G2 X46.3743 Y42.7358 I0.0 J-0.0046
G3 X46.4616 Y42.7003 I0.0872 J0.0895
G1 X47.1001
G3 X47.1874 Y42.7358 I0.0 J0.125
G2 X47.1906 Y42.7371 I0.0031 J-0.0032
G3 X47.1915 I0.0005 J0.125
G2 X47.1963 Y42.7323 I0.0 J-0.0048
G3 Y42.7321 I0.125 J-0.0001
G2 X47.1948 Y42.7286 I-0.0048 J0.0
G3 X47.156 Y42.6381 I0.0862 J-0.0905
G1 Y42.3468
G3 X47.281 Y42.2218 I0.125 J0.0
G1 X52.9758
G3 X53.1008 Y42.3468 I0.0 J0.125
G1 Y42.6381
G3 X53.0618 Y42.7288 I-0.125 J0.0
G2 X53.0605 Y42.7319 I0.0029 J0.003
G3 Y42.7326 I-0.125 J0.0004
G2 X53.065 Y42.7371 I0.0045 J0.0
G3 X53.0659 I0.0004 J0.125
G2 X53.0691 Y42.7358 I0.0 J-0.0046
G3 X53.1564 Y42.7003 I0.0873 J0.0895
G1 X53.7949
G3 X53.8822 Y42.7358 I0.0 J0.125
G2 X53.8854 Y42.7371 I0.0032 J-0.0033
G3 X53.8863 I0.0005 J0.125
G2 X53.8911 Y42.7323 I0.0 J-0.0047
G3 Y42.7321 I0.125 J-0.0001
G2 X53.8896 Y42.7286 I-0.0048 J0.0
G3 X53.8508 Y42.6381 I0.0862 J-0.0905
G1 Y42.3468
G3 X53.9758 Y42.2218 I0.125 J0.0
G1 X54.6883
G0 Z0.8
G1 X55.1883
G1 F10.0 Z-0.55
G1 F30.0 X56.0071
G3 X56.1321 Y42.3468 I0.0 J0.125
G1 Y42.6381
G3 X56.0931 Y42.7288 I-0.125 J0.0
G2 X56.0918 Y42.7319 I0.003 J0.0031
G3 Y42.7326 I-0.125 J0.0003
G2 X56.0963 Y42.7371 I0.0045 J0.0
G3 X56.0971 I0.0004 J0.125
G2 X56.1004 Y42.7358 I0.0 J-0.0047
G3 X56.1876 Y42.7003 I0.0872 J0.0895
G1 X56.8262
G3 X56.9135 Y42.7358 I0.0 J0.125
G2 X56.9165 Y42.7371 I0.0031 J-0.0031
G3 X56.9175 I0.0006 J0.125
G2 X56.9223 Y42.7323 I0.0 J-0.0048
G3 Y42.7321 I0.125 J-0.0001
G2 X56.9209 Y42.7287 I-0.0047 J0.0
G3 X56.8821 Y42.6381 I0.0862 J-0.0905
G1 Y42.3468
G3 X57.0071 Y42.2218 I0.125 J0.0
G1 X59.6696
G3 X59.7946 Y42.3468 I0.0 J0.125
G1 Y44.0336
G3 X59.6696 Y44.1586 I-0.125 J0.0
G1 X59.3782
G3 X59.2876 Y44.1197 I0.0 J-0.125
G2 X59.2845 Y44.1183 I-0.0031 J0.0029
G3 X59.2838 I-0.0003 J-0.125
G2 X59.2793 Y44.1228 I0.0 J0.0045
G3 Y44.1237 I-0.125 J0.0004
G2 X59.2806 Y44.1269 I0.0047 J0.0
G3 X59.3161 Y44.2142 I-0.0895 J0.0872
G1 Y44.8527
G3 X59.2806 Y44.94 I-0.125 J0.0
G2 X59.2793 Y44.9432 I0.0032 J0.0032
G3 Y44.9441 I-0.125 J0.0005
G2 X59.284 Y44.9489 I0.0048 J0.0
G3 X59.2842 I0.0001 J0.125
G2 X59.2877 Y44.9474 I0.0 J-0.0048
G3 X59.3782 Y44.9086 I0.0905 J0.0862
G1 X59.6696
G3 X59.7946 Y45.0336 I0.0 J0.125
G1 Y46.7204
G3 X59.6696 Y46.8454 I-0.125 J0.0
G1 X53.2357
G0 Z0.8
G1 X52.7357
G1 F10.0 Z-0.55
G1 F30.0 X34.5617
G0 Z0.8
G1 X34.0617
G1 F10.0 Z-0.55
G1 F30.0 X30.8609
G3 X30.7359 Y46.7204 I0.0 J-0.125
G1 Y45.0336
G3 X30.8609 Y44.9086 I0.125 J0.0
G1 X31.1522
G3 X31.2428 Y44.9476 I0.0 J0.125
G2 X31.246 Y44.9489 I0.0031 J-0.003
G3 X31.2467 I0.0003 J0.125
G2 X31.2512 Y44.9444 I0.0 J-0.0045
G3 Y44.9435 I0.125 J-0.0004
G2 X31.2499 Y44.9403 I-0.0045 J0.0
G3 X31.2143 Y44.8531 I0.0895 J-0.0873
G1 Y44.2145
G3 X31.2499 Y44.1272 I0.125 J0.0
G2 X31.2512 Y44.1241 I-0.0032 J-0.0031
G3 Y44.1231 I0.125 J-0.0005
G2 X31.2464 Y44.1183 I-0.0048 J0.0
G3 X31.2462 I-0.0001 J-0.125
G2 X31.2427 Y44.1198 I0.0 J0.0048
G3 X31.1522 Y44.1586 I-0.0905 J-0.0862
G1 X30.8609
G3 X30.7359 Y44.0336 I0.0 J-0.125
G1 Y42.3468
G3 X30.8609 Y42.2218 I0.125 J0.0
G1 X33.4122
G0 Z1.5
G0 X29.9443 Y42.3952
G1 F10.0 Z0.0
G3 F30.0 X29.9444 Y42.4015 I-0.1248 J0.0062
G1 Y44.0883 Z-0.0123
G3 X29.8194 Y44.2133 Z-0.0138 I-0.125 J0.0
G1 X29.5281 Z-0.0159
G3 X29.4375 Y44.1744 Z-0.0166 I0.0 J-0.125
G2 X29.4343 Y44.173 Z-0.0167 I-0.0032 J0.003
G3 X29.4337 I-0.0003 J-0.125
G2 X29.4292 Y44.1775 I0.0 J0.0045
G3 Y44.1784 I-0.125 J0.0004
G2 X29.4304 Y44.1815 I0.0045 J0.0
G3 X29.466 Y44.2688 Z-0.0174 I-0.0895 J0.0873
G1 Y44.9074 Z-0.0221
G3 X29.4304 Y44.9947 Z-0.0228 I-0.125 J0.0
G2 X29.4292 Y44.9979 I0.0033 J0.0032
G3 Y44.9988 I-0.125 J0.0005
G2 X29.4339 Y45.0036 Z-0.0229 I0.0048 J0.0
G3 X29.4341 I0.0001 J0.125
G2 X29.4376 Y45.0021 I0.0 J-0.0048
G3 X29.5281 Y44.9633 Z-0.0237 I0.0905 J0.0862
G1 X29.8194 Z-0.0258
G3 X29.9444 Y45.0883 Z-0.0272 I0.0 J0.125
G1 Y46.7751 Z-0.0395
G3 X29.8194 Y46.9001 Z-0.0409 I-0.125 J0.0
G1 X27.1569 Z-0.0603
G3 X27.0319 Y46.7751 Z-0.0618 I0.0 J-0.125
G1 Y46.4838 Z-0.0639
G3 X27.0709 Y46.3931 Z-0.0646 I0.125 J0.0
G2 X27.0722 Y46.39 Z-0.0647 I-0.003 J-0.0031
G3 Y46.3893 I0.125 J-0.0003
G2 X27.0677 Y46.3848 I-0.0045 J0.0
G3 X27.0669 I-0.0004 J-0.125
G2 X27.0636 Y46.3861 I0.0 J0.0046
G3 X26.9764 Y46.4216 Z-0.0654 I-0.0873 J-0.0895
G1 X26.3378 Z-0.0701
G3 X26.2505 Y46.3861 Z-0.0708 I0.0 J-0.125
G2 X26.2474 Y46.3848 I-0.0031 J0.0032
G3 X26.2464 I-0.0005 J-0.125
G2 X26.2417 Y46.3896 Z-0.0709 I0.0 J0.0048
G3 Y46.3898 I-0.125 J0.0001
G2 X26.2431 Y46.3932 I0.0047 J0.0
G3 X26.2819 Y46.4838 Z-0.0717 I-0.0862 J0.0905
G1 Y46.7751 Z-0.0738
G3 X26.1569 Y46.9001 Z-0.0752 I-0.125 J0.0
G1 X24.1257 Z-0.09
G3 X24.0007 Y46.7751 Z-0.0914 I0.0 J-0.125
G1 Y46.4838 Z-0.0936
G3 X24.0396 Y46.3931 Z-0.0943 I0.125 J0.0
G2 X24.041 Y46.39 I-0.003 J-0.0031
G3 Y46.3893 I0.125 J-0.0003
G2 X24.0365 Y46.3848 Z-0.0944 I-0.0045 J0.0
G3 X24.0356 I-0.0004 J-0.125
G2 X24.0324 Y46.3861 I0.0 J0.0045
G3 X23.9451 Y46.4216 Z-0.0951 I-0.0873 J-0.0895
G1 X23.3066 Z-0.0998
G3 X23.2193 Y46.3861 Z-0.1005 I0.0 J-0.125
G2 X23.2161 Y46.3848 I-0.0032 J0.0033
G3 X23.2152 I-0.0005 J-0.125
G2 X23.2104 Y46.3896 Z-0.1006 I0.0 J0.0048
G3 Y46.3898 I-0.125 J0.0001
G2 X23.2119 Y46.3933 I0.0048 J0.0
G3 X23.2507 Y46.4838 Z-0.1013 I-0.0862 J0.0905
G1 Y46.7751 Z-0.1035
G3 X23.1257 Y46.9001 Z-0.1049 I-0.125 J0.0
G1 X22.3442 Z-0.1106
G0 Z0.8
G1 X21.8442
G1 F10.0 Z-0.1142
G1 F30.0 X17.4305 Z-0.1464
G3 X17.3055 Y46.7751 Z-0.1478 I0.0 J-0.125
G1 Y46.4838 Z-0.1499
G3 X17.3445 Y46.3931 Z-0.1507 I0.125 J0.0
G2 X17.3458 Y46.39 I-0.003 J-0.0031
G3 Y46.3893 I0.125 J-0.0003
G2 X17.3413 Y46.3848 Z-0.1508 I-0.0045 J0.0
G3 X17.3405 I-0.0004 J-0.125
G2 X17.3372 Y46.3861 I0.0 J0.0046
G3 X17.25 Y46.4216 Z-0.1515 I-0.0873 J-0.0895
G1 X16.6115 Z-0.1561
G3 X16.5242 Y46.3861 Z-0.1568 I0.0 J-0.125
G2 X16.521 Y46.3848 Z-0.1569 I-0.0031 J0.0032
G3 X16.5201 I-0.0005 J-0.125
G2 X16.5153 Y46.3896 I0.0 J0.0048
G3 Y46.3898 I-0.125 J0.0001
G2 X16.5167 Y46.3932 Z-0.157 I0.0047 J0.0
G3 X16.5555 Y46.4838 Z-0.1577 I-0.0862 J0.0905
G1 Y46.7751 Z-0.1598
G3 X16.4305 Y46.9001 Z-0.1613 I-0.125 J0.0
G1 X14.3993 Z-0.1761
G3 X14.2743 Y46.7751 Z-0.1775 I0.0 J-0.125
G1 Y46.4838 Z-0.1796
G3 X14.3132 Y46.3931 Z-0.1804 I0.125 J0.0
G2 X14.3146 Y46.39 I-0.003 J-0.0031
G3 Y46.3893 I0.125 J-0.0003
G2 X14.3101 Y46.3848 I-0.0045 J0.0
G3 X14.3092 I-0.0004 J-0.125
G2 X14.306 Y46.3861 Z-0.1805 I0.0 J0.0046
G3 X14.2187 Y46.4216 Z-0.1812 I-0.0873 J-0.0895
G1 X13.5802 Z-0.1858
G3 X13.4929 Y46.3861 Z-0.1865 I0.0 J-0.125
G2 X13.4898 Y46.3848 Z-0.1866 I-0.0031 J0.0032
G3 X13.4888 I-0.0005 J-0.125
G2 X13.484 Y46.3896 I0.0 J0.0048
G3 Y46.3898 I-0.125 J0.0001
G2 X13.4855 Y46.3933 I0.0048 J0.0
G3 X13.5243 Y46.4838 Z-0.1874 I-0.0862 J0.0905
G1 Y46.7751 Z-0.1895
G3 X13.3993 Y46.9001 Z-0.1909 I-0.125 J0.0
G1 X7.7045 Z-0.2324
G3 X7.5795 Y46.7751 Z-0.2339 I0.0 J-0.125
G1 Y46.4838 Z-0.236
G3 X7.6185 Y46.3931 Z-0.2367 I0.125 J0.0
G2 X7.6198 Y46.39 I-0.0029 J-0.003
G3 Y46.3893 Z-0.2368 I0.125 J-0.0003
G2 X7.6153 Y46.3848 I-0.0045 J0.0
G3 X7.6144 I-0.0004 J-0.125
G2 X7.6112 Y46.3861 I0.0 J0.0045
G3 X7.5239 Y46.4216 Z-0.2375 I-0.0873 J-0.0895
G1 X6.8854 Z-0.2422
G3 X6.7981 Y46.3861 Z-0.2429 I0.0 J-0.125
G2 X6.795 Y46.3848 I-0.0032 J0.0032
G3 X6.794 I-0.0005 J-0.125
G2 X6.7892 Y46.3896 Z-0.243 I0.0 J0.0048
G3 Y46.3898 I-0.125 J0.0001
G2 X6.7907 Y46.3933 I0.0048 J0.0
G3 X6.8295 Y46.4838 Z-0.2438 I-0.0862 J0.0905
G1 Y46.7751 Z-0.2459
G3 X6.7045 Y46.9001 Z-0.2473 I-0.125 J0.0
G1 X5.9863 Z-0.2525
G0 Z0.8
G1 X5.4863
G1 F10.0 Z-0.2562
G1 F30.0 X4.6733 Z-0.2621
G3 X4.5483 Y46.7751 Z-0.2635 I0.0 J-0.125
G1 Y46.4838 Z-0.2657
G3 X4.5872 Y46.3931 Z-0.2664 I0.125 J0.0
G2 X4.5885 Y46.39 I-0.003 J-0.0031
G3 Y46.3893 I0.125 J-0.0003
G2 X4.584 Y46.3848 Z-0.2665 I-0.0045 J0.0
G3 X4.5832 I-0.0004 J-0.125
G2 X4.58 Y46.3861 I0.0 J0.0046
G3 X4.4927 Y46.4216 Z-0.2672 I-0.0873 J-0.0895
G1 X3.8542 Z-0.2719
G3 X3.7669 Y46.3861 Z-0.2726 I0.0 J-0.125
G2 X3.7637 Y46.3848 I-0.0031 J0.0032
G3 X3.7628 I-0.0005 J-0.125
G2 X3.758 Y46.3896 Z-0.2727 I0.0 J0.0048
G3 Y46.3898 I-0.125 J0.0001
G2 X3.7594 Y46.3932 I0.0047 J0.0
G3 X3.7983 Y46.4838 Z-0.2734 I-0.0862 J0.0905
G1 Y46.7751 Z-0.2755
G3 X3.6733 Y46.9001 Z-0.277 I-0.125 J0.0
G1 X1.0108 Z-0.2964
G3 X0.8858 Y46.7751 Z-0.2978 I0.0 J-0.125
G1 Y45.0883 Z-0.3101
G3 X1.0108 Y44.9633 Z-0.3115 I0.125 J0.0
G1 X1.3021 Z-0.3137
G3 X1.3927 Y45.0022 Z-0.3144 I0.0 J0.125
G2 X1.3959 Y45.0036 I0.0031 J-0.003
G3 X1.3966 I0.0003 J0.125
G2 X1.401 Y44.9991 Z-0.3145 I0.0 J-0.0045
G3 Y44.9982 I0.125 J-0.0004
G2 X1.3997 Y44.995 I-0.0047 J0.0
G3 X1.3642 Y44.9077 Z-0.3152 I0.0895 J-0.0872
G1 Y44.2692 Z-0.3199
G3 X1.3998 Y44.1819 Z-0.3206 I0.125 J0.0
G2 X1.401 Y44.1788 I-0.0032 J-0.0031
G3 Y44.1778 I0.125 J-0.0006
G2 X1.3963 Y44.173 Z-0.3207 I-0.0048 J0.0
G3 X1.396 I-0.0001 J-0.125
G2 X1.3926 Y44.1745 I0.0 J0.0047
G3 X1.3021 Y44.2133 Z-0.3214 I-0.0905 J-0.0862
G1 X1.0108 Z-0.3235
G3 X0.8858 Y44.0883 Z-0.325 I0.0 J-0.125
G1 Y42.4015 Z-0.3373
G3 X1.0108 Y42.2765 Z-0.3387 I0.125 J0.0
G1 X7.4446 Z-0.3856
G0 Z0.8
G1 X7.9446
G1 F10.0 Z-0.3892
G1 F30.0 X26.1186 Z-0.5216
G0 Z0.8
G1 X26.6186
G1 F10.0 Z-0.5253
G1 F30.0 X29.8194 Z-0.5486
G3 X29.9443 Y42.3952 Z-0.55 I0.0 J0.125
G3 X29.9444 Y42.4015 I-0.1248 J0.0062
G1 Y44.0883
G3 X29.8194 Y44.2133 I-0.125 J0.0
G1 X29.5281
G3 X29.4375 Y44.1744 I0.0 J-0.125
G2 X29.4343 Y44.173 I-0.0032 J0.003
G3 X29.4337 I-0.0003 J-0.125
G2 X29.4292 Y44.1775 I0.0 J0.0045
G3 Y44.1784 I-0.125 J0.0004
G2 X29.4304 Y44.1815 I0.0045 J0.0
G3 X29.466 Y44.2688 I-0.0895 J0.0873
G1 Y44.9074
G3 X29.4304 Y44.9947 I-0.125 J0.0
G2 X29.4292 Y44.9979 I0.0033 J0.0032
G3 Y44.9988 I-0.125 J0.0005
G2 X29.4339 Y45.0036 I0.0048 J0.0
G3 X29.4341 I0.0001 J0.125
G2 X29.4376 Y45.0021 I0.0 J-0.0048
G3 X29.5281 Y44.9633 I0.0905 J0.0862
G1 X29.8194
G3 X29.9444 Y45.0883 I0.0 J0.125
G1 Y46.7751
G3 X29.8194 Y46.9001 I-0.125 J0.0
G1 X27.1569
G3 X27.0319 Y46.7751 I0.0 J-0.125
G1 Y46.4838
G3 X27.0709 Y46.3931 I0.125 J0.0
G2 X27.0722 Y46.39 I-0.003 J-0.0031
G3 Y46.3893 I0.125 J-0.0003
G2 X27.0677 Y46.3848 I-0.0045 J0.0
G3 X27.0669 I-0.0004 J-0.125
G2 X27.0636 Y46.3861 I0.0 J0.0046
G3 X26.9764 Y46.4216 I-0.0873 J-0.0895
G1 X26.3378
G3 X26.2505 Y46.3861 I0.0 J-0.125
G2 X26.2474 Y46.3848 I-0.0031 J0.0032
G3 X26.2464 I-0.0005 J-0.125
G2 X26.2417 Y46.3896 I0.0 J0.0048
G3 Y46.3898 I-0.125 J0.0001
G2 X26.2431 Y46.3932 I0.0047 J0.0
G3 X26.2819 Y46.4838 I-0.0862 J0.0905
G1 Y46.7751
G3 X26.1569 Y46.9001 I-0.125 J0.0
G1 X24.1257
G3 X24.0007 Y46.7751 I0.0 J-0.125
G1 Y46.4838
G3 X24.0396 Y46.3931 I0.125 J0.0
G2 X24.041 Y46.39 I-0.003 J-0.0031
G3 Y46.3893 I0.125 J-0.0003
G2 X24.0365 Y46.3848 I-0.0045 J0.0
G3 X24.0356 I-0.0004 J-0.125
G2 X24.0324 Y46.3861 I0.0 J0.0045
G3 X23.9451 Y46.4216 I-0.0873 J-0.0895
G1 X23.3066
G3 X23.2193 Y46.3861 I0.0 J-0.125
G2 X23.2161 Y46.3848 I-0.0032 J0.0033
G3 X23.2152 I-0.0005 J-0.125
G2 X23.2104 Y46.3896 I0.0 J0.0048
G3 Y46.3898 I-0.125 J0.0001
G2 X23.2119 Y46.3933 I0.0048 J0.0
G3 X23.2507 Y46.4838 I-0.0862 J0.0905
G1 Y46.7751
G3 X23.1257 Y46.9001 I-0.125 J0.0
G1 X22.3442
G0 Z0.8
G1 X21.8442
G1 F10.0 Z-0.55
G1 F30.0 X17.4305
G3 X17.3055 Y46.7751 I0.0 J-0.125
G1 Y46.4838
G3 X17.3445 Y46.3931 I0.125 J0.0
G2 X17.3458 Y46.39 I-0.003 J-0.0031
G3 Y46.3893 I0.125 J-0.0003
G2 X17.3413 Y46.3848 I-0.0045 J0.0
G3 X17.3405 I-0.0004 J-0.125
G2 X17.3372 Y46.3861 I0.0 J0.0046
G3 X17.25 Y46.4216 I-0.0873 J-0.0895
G1 X16.6115
G3 X16.5242 Y46.3861 I0.0 J-0.125
G2 X16.521 Y46.3848 I-0.0031 J0.0032
G3 X16.5201 I-0.0005 J-0.125
G2 X16.5153 Y46.3896 I0.0 J0.0048
G3 Y46.3898 I-0.125 J0.0001
G2 X16.5167 Y46.3932 I0.0047 J0.0
G3 X16.5555 Y46.4838 I-0.0862 J0.0905
G1 Y46.7751
G3 X16.4305 Y46.9001 I-0.125 J0.0
G1 X14.3993
G3 X14.2743 Y46.7751 I0.0 J-0.125
G1 Y46.4838
G3 X14.3132 Y46.3931 I0.125 J0.0
G2 X14.3146 Y46.39 I-0.003 J-0.0031
G3 Y46.3893 I0.125 J-0.0003
G2 X14.3101 Y46.3848 I-0.0045 J0.0
G3 X14.3092 I-0.0004 J-0.125
G2 X14.306 Y46.3861 I0.0 J0.0046
G3 X14.2187 Y46.4216 I-0.0873 J-0.0895
G1 X13.5802
G3 X13.4929 Y46.3861 I0.0 J-0.125
G2 X13.4898 Y46.3848 I-0.0031 J0.0032
G3 X13.4888 I-0.0005 J-0.125
G2 X13.484 Y46.3896 I0.0 J0.0048
G3 Y46.3898 I-0.125 J0.0001
G2 X13.4855 Y46.3933 I0.0048 J0.0
G3 X13.5243 Y46.4838 I-0.0862 J0.0905
G1 Y46.7751
G3 X13.3993 Y46.9001 I-0.125 J0.0
G1 X7.7045
G3 X7.5795 Y46.7751 I0.0 J-0.125
G1 Y46.4838
G3 X7.6185 Y46.3931 I0.125 J0.0
G2 X7.6198 Y46.39 I-0.0029 J-0.003
G3 Y46.3893 I0.125 J-0.0003
G2 X7.6153 Y46.3848 I-0.0045 J0.0
G3 X7.6144 I-0.0004 J-0.125
G2 X7.6112 Y46.3861 I0.0 J0.0045
G3 X7.5239 Y46.4216 I-0.0873 J-0.0895
G1 X6.8854
G3 X6.7981 Y46.3861 I0.0 J-0.125
G2 X6.795 Y46.3848 I-0.0032 J0.0032
G3 X6.794 I-0.0005 J-0.125
G2 X6.7892 Y46.3896 I0.0 J0.0048
G3 Y46.3898 I-0.125 J0.0001
G2 X6.7907 Y46.3933 I0.0048 J0.0
G3 X6.8295 Y46.4838 I-0.0862 J0.0905
G1 Y46.7751
G3 X6.7045 Y46.9001 I-0.125 J0.0
G1 X5.9863
G0 Z0.8
G1 X5.4863
G1 F10.0 Z-0.55
G1 F30.0 X4.6733
G3 X4.5483 Y46.7751 I0.0 J-0.125
G1 Y46.4838
G3 X4.5872 Y46.3931 I0.125 J0.0
G2 X4.5885 Y46.39 I-0.003 J-0.0031
G3 Y46.3893 I0.125 J-0.0003
G2 X4.584 Y46.3848 I-0.0045 J0.0
G3 X4.5832 I-0.0004 J-0.125
G2 X4.58 Y46.3861 I0.0 J0.0046
G3 X4.4927 Y46.4216 I-0.0873 J-0.0895
G1 X3.8542
G3 X3.7669 Y46.3861 I0.0 J-0.125
G2 X3.7637 Y46.3848 I-0.0031 J0.0032
G3 X3.7628 I-0.0005 J-0.125
G2 X3.758 Y46.3896 I0.0 J0.0048
G3 Y46.3898 I-0.125 J0.0001
G2 X3.7594 Y46.3932 I0.0047 J0.0
G3 X3.7983 Y46.4838 I-0.0862 J0.0905
G1 Y46.7751
G3 X3.6733 Y46.9001 I-0.125 J0.0
G1 X1.0108
G3 X0.8858 Y46.7751 I0.0 J-0.125
G1 Y45.0883
G3 X1.0108 Y44.9633 I0.125 J0.0
G1 X1.3021
G3 X1.3927 Y45.0022 I0.0 J0.125
G2 X1.3959 Y45.0036 I0.0031 J-0.003
G3 X1.3966 I0.0003 J0.125
G2 X1.401 Y44.9991 I0.0 J-0.0045
G3 Y44.9982 I0.125 J-0.0004
G2 X1.3997 Y44.995 I-0.0047 J0.0
G3 X1.3642 Y44.9077 I0.0895 J-0.0872
G1 Y44.2692
G3 X1.3998 Y44.1819 I0.125 J0.0
G2 X1.401 Y44.1788 I-0.0032 J-0.0031
G3 Y44.1778 I0.125 J-0.0006
G2 X1.3963 Y44.173 I-0.0048 J0.0
G3 X1.396 I-0.0001 J-0.125
G2 X1.3926 Y44.1745 I0.0 J0.0047
G3 X1.3021 Y44.2133 I-0.0905 J-0.0862
G1 X1.0108
G3 X0.8858 Y44.0883 I0.0 J-0.125
G1 Y42.4015
G3 X1.0108 Y42.2765 I0.125 J0.0
G1 X7.4446
G0 Z0.8
G1 X7.9446
G1 F10.0 Z-0.55
G1 F30.0 X26.1186
G0 Z0.8
G1 X26.6186
G1 F10.0 Z-0.55
G1 F30.0 X29.8194
G3 X29.9443 Y42.3952 I0.0 J0.125
G0 Z1.5
G0 X33.5208 Y18.3349
G1 F10.0 Z0.0
G3 F30.0 X33.4142 Y18.2113 Z-0.0009 I0.0184 J-0.1236
G1 Y18.0241 Z-0.0018
G1 Y17.8335 Z-0.0028
G1 Y17.774 Z-0.0031
G3 X33.4122 Y17.7571 Z-0.0032 I0.1229 J-0.0228
G2 X33.4075 Y17.7526 I-0.0047 J0.0002
G3 X33.407 I-0.0003 J-0.125
G2 X33.4026 Y17.7568 I0.0 J0.0044
G3 X33.2777 Y17.8762 Z-0.0042 I-0.1249 J-0.0056
G1 X31.3284 Z-0.0139
G3 X31.2034 Y17.7512 Z-0.0149 I0.0 J-0.125
G1 Y16.1394 Z-0.0229
G3 X31.3225 Y16.0145 Z-0.0239 I0.125 J0.0
G2 X31.327 Y16.0099 I-0.0002 J-0.0047
G3 Y16.0093 I0.125 J-0.0003
G2 X31.3228 Y16.0049 I-0.0044 J0.0
G3 X31.3077 Y16.0033 Z-0.024 I0.0056 J-0.1249
G1 X31.0593 Z-0.0252
G1 X30.8683 Z-0.0262
G3 X30.7433 Y15.8783 Z-0.0272 I0.0 J-0.125
G1 Y14.9096 Z-0.032
G3 X30.8683 Y14.7846 Z-0.033 I0.125 J0.0
G1 X31.2465 Z-0.0349
G1 X31.3076 Z-0.0352
G3 X31.3228 Y14.7829 I0.0208 J0.1233
G2 X31.327 Y14.7786 Z-0.0353 I-0.0002 J-0.0044
G3 Y14.778 I0.125 J-0.0003
G2 X31.3226 Y14.7733 I-0.0047 J0.0
G3 X31.2034 Y14.6484 Z-0.0363 I0.0058 J-0.1249
G1 Y13.1026 Z-0.044
G3 X31.3228 Y12.9777 Z-0.0449 I0.125 J0.0
G2 X31.327 Y12.9733 Z-0.045 I-0.0002 J-0.0044
G3 Y12.9727 I0.125 J-0.0003
G2 X31.3225 Y12.9682 I-0.0045 J0.0
G3 X31.3221 I-0.0004 J-0.125
G1 X31.0834 Z-0.0462
G3 X31.0831 Y12.9683 I-0.0198 J-0.1234
G3 X31.0823 Y12.9684 I-0.0251 J-0.1225
G3 X31.0819 Y12.9685 I-0.0257 J-0.1223
G2 X31.081 Y12.9687 I0.0073 J0.035
G3 X31.0432 Y12.9717 Z-0.0464 I-0.0286 J-0.1217
G1 X30.8683 Z-0.0473
G3 X30.7433 Y12.8467 Z-0.0482 I0.0 J-0.125
G1 Y11.8783 Z-0.0531
G3 X30.8683 Y11.7533 Z-0.054 I0.125 J0.0
G1 X31.0555 Z-0.055
G1 X31.2461 Z-0.0559
G1 X31.3077 Z-0.0562
G3 X31.3225 Y11.7517 Z-0.0563 I0.0207 J0.1233
G2 X31.327 Y11.747 I-0.0002 J-0.0047
G3 Y11.7465 I0.125 J-0.0003
G2 X31.3228 Y11.7421 Z-0.0564 I-0.0044 J0.0
G3 X31.2034 Y11.6172 Z-0.0573 I0.0056 J-0.1249
G1 Y9.8937 Z-0.0659
G0 Z0.8
G1 Y9.3937
G1 F10.0 Z-0.0684
G1 F30.0 Y7.637 Z-0.0772
G3 X31.3225 Y7.5121 Z-0.0781 I0.125 J0.0
G2 X31.327 Y7.5074 I-0.0002 J-0.0047
G3 Y7.5069 Z-0.0782 I0.125 J-0.0003
G2 X31.3228 Y7.5025 I-0.0044 J0.0
G3 X31.3077 Y7.5009 Z-0.0783 I0.0056 J-0.1249
G1 X31.0593 Z-0.0795
G1 X30.8683 Z-0.0804
G3 X30.7433 Y7.3759 Z-0.0814 I0.0 J-0.125
G1 Y6.4071 Z-0.0863
G3 X30.8683 Y6.2821 Z-0.0872 I0.125 J0.0
G1 X31.2465 Z-0.0891
G1 X31.3077 Z-0.0894
G3 X31.3228 Y6.2805 Z-0.0895 I0.0207 J0.1233
G2 X31.327 Y6.2762 I-0.0002 J-0.0044
G3 Y6.2756 I0.125 J-0.0003
G2 X31.3225 Y6.2709 Z-0.0896 I-0.0047 J0.0
G3 X31.2034 Y6.146 Z-0.0905 I0.0059 J-0.1249
G1 Y4.6002 Z-0.0982
G3 X31.3228 Y4.4753 Z-0.0992 I0.125 J0.0
G2 X31.327 Y4.4709 I-0.0002 J-0.0044
G3 Y4.4703 I0.125 J-0.0003
G2 X31.3225 Y4.4658 I-0.0045 J0.0
G3 X31.3221 Z-0.0993 I-0.0004 J-0.125
G1 X31.0835 Z-0.1004
G3 X31.0831 Y4.4659 I-0.0198 J-0.1234
G3 X31.0823 Y4.466 I-0.0251 J-0.1225
G3 X31.0814 Y4.4662 Z-0.1005 I-0.0257 J-0.1223
G3 X31.0432 Y4.4693 Z-0.1006 I-0.029 J-0.1216
G1 X30.8683 Z-0.1015
G3 X30.7433 Y4.3443 Z-0.1025 I0.0 J-0.125
G1 Y3.3759 Z-0.1073
G3 X30.8683 Y3.2509 Z-0.1083 I0.125 J0.0
G1 X31.0555 Z-0.1092
G1 X31.2461 Z-0.1102
G1 X31.3077 Z-0.1105
G3 X31.3225 Y3.2493 Z-0.1106 I0.0207 J0.1233
G2 X31.327 Y3.2446 I-0.0002 J-0.0047
G3 Y3.244 I0.125 J-0.0003
G2 X31.3228 Y3.2397 I-0.0044 J0.0
G3 X31.2034 Y3.1148 Z-0.1116 I0.0056 J-0.1249
G1 Y1.5026 Z-0.1196
G3 X31.3284 Y1.3776 Z-0.1206 I0.125 J0.0
G1 X33.2777 Z-0.1303
G3 X33.4026 Y1.4974 Z-0.1313 I0.0 J0.125
G2 X33.4069 Y1.5016 I0.0043 J-0.0002
G3 X33.4075 I0.0003 J0.125
G2 X33.4122 Y1.4971 I0.0 J-0.0047
G3 X33.4138 Y1.4819 Z-0.1314 I0.1249 J0.0055
G1 Y1.4398 Z-0.1316
G1 Y1.2526 Z-0.1326
G3 X33.5388 Y1.1276 Z-0.1335 I0.125 J0.0
G1 X34.5041 Z-0.1383
G3 X34.6288 Y1.2618 Z-0.1394 I0.0 J0.125
G1 Y1.4967 Z-0.1405
G3 Y1.4971 I-0.125 J0.0
G2 X34.6333 Y1.5016 Z-0.1406 I0.0045 J0.0
G3 X34.6339 I0.0004 J0.125
G2 X34.6382 Y1.4974 I0.0 J-0.0044
G3 X34.7631 Y1.3776 Z-0.1416 I0.1249 J0.0052
G1 X36.309 Z-0.1493
G3 X36.4338 Y1.4971 Z-0.1502 I0.0 J0.125
G2 X36.4385 Y1.5016 Z-0.1503 I0.0047 J-0.0002
G3 X36.4391 I0.0003 J0.125
G2 X36.4434 Y1.4974 I0.0 J-0.0044
G3 X36.4451 Y1.4818 Z-0.1504 I0.1249 J0.0052
G1 Y1.2526 Z-0.1515
G3 X36.5701 Y1.1276 Z-0.1525 I0.125 J0.0
G1 X37.5388 Z-0.1573
G3 X37.6638 Y1.2526 Z-0.1583 I0.0 J0.125
G1 Y1.4436 Z-0.1593
G1 Y1.4819 Z-0.1594
G3 X37.6654 Y1.4974 Z-0.1595 I-0.1233 J0.0207
G2 X37.6698 Y1.5016 Z-0.1596 I0.0044 J-0.0002
G3 X37.6704 I0.0003 J0.125
G2 X37.6751 Y1.4971 I0.0 J-0.0047
G3 X37.7999 Y1.3776 Z-0.1605 I0.1249 J0.0055
G1 X43.0041 Z-0.1865
G3 X43.129 Y1.4974 Z-0.1874 I0.0 J0.125
G2 X43.1334 Y1.5016 Z-0.1875 I0.0044 J-0.0002
G3 X43.1339 I0.0003 J0.125
G2 X43.1386 Y1.4971 I0.0 J-0.0047
G3 X43.1402 Y1.4819 Z-0.1876 I0.1249 J0.0055
G1 Y1.4398 Z-0.1878
G1 Y1.2526 Z-0.1887
G3 X43.2652 Y1.1276 Z-0.1897 I0.125 J0.0
G1 X44.2305 Z-0.1945
G3 X44.3552 Y1.2618 Z-0.1955 I0.0 J0.125
G1 Y1.4967 Z-0.1967
G3 Y1.4971 I-0.125 J0.0
G2 X44.3597 Y1.5016 Z-0.1968 I0.0045 J0.0
G3 X44.3603 I0.0004 J0.125
G2 X44.3646 Y1.4974 I0.0 J-0.0044
G3 X44.4895 Y1.3776 Z-0.1977 I0.1249 J0.0052
G1 X46.0354 Z-0.2054
G3 X46.1602 Y1.4971 Z-0.2064 I0.0 J0.125
G2 X46.1649 Y1.5016 I0.0047 J-0.0002
G3 X46.1655 I0.0003 J0.125
G2 X46.1699 Y1.4974 Z-0.2065 I0.0 J-0.0044
G3 X46.1715 Y1.4819 I0.1249 J0.0052
G1 Y1.2526 Z-0.2077
G3 X46.2965 Y1.1276 Z-0.2087 I0.125 J0.0
G1 X47.2652 Z-0.2135
G3 X47.3902 Y1.2526 Z-0.2145 I0.0 J0.125
G1 Y1.4436 Z-0.2154
G1 Y1.4818 Z-0.2156
G3 X47.3919 Y1.4974 Z-0.2157 I-0.1233 J0.0208
G2 X47.3962 Y1.5016 I0.0043 J-0.0002
G3 X47.3968 I0.0003 J0.125
G2 X47.4015 Y1.4971 Z-0.2158 I0.0 J-0.0047
G3 X47.5263 Y1.3776 Z-0.2167 I0.1249 J0.0055
G1 X49.75 Z-0.2278
G0 Z0.8
G1 X50.25
G1 F10.0 Z-0.2303
G1 F30.0 X52.7305 Z-0.2427
G3 X52.8554 Y1.4974 Z-0.2436 I0.0 J0.125
G2 X52.8597 Y1.5016 I0.0043 J-0.0002
G3 X52.8603 I0.0003 J0.125
G2 X52.865 Y1.4971 Z-0.2437 I0.0 J-0.0047
G3 X52.8666 Y1.4819 Z-0.2438 I0.1249 J0.0055
G1 Y1.4398 Z-0.244
G1 Y1.2526 Z-0.2449
G3 X52.9916 Y1.1276 Z-0.2459 I0.125 J0.0
G1 X53.9569 Z-0.2507
G3 X54.0816 Y1.2618 Z-0.2517 I0.0 J0.125
G1 Y1.4967 Z-0.2529
G3 Y1.4971 I-0.125 J0.0
G2 X54.0861 Y1.5016 I0.0045 J0.0
G3 X54.0867 I0.0004 J0.125
G2 X54.091 Y1.4974 Z-0.253 I0.0 J-0.0044
G3 X54.2159 Y1.3776 Z-0.2539 I0.1249 J0.0052
G1 X55.7618 Z-0.2616
G3 X55.8866 Y1.4971 Z-0.2626 I0.0 J0.125
G2 X55.8913 Y1.5016 I0.0047 J-0.0002
G3 X55.8919 I0.0003 J0.125
G2 X55.8962 Y1.4974 I0.0 J-0.0044
G3 X55.8979 Y1.4818 Z-0.2627 I0.1249 J0.0052
G1 Y1.2526 Z-0.2639
G3 X56.0229 Y1.1276 Z-0.2648 I0.125 J0.0
G1 X56.9916 Z-0.2697
G3 X57.1166 Y1.2526 Z-0.2706 I0.0 J0.125
G1 Y1.4436 Z-0.2716
G1 Y1.4819 Z-0.2718
G3 X57.1182 Y1.4974 Z-0.2719 I-0.1233 J0.0207
G2 X57.1226 Y1.5016 I0.0044 J-0.0002
G3 X57.1232 I0.0003 J0.125
G2 X57.1279 Y1.4971 I0.0 J-0.0047
G3 X57.2527 Y1.3776 Z-0.2729 I0.1249 J0.0055
G1 X59.202 Z-0.2826
G3 X59.327 Y1.5026 Z-0.2836 I0.0 J0.125
G1 Y3.1148 Z-0.2916
G3 X59.2076 Y3.2397 Z-0.2926 I-0.125 J0.0
G2 X59.2034 Y3.244 I0.0002 J0.0044
G3 Y3.2446 I-0.125 J0.0003
G2 X59.2079 Y3.2493 I0.0047 J0.0
G3 X59.2228 Y3.2509 Z-0.2927 I-0.0059 J0.1249
G1 X59.2843 Z-0.293
G1 X59.475 Z-0.294
G1 X59.6621 Z-0.2949
G3 X59.7871 Y3.3759 Z-0.2959 I0.0 J0.125
G1 Y4.3443 Z-0.3007
G3 X59.6621 Y4.4693 Z-0.3017 I-0.125 J0.0
G1 X59.4872 Z-0.3026
G3 X59.4862 Y4.4694 I-0.0128 J-0.1806
G3 X59.4486 Y4.4661 Z-0.3028 I-0.0081 J-0.1247
G2 X59.447 Y4.4658 I-0.0038 J0.0155
G1 X59.2083 Z-0.3039
G3 X59.2079 Z-0.304 I0.0 J-0.125
G2 X59.2034 Y4.4703 I0.0 J0.0045
G3 Y4.471 I-0.125 J0.0004
G2 X59.2076 Y4.4753 I0.0044 J0.0
G3 X59.327 Y4.6002 Z-0.305 I-0.0055 J0.1249
G1 Y6.146 Z-0.3127
G3 X59.2079 Y6.2709 Z-0.3136 I-0.125 J0.0
G2 X59.2034 Y6.2756 Z-0.3137 I0.0002 J0.0047
G3 Y6.2762 I-0.125 J0.0003
G2 X59.2076 Y6.2805 I0.0044 J0.0
G3 X59.2228 Y6.2821 Z-0.3138 I-0.0055 J0.1249
G1 X59.284 Z-0.3141
G1 X59.6621 Z-0.316
G3 X59.7871 Y6.4071 Z-0.3169 I0.0 J0.125
G1 Y7.3759 Z-0.3218
G3 X59.6621 Y7.5009 Z-0.3228 I-0.125 J0.0
G1 X59.4711 Z-0.3237
G1 X59.2228 Z-0.3249
G3 X59.2076 Y7.5025 Z-0.325 I-0.0207 J-0.1233
G2 X59.2034 Y7.5069 Z-0.3251 I0.0002 J0.0044
G3 Y7.5074 I-0.125 J0.0003
G2 X59.2079 Y7.5121 I0.0047 J0.0
G3 X59.327 Y7.637 Z-0.326 I-0.0059 J0.1249
G1 Y9.75 Z-0.3366
G0 Z0.8
G1 Y10.25
G1 F10.0 Z-0.3391
G1 F30.0 Y11.6172 Z-0.3459
G3 X59.2076 Y11.7421 Z-0.3468 I-0.125 J0.0
G2 X59.2034 Y11.7465 Z-0.3469 I0.0002 J0.0044
G3 Y11.747 I-0.125 J0.0003
G2 X59.2079 Y11.7517 I0.0047 J0.0
G3 X59.2228 Y11.7533 Z-0.347 I-0.0058 J0.1249
G1 X59.2843 Z-0.3473
G1 X59.475 Z-0.3482
G1 X59.6621 Z-0.3492
G3 X59.7871 Y11.8783 Z-0.3501 I0.0 J0.125
G1 Y12.8467 Z-0.355
G3 X59.6621 Y12.9717 Z-0.3559 I-0.125 J0.0
G1 X59.4872 Z-0.3568
G3 X59.4862 Y12.9718 I-0.0128 J-0.1806
G3 X59.4491 Y12.9686 Z-0.357 I-0.0081 J-0.1247
G3 X59.4472 Y12.9682 I0.0253 J-0.1224
G1 X59.2083 Z-0.3582
G3 X59.2079 I0.0 J-0.125
G2 X59.2034 Y12.9727 I0.0 J0.0045
G3 Y12.9734 Z-0.3583 I-0.125 J0.0004
G2 X59.2076 Y12.9777 I0.0044 J0.0
G3 X59.327 Y13.1026 Z-0.3592 I-0.0056 J0.1249
G1 Y14.6484 Z-0.3669
G3 X59.2079 Y14.7733 Z-0.3679 I-0.125 J0.0
G2 X59.2034 Y14.778 I0.0002 J0.0047
G3 Y14.7786 I-0.125 J0.0003
G2 X59.2076 Y14.7829 Z-0.368 I0.0044 J0.0
G3 X59.2229 Y14.7846 I-0.0056 J0.1249
G1 X59.284 Z-0.3683
G1 X59.6621 Z-0.3702
G3 X59.7871 Y14.9096 Z-0.3712 I0.0 J0.125
G1 Y15.8783 Z-0.376
G3 X59.6621 Y16.0033 Z-0.377 I-0.125 J0.0
G1 X59.4711 Z-0.378
G1 X59.2228 Z-0.3792
G3 X59.2076 Y16.0049 Z-0.3793 I-0.0207 J-0.1233
G2 X59.2034 Y16.0093 I0.0002 J0.0044
G3 Y16.0099 I-0.125 J0.0003
G2 X59.2079 Y16.0145 Z-0.3794 I0.0047 J0.0
G3 X59.327 Y16.1394 Z-0.3803 I-0.0058 J0.1249
G1 Y17.7512 Z-0.3883
G3 X59.202 Y17.8762 Z-0.3893 I-0.125 J0.0
G1 X57.2527 Z-0.399
G3 X57.1279 Y17.7571 Z-0.4 I0.0 J-0.125
G2 X57.1232 Y17.7526 I-0.0047 J0.0002
G3 X57.1226 I-0.0003 J-0.125
G2 X57.1182 Y17.7568 I0.0 J0.0044
G3 X57.1166 Y17.772 Z-0.4001 I-0.1249 J-0.0056
G1 Y18.0203 Z-0.4014
G1 Y18.2113 Z-0.4023
G3 X56.9916 Y18.3363 Z-0.4033 I-0.125 J0.0
G1 X56.0229 Z-0.4081
G3 X55.8979 Y18.2113 Z-0.4091 I0.0 J-0.125
G1 Y17.8332 Z-0.411
G1 Y17.772 Z-0.4113
G3 X55.8963 Y17.7568 Z-0.4114 I0.1233 J-0.0208
G2 X55.8919 Y17.7526 I-0.0043 J0.0002
G3 X55.8913 I-0.0003 J-0.125
G2 X55.8866 Y17.7571 I0.0 J0.0047
G3 X55.7618 Y17.8762 Z-0.4124 I-0.1249 J-0.0059
G1 X54.2159 Z-0.4201
G3 X54.0911 Y17.7568 Z-0.421 I0.0 J-0.125
G2 X54.0867 Y17.7526 Z-0.4211 I-0.0044 J0.0002
G3 X54.086 I-0.0003 J-0.125
G2 X54.0816 Y17.7571 I0.0 J0.0045
G3 Y17.7575 I-0.125 J0.0004
G1 Y17.9961 Z-0.4223
G1 X54.0817 Y17.9971
G2 X54.0818 Y17.9977 I0.0092 J-0.0016
G3 X54.0851 Y18.036 Z-0.4225 I-0.1215 J0.0296
G1 X54.085 Y18.0364
G1 Y18.2113 Z-0.4234
G3 X53.96 Y18.3363 Z-0.4244 I-0.125 J0.0
G1 X52.9916 Z-0.4292
G3 X52.8666 Y18.2113 Z-0.4302 I0.0 J-0.125
G1 Y18.0241 Z-0.4311
G1 Y17.8335 Z-0.432
G1 Y17.772 Z-0.4324
G3 X52.865 Y17.7571 I0.1233 J-0.0207
G2 X52.8603 Y17.7526 Z-0.4325 I-0.0047 J0.0002
G3 X52.8598 I-0.0003 J-0.125
G2 X52.8554 Y17.7568 I0.0 J0.0044
G3 X52.7305 Y17.8762 Z-0.4335 I-0.1249 J-0.0056
G1 X47.5264 Z-0.4594
G3 X47.4015 Y17.7571 Z-0.4603 I0.0 J-0.125
G2 X47.3968 Y17.7526 Z-0.4604 I-0.0047 J0.0002
G3 X47.3962 I-0.0003 J-0.125
G2 X47.3919 Y17.7568 I0.0 J0.0044
G3 X47.3906 Y17.7699 Z-0.4605 I-0.1249 J-0.0055
G1 Y18.0203 Z-0.4617
G1 Y18.2113 Z-0.4627
G3 X47.2656 Y18.3363 Z-0.4637 I-0.125 J0.0
G1 X46.2969 Z-0.4685
G3 X46.1719 Y18.2113 Z-0.4695 I0.0 J-0.125
G1 Y17.8332 Z-0.4713
G1 Y17.7739 Z-0.4716
G3 X46.1699 Y17.7568 Z-0.4717 I0.1229 J-0.0227
G2 X46.1655 Y17.7526 Z-0.4718 I-0.0044 J0.0002
G3 X46.165 I-0.0003 J-0.125
G2 X46.1603 Y17.7571 I0.0 J0.0047
G3 X46.0354 Y17.8762 Z-0.4727 I-0.1249 J-0.0059
G1 X44.4896 Z-0.4805
G3 X44.3647 Y17.7568 Z-0.4814 I0.0 J-0.125
G2 X44.3603 Y17.7526 I-0.0044 J0.0002
G3 X44.3597 I-0.0003 J-0.125
G2 X44.3552 Y17.7571 Z-0.4815 I0.0 J0.0045
G3 Y17.7575 I-0.125 J0.0004
G1 Y17.9963 Z-0.4827
G2 X44.3555 Y17.9985 I0.0112 J-0.0004
G3 X44.359 Y18.028 Z-0.4828 I-0.1215 J0.0294
G1 Y18.0307
G1 Y18.2113 Z-0.4837
G3 X44.234 Y18.3363 Z-0.4847 I-0.125 J0.0
G1 X43.2656 Z-0.4895
G3 X43.1406 Y18.2113 Z-0.4905 I0.0 J-0.125
G1 Y18.0241 Z-0.4915
G1 Y17.8335 Z-0.4924
G1 Y17.7739 Z-0.4927
G3 X43.1387 Y17.7571 Z-0.4928 I0.1229 J-0.0227
G2 X43.134 Y17.7526 I-0.0047 J0.0002
G3 X43.1334 I-0.0003 J-0.125
G2 X43.129 Y17.7568 Z-0.4929 I0.0 J0.0044
G3 X43.0041 Y17.8762 Z-0.4938 I-0.1249 J-0.0056
G1 X40.25 Z-0.5075
G0 Z0.8
G1 X39.75
G1 F10.0 Z-0.51
G1 F30.0 X37.8 Z-0.5198
G3 X37.6751 Y17.7571 Z-0.5207 I0.0 J-0.125
G2 X37.6704 Y17.7526 I-0.0047 J0.0002
G3 X37.6699 I-0.0003 J-0.125
G2 X37.6655 Y17.7568 Z-0.5208 I0.0 J0.0044
G3 X37.6642 Y17.7697 I-0.1249 J-0.0056
G1 Y18.0203 Z-0.5221
G1 Y18.2113 Z-0.523
G3 X37.5392 Y18.3363 Z-0.524 I-0.125 J0.0
G1 X36.5705 Z-0.5288
G3 X36.4455 Y18.2113 Z-0.5298 I0.0 J-0.125
G1 Y17.8332 Z-0.5317
G1 Y17.774 Z-0.532
G3 X36.4435 Y17.7568 Z-0.5321 I0.1229 J-0.0228
G2 X36.4391 Y17.7526 I-0.0044 J0.0002
G3 X36.4386 I-0.0003 J-0.125
G2 X36.4339 Y17.7571 Z-0.5322 I0.0 J0.0047
G3 X36.309 Y17.8762 Z-0.5331 I-0.1249 J-0.0059
G1 X34.7632 Z-0.5408
G3 X34.6383 Y17.7568 Z-0.5418 I0.0 J-0.125
G2 X34.6339 Y17.7526 I-0.0044 J0.0002
G3 X34.6333 I-0.0003 J-0.125
G2 X34.6288 Y17.7571 I0.0 J0.0045
G3 Y17.7575 I-0.125 J0.0004
G1 Y17.9969 Z-0.543
G2 X34.629 Y17.9985 I0.0075 J-0.0002
G3 X34.6326 Y18.0283 Z-0.5432 I-0.1214 J0.0298
G1 Y18.0307
G1 Y18.2113 Z-0.5441
G3 X34.5076 Y18.3363 Z-0.5451 I-0.125 J0.0
G1 X33.5392 Z-0.5499
G3 X33.5208 Y18.3349 Z-0.55 I0.0 J-0.125
G3 X33.4142 Y18.2113 I0.0184 J-0.1236
G1 Y18.0241
G1 Y17.8335
G1 Y17.774
G3 X33.4122 Y17.7571 I0.1229 J-0.0228
G2 X33.4075 Y17.7526 I-0.0047 J0.0002
G3 X33.407 I-0.0003 J-0.125
G2 X33.4026 Y17.7568 I0.0 J0.0044
G3 X33.2777 Y17.8762 I-0.1249 J-0.0056
G1 X31.3284
G3 X31.2034 Y17.7512 I0.0 J-0.125
G1 Y16.1394
G3 X31.3225 Y16.0145 I0.125 J0.0
G2 X31.327 Y16.0099 I-0.0002 J-0.0047
G3 Y16.0093 I0.125 J-0.0003
G2 X31.3228 Y16.0049 I-0.0044 J0.0
G3 X31.3077 Y16.0033 I0.0056 J-0.1249
G1 X31.0593
G1 X30.8683
G3 X30.7433 Y15.8783 I0.0 J-0.125
G1 Y14.9096
G3 X30.8683 Y14.7846 I0.125 J0.0
G1 X31.2465
G1 X31.3076
G3 X31.3228 Y14.7829 I0.0208 J0.1233
G2 X31.327 Y14.7786 I-0.0002 J-0.0044
G3 Y14.778 I0.125 J-0.0003
G2 X31.3226 Y14.7733 I-0.0047 J0.0
G3 X31.2034 Y14.6484 I0.0058 J-0.1249
G1 Y13.1026
G3 X31.3228 Y12.9777 I0.125 J0.0
G2 X31.327 Y12.9733 I-0.0002 J-0.0044
G3 Y12.9727 I0.125 J-0.0003
G2 X31.3225 Y12.9682 I-0.0045 J0.0
G3 X31.3221 I-0.0004 J-0.125
G1 X31.0834
G3 X31.0831 Y12.9683 I-0.0198 J-0.1234
G3 X31.0823 Y12.9684 I-0.0251 J-0.1225
G3 X31.0819 Y12.9685 I-0.0257 J-0.1223
G2 X31.081 Y12.9687 I0.0073 J0.035
G3 X31.0432 Y12.9717 I-0.0286 J-0.1217
G1 X30.8683
G3 X30.7433 Y12.8467 I0.0 J-0.125
G1 Y11.8783
G3 X30.8683 Y11.7533 I0.125 J0.0
G1 X31.0555
G1 X31.2461
G1 X31.3077
G3 X31.3225 Y11.7517 I0.0207 J0.1233
G2 X31.327 Y11.747 I-0.0002 J-0.0047
G3 Y11.7465 I0.125 J-0.0003
G2 X31.3228 Y11.7421 I-0.0044 J0.0
G3 X31.2034 Y11.6172 I0.0056 J-0.1249
G1 Y9.8937
G0 Z0.8
G1 Y9.3937
G1 F10.0 Z-0.55
G1 F30.0 Y7.637
G3 X31.3225 Y7.5121 I0.125 J0.0
G2 X31.327 Y7.5074 I-0.0002 J-0.0047
G3 Y7.5069 I0.125 J-0.0003
G2 X31.3228 Y7.5025 I-0.0044 J0.0
G3 X31.3077 Y7.5009 I0.0056 J-0.1249
G1 X31.0593
G1 X30.8683
G3 X30.7433 Y7.3759 I0.0 J-0.125
G1 Y6.4071
G3 X30.8683 Y6.2821 I0.125 J0.0
G1 X31.2465
G1 X31.3077
G3 X31.3228 Y6.2805 I0.0207 J0.1233
G2 X31.327 Y6.2762 I-0.0002 J-0.0044
G3 Y6.2756 I0.125 J-0.0003
G2 X31.3225 Y6.2709 I-0.0047 J0.0
G3 X31.2034 Y6.146 I0.0059 J-0.1249
G1 Y4.6002
G3 X31.3228 Y4.4753 I0.125 J0.0
G2 X31.327 Y4.4709 I-0.0002 J-0.0044
G3 Y4.4703 I0.125 J-0.0003
G2 X31.3225 Y4.4658 I-0.0045 J0.0
G3 X31.3221 I-0.0004 J-0.125
G1 X31.0835
G3 X31.0831 Y4.4659 I-0.0198 J-0.1234
G3 X31.0823 Y4.466 I-0.0251 J-0.1225
G3 X31.0814 Y4.4662 I-0.0257 J-0.1223
G3 X31.0432 Y4.4693 I-0.029 J-0.1216
G1 X30.8683
G3 X30.7433 Y4.3443 I0.0 J-0.125
G1 Y3.3759
G3 X30.8683 Y3.2509 I0.125 J0.0
G1 X31.0555
G1 X31.2461
G1 X31.3077
G3 X31.3225 Y3.2493 I0.0207 J0.1233
G2 X31.327 Y3.2446 I-0.0002 J-0.0047
G3 Y3.244 I0.125 J-0.0003
G2 X31.3228 Y3.2397 I-0.0044 J0.0
G3 X31.2034 Y3.1148 I0.0056 J-0.1249
G1 Y1.5026
G3 X31.3284 Y1.3776 I0.125 J0.0
G1 X33.2777
G3 X33.4026 Y1.4974 I0.0 J0.125
G2 X33.4069 Y1.5016 I0.0043 J-0.0002
G3 X33.4075 I0.0003 J0.125
G2 X33.4122 Y1.4971 I0.0 J-0.0047
G3 X33.4138 Y1.4819 I0.1249 J0.0055
G1 Y1.4398
G1 Y1.2526
G3 X33.5388 Y1.1276 I0.125 J0.0
G1 X34.5041
G3 X34.6288 Y1.2618 I0.0 J0.125
G1 Y1.4967
G3 Y1.4971 I-0.125 J0.0
G2 X34.6333 Y1.5016 I0.0045 J0.0
G3 X34.6339 I0.0004 J0.125
G2 X34.6382 Y1.4974 I0.0 J-0.0044
G3 X34.7631 Y1.3776 I0.1249 J0.0052
G1 X36.309
G3 X36.4338 Y1.4971 I0.0 J0.125
G2 X36.4385 Y1.5016 I0.0047 J-0.0002
G3 X36.4391 I0.0003 J0.125
G2 X36.4434 Y1.4974 I0.0 J-0.0044
G3 X36.4451 Y1.4818 I0.1249 J0.0052
G1 Y1.2526
G3 X36.5701 Y1.1276 I0.125 J0.0
G1 X37.5388
G3 X37.6638 Y1.2526 I0.0 J0.125
G1 Y1.4436
G1 Y1.4819
G3 X37.6654 Y1.4974 I-0.1233 J0.0207
G2 X37.6698 Y1.5016 I0.0044 J-0.0002
G3 X37.6704 I0.0003 J0.125
G2 X37.6751 Y1.4971 I0.0 J-0.0047
G3 X37.7999 Y1.3776 I0.1249 J0.0055
G1 X43.0041
G3 X43.129 Y1.4974 I0.0 J0.125
G2 X43.1334 Y1.5016 I0.0044 J-0.0002
G3 X43.1339 I0.0003 J0.125
G2 X43.1386 Y1.4971 I0.0 J-0.0047
G3 X43.1402 Y1.4819 I0.1249 J0.0055
G1 Y1.4398
G1 Y1.2526
G3 X43.2652 Y1.1276 I0.125 J0.0
G1 X44.2305
G3 X44.3552 Y1.2618 I0.0 J0.125
G1 Y1.4967
G3 Y1.4971 I-0.125 J0.0
G2 X44.3597 Y1.5016 I0.0045 J0.0
G3 X44.3603 I0.0004 J0.125
G2 X44.3646 Y1.4974 I0.0 J-0.0044
G3 X44.4895 Y1.3776 I0.1249 J0.0052
G1 X46.0354
G3 X46.1602 Y1.4971 I0.0 J0.125
G2 X46.1649 Y1.5016 I0.0047 J-0.0002
G3 X46.1655 I0.0003 J0.125
G2 X46.1699 Y1.4974 I0.0 J-0.0044
G3 X46.1715 Y1.4819 I0.1249 J0.0052
G1 Y1.2526
G3 X46.2965 Y1.1276 I0.125 J0.0
G1 X47.2652
G3 X47.3902 Y1.2526 I0.0 J0.125
G1 Y1.4436
G1 Y1.4818
G3 X47.3919 Y1.4974 I-0.1233 J0.0208
G2 X47.3962 Y1.5016 I0.0043 J-0.0002
G3 X47.3968 I0.0003 J0.125
G2 X47.4015 Y1.4971 I0.0 J-0.0047
G3 X47.5263 Y1.3776 I0.1249 J0.0055
G1 X49.75
G0 Z0.8
G1 X50.25
G1 F10.0 Z-0.55
G1 F30.0 X52.7305
G3 X52.8554 Y1.4974 I0.0 J0.125
G2 X52.8597 Y1.5016 I0.0043 J-0.0002
G3 X52.8603 I0.0003 J0.125
G2 X52.865 Y1.4971 I0.0 J-0.0047
G3 X52.8666 Y1.4819 I0.1249 J0.0055
G1 Y1.4398
G1 Y1.2526
G3 X52.9916 Y1.1276 I0.125 J0.0
G1 X53.9569
G3 X54.0816 Y1.2618 I0.0 J0.125
G1 Y1.4967
G3 Y1.4971 I-0.125 J0.0
G2 X54.0861 Y1.5016 I0.0045 J0.0
G3 X54.0867 I0.0004 J0.125
G2 X54.091 Y1.4974 I0.0 J-0.0044
G3 X54.2159 Y1.3776 I0.1249 J0.0052
G1 X55.7618
G3 X55.8866 Y1.4971 I0.0 J0.125
G2 X55.8913 Y1.5016 I0.0047 J-0.0002
G3 X55.8919 I0.0003 J0.125
G2 X55.8962 Y1.4974 I0.0 J-0.0044
G3 X55.8979 Y1.4818 I0.1249 J0.0052
G1 Y1.2526
G3 X56.0229 Y1.1276 I0.125 J0.0
G1 X56.9916
G3 X57.1166 Y1.2526 I0.0 J0.125
G1 Y1.4436
G1 Y1.4819
G3 X57.1182 Y1.4974 I-0.1233 J0.0207
G2 X57.1226 Y1.5016 I0.0044 J-0.0002
G3 X57.1232 I0.0003 J0.125
G2 X57.1279 Y1.4971 I0.0 J-0.0047
G3 X57.2527 Y1.3776 I0.1249 J0.0055
G1 X59.202
G3 X59.327 Y1.5026 I0.0 J0.125
G1 Y3.1148
G3 X59.2076 Y3.2397 I-0.125 J0.0
G2 X59.2034 Y3.244 I0.0002 J0.0044
G3 Y3.2446 I-0.125 J0.0003
G2 X59.2079 Y3.2493 I0.0047 J0.0
G3 X59.2228 Y3.2509 I-0.0059 J0.1249
G1 X59.2843
G1 X59.475
G1 X59.6621
G3 X59.7871 Y3.3759 I0.0 J0.125
G1 Y4.3443
G3 X59.6621 Y4.4693 I-0.125 J0.0
G1 X59.4872
G3 X59.4862 Y4.4694 I-0.0128 J-0.1806
G3 X59.4486 Y4.4661 I-0.0081 J-0.1247
G2 X59.447 Y4.4658 I-0.0038 J0.0155
G1 X59.2083
G3 X59.2079 I0.0 J-0.125
G2 X59.2034 Y4.4703 I0.0 J0.0045
G3 Y4.471 I-0.125 J0.0004
G2 X59.2076 Y4.4753 I0.0044 J0.0
G3 X59.327 Y4.6002 I-0.0055 J0.1249
G1 Y6.146
G3 X59.2079 Y6.2709 I-0.125 J0.0
G2 X59.2034 Y6.2756 I0.0002 J0.0047
G3 Y6.2762 I-0.125 J0.0003
G2 X59.2076 Y6.2805 I0.0044 J0.0
G3 X59.2228 Y6.2821 I-0.0055 J0.1249
G1 X59.284
G1 X59.6621
G3 X59.7871 Y6.4071 I0.0 J0.125
G1 Y7.3759
G3 X59.6621 Y7.5009 I-0.125 J0.0
G1 X59.4711
G1 X59.2228
G3 X59.2076 Y7.5025 I-0.0207 J-0.1233
G2 X59.2034 Y7.5069 I0.0002 J0.0044
G3 Y7.5074 I-0.125 J0.0003
G2 X59.2079 Y7.5121 I0.0047 J0.0
G3 X59.327 Y7.637 I-0.0059 J0.1249
G1 Y9.75
G0 Z0.8
G1 Y10.25
G1 F10.0 Z-0.55
G1 F30.0 Y11.6172
G3 X59.2076 Y11.7421 I-0.125 J0.0
G2 X59.2034 Y11.7465 I0.0002 J0.0044
G3 Y11.747 I-0.125 J0.0003
G2 X59.2079 Y11.7517 I0.0047 J0.0
G3 X59.2228 Y11.7533 I-0.0058 J0.1249
G1 X59.2843
G1 X59.475
G1 X59.6621
G3 X59.7871 Y11.8783 I0.0 J0.125
G1 Y12.8467
G3 X59.6621 Y12.9717 I-0.125 J0.0
G1 X59.4872
G3 X59.4862 Y12.9718 I-0.0128 J-0.1806
G3 X59.4491 Y12.9686 I-0.0081 J-0.1247
G3 X59.4472 Y12.9682 I0.0253 J-0.1224
G1 X59.2083
G3 X59.2079 I0.0 J-0.125
G2 X59.2034 Y12.9727 I0.0 J0.0045
G3 Y12.9734 I-0.125 J0.0004
G2 X59.2076 Y12.9777 I0.0044 J0.0
G3 X59.327 Y13.1026 I-0.0056 J0.1249
G1 Y14.6484
G3 X59.2079 Y14.7733 I-0.125 J0.0
G2 X59.2034 Y14.778 I0.0002 J0.0047
G3 Y14.7786 I-0.125 J0.0003
G2 X59.2076 Y14.7829 I0.0044 J0.0
G3 X59.2229 Y14.7846 I-0.0056 J0.1249
G1 X59.284
G1 X59.6621
G3 X59.7871 Y14.9096 I0.0 J0.125
G1 Y15.8783
G3 X59.6621 Y16.0033 I-0.125 J0.0
G1 X59.4711
G1 X59.2228
G3 X59.2076 Y16.0049 I-0.0207 J-0.1233
G2 X59.2034 Y16.0093 I0.0002 J0.0044
G3 Y16.0099 I-0.125 J0.0003
G2 X59.2079 Y16.0145 I0.0047 J0.0
G3 X59.327 Y16.1394 I-0.0058 J0.1249
G1 Y17.7512
G3 X59.202 Y17.8762 I-0.125 J0.0
G1 X57.2527
G3 X57.1279 Y17.7571 I0.0 J-0.125
G2 X57.1232 Y17.7526 I-0.0047 J0.0002
G3 X57.1226 I-0.0003 J-0.125
G2 X57.1182 Y17.7568 I0.0 J0.0044
G3 X57.1166 Y17.772 I-0.1249 J-0.0056
G1 Y18.0203
G1 Y18.2113
G3 X56.9916 Y18.3363 I-0.125 J0.0
G1 X56.0229
G3 X55.8979 Y18.2113 I0.0 J-0.125
G1 Y17.8332
G1 Y17.772
G3 X55.8963 Y17.7568 I0.1233 J-0.0208
G2 X55.8919 Y17.7526 I-0.0043 J0.0002
G3 X55.8913 I-0.0003 J-0.125
G2 X55.8866 Y17.7571 I0.0 J0.0047
G3 X55.7618 Y17.8762 I-0.1249 J-0.0059
G1 X54.2159
G3 X54.0911 Y17.7568 I0.0 J-0.125
G2 X54.0867 Y17.7526 I-0.0044 J0.0002
G3 X54.086 I-0.0003 J-0.125
G2 X54.0816 Y17.7571 I0.0 J0.0045
G3 Y17.7575 I-0.125 J0.0004
G1 Y17.9961
G1 X54.0817 Y17.9971
G2 X54.0818 Y17.9977 I0.0092 J-0.0016
G3 X54.0851 Y18.036 I-0.1215 J0.0296
G1 X54.085 Y18.0364
G1 Y18.2113
G3 X53.96 Y18.3363 I-0.125 J0.0
G1 X52.9916
G3 X52.8666 Y18.2113 I0.0 J-0.125
G1 Y18.0241
G1 Y17.8335
G1 Y17.772
G3 X52.865 Y17.7571 I0.1233 J-0.0207
G2 X52.8603 Y17.7526 I-0.0047 J0.0002
G3 X52.8598 I-0.0003 J-0.125
G2 X52.8554 Y17.7568 I0.0 J0.0044
G3 X52.7305 Y17.8762 I-0.1249 J-0.0056
G1 X47.5264
G3 X47.4015 Y17.7571 I0.0 J-0.125
G2 X47.3968 Y17.7526 I-0.0047 J0.0002
G3 X47.3962 I-0.0003 J-0.125
G2 X47.3919 Y17.7568 I0.0 J0.0044
G3 X47.3906 Y17.7699 I-0.1249 J-0.0055
G1 Y18.0203
G1 Y18.2113
G3 X47.2656 Y18.3363 I-0.125 J0.0
G1 X46.2969
G3 X46.1719 Y18.2113 I0.0 J-0.125
G1 Y17.8332
G1 Y17.7739
G3 X46.1699 Y17.7568 I0.1229 J-0.0227
G2 X46.1655 Y17.7526 I-0.0044 J0.0002
G3 X46.165 I-0.0003 J-0.125
G2 X46.1603 Y17.7571 I0.0 J0.0047
G3 X46.0354 Y17.8762 I-0.1249 J-0.0059
G1 X44.4896
G3 X44.3647 Y17.7568 I0.0 J-0.125
G2 X44.3603 Y17.7526 I-0.0044 J0.0002
G3 X44.3597 I-0.0003 J-0.125
G2 X44.3552 Y17.7571 I0.0 J0.0045
G3 Y17.7575 I-0.125 J0.0004
G1 Y17.9963
G2 X44.3555 Y17.9985 I0.0112 J-0.0004
G3 X44.359 Y18.028 I-0.1215 J0.0294
G1 Y18.0307
G1 Y18.2113
G3 X44.234 Y18.3363 I-0.125 J0.0
G1 X43.2656
G3 X43.1406 Y18.2113 I0.0 J-0.125
G1 Y18.0241
G1 Y17.8335
G1 Y17.7739
G3 X43.1387 Y17.7571 I0.1229 J-0.0227
G2 X43.134 Y17.7526 I-0.0047 J0.0002
G3 X43.1334 I-0.0003 J-0.125
G2 X43.129 Y17.7568 I0.0 J0.0044
G3 X43.0041 Y17.8762 I-0.1249 J-0.0056
G1 X40.25
G0 Z0.8
G1 X39.75
G1 F10.0 Z-0.55
G1 F30.0 X37.8
G3 X37.6751 Y17.7571 I0.0 J-0.125
G2 X37.6704 Y17.7526 I-0.0047 J0.0002
G3 X37.6699 I-0.0003 J-0.125
G2 X37.6655 Y17.7568 I0.0 J0.0044
G3 X37.6642 Y17.7697 I-0.1249 J-0.0056
G1 Y18.0203
G1 Y18.2113
G3 X37.5392 Y18.3363 I-0.125 J0.0
G1 X36.5705
G3 X36.4455 Y18.2113 I0.0 J-0.125
G1 Y17.8332
G1 Y17.774
G3 X36.4435 Y17.7568 I0.1229 J-0.0228
G2 X36.4391 Y17.7526 I-0.0044 J0.0002
G3 X36.4386 I-0.0003 J-0.125
G2 X36.4339 Y17.7571 I0.0 J0.0047
G3 X36.309 Y17.8762 I-0.1249 J-0.0059
G1 X34.7632
G3 X34.6383 Y17.7568 I0.0 J-0.125
G2 X34.6339 Y17.7526 I-0.0044 J0.0002
G3 X34.6333 I-0.0003 J-0.125
G2 X34.6288 Y17.7571 I0.0 J0.0045
G3 Y17.7575 I-0.125 J0.0004
G1 Y17.9969
G2 X34.629 Y17.9985 I0.0075 J-0.0002
G3 X34.6326 Y18.0283 I-0.1214 J0.0298
G1 Y18.0307
G1 Y18.2113
G3 X34.5076 Y18.3363 I-0.125 J0.0
G1 X33.5392
G3 X33.5208 Y18.3349 I0.0 J-0.125
G0 Z1.5
G0 X61.921 Y17.5437
G1 F10.0 Z0.0
G3 F30.0 X61.9209 Y17.5402 I0.125 J-0.0035
G1 Y16.5718 Z-0.0048
G3 X62.0459 Y16.4468 Z-0.0058 I0.125 J0.0
G1 X62.2331 Z-0.0068
G1 X62.4237 Z-0.0077
G1 X62.4853 Z-0.008
G3 X62.5001 Y16.4452 Z-0.0081 I0.0207 J0.1233
G2 X62.5046 Y16.4405 I-0.0002 J-0.0047
G3 Y16.4399 I0.125 J-0.0003
G2 X62.5004 Y16.4356 Z-0.0082 I-0.0044 J0.0
G3 X62.381 Y16.3107 Z-0.0091 I0.0056 J-0.1249
G1 Y15.0947 Z-0.0152
G0 Z0.8
G1 Y14.5947
G1 F10.0 Z-0.0177
G1 F30.0 Y12.3305 Z-0.0289
G3 X62.5001 Y12.2056 Z-0.0299 I0.125 J0.0
G2 X62.5046 Y12.2009 I-0.0002 J-0.0047
G3 Y12.2004 I0.125 J-0.0003
G2 X62.5004 Y12.196 Z-0.03 I-0.0044 J0.0
G3 X62.4853 Y12.1944 I0.0056 J-0.1249
G1 X62.2369 Z-0.0313
G1 X62.0459 Z-0.0322
G3 X61.9209 Y12.0694 Z-0.0332 I0.0 J-0.125
G1 Y11.1006 Z-0.038
G3 X62.0459 Y10.9756 Z-0.039 I0.125 J0.0
G1 X62.4241 Z-0.0409
G1 X62.4853 Z-0.0412
G3 X62.5004 Y10.974 Z-0.0413 I0.0207 J0.1233
G2 X62.5046 Y10.9696 I-0.0002 J-0.0044
G3 Y10.9691 I0.125 J-0.0003
G2 X62.5001 Y10.9644 Z-0.0414 I-0.0047 J0.0
G3 X62.381 Y10.8395 Z-0.0423 I0.0059 J-0.1249
G1 Y9.2937 Z-0.05
G3 X62.5004 Y9.1688 Z-0.051 I0.125 J0.0
G2 X62.5046 Y9.1644 I-0.0002 J-0.0044
G3 Y9.1638 I0.125 J-0.0003
G2 X62.5001 Y9.1593 I-0.0045 J0.0
G3 X62.4998 I-0.0004 J-0.125
G1 X62.2611 Z-0.0522
G3 X62.2607 Y9.1594 I-0.0198 J-0.1234
G3 X62.2599 Y9.1595 I-0.0251 J-0.1225
G3 X62.259 Y9.1597 I-0.0257 J-0.1223
G3 X62.2208 Y9.1628 Z-0.0524 I-0.029 J-0.1216
G1 X62.0459 Z-0.0533
G3 X61.9209 Y9.0378 Z-0.0543 I0.0 J-0.125
G1 Y8.0694 Z-0.0591
G3 X62.0459 Y7.9444 Z-0.0601 I0.125 J0.0
G1 X62.2331 Z-0.061
G1 X62.4237 Z-0.062
G1 X62.4853 Z-0.0623
G3 X62.5001 Y7.9428 I0.0207 J0.1233
G2 X62.5046 Y7.9381 Z-0.0624 I-0.0002 J-0.0047
G3 Y7.9375 I0.125 J-0.0003
G2 X62.5004 Y7.9331 I-0.0044 J0.0
G3 X62.381 Y7.8083 Z-0.0634 I0.0056 J-0.1249
G1 Y6.1961 Z-0.0714
G3 X62.506 Y6.0711 Z-0.0724 I0.125 J0.0
G1 X64.4553 Z-0.0821
G3 X64.5802 Y6.1909 Z-0.0831 I0.0 J0.125
G2 X64.5846 Y6.1951 I0.0043 J-0.0002
G3 X64.5851 I0.0003 J0.125
G2 X64.5898 Y6.1906 I0.0 J-0.0047
G3 X64.5914 Y6.1754 Z-0.0832 I0.1249 J0.0055
G1 Y6.1333 Z-0.0834
G1 Y5.9461 Z-0.0843
G3 X64.7164 Y5.8211 Z-0.0853 I0.125 J0.0
G1 X65.6817 Z-0.0901
G3 X65.8064 Y5.9552 Z-0.0912 I0.0 J0.125
G1 Y6.1902 Z-0.0923
G3 Y6.1906 I-0.125 J0.0
G2 X65.8109 Y6.1951 Z-0.0924 I0.0045 J0.0
G3 X65.8115 I0.0004 J0.125
G2 X65.8158 Y6.1909 I0.0 J-0.0044
G3 X65.9407 Y6.0711 Z-0.0934 I0.1249 J0.0052
G1 X67.4866 Z-0.1011
G3 X67.6115 Y6.1906 Z-0.102 I0.0 J0.125
G2 X67.6161 Y6.1951 I0.0047 J-0.0002
G3 X67.6167 I0.0003 J0.125
G2 X67.621 Y6.1909 Z-0.1021 I0.0 J-0.0044
G3 X67.6227 Y6.1753 Z-0.1022 I0.1249 J0.0052
G1 Y5.9461 Z-0.1033
G3 X67.7477 Y5.8211 Z-0.1043 I0.125 J0.0
G1 X68.7164 Z-0.1091
G3 X68.8414 Y5.9461 Z-0.1101 I0.0 J0.125
G1 Y6.1371 Z-0.111
G1 Y6.1754 Z-0.1112
G3 X68.8431 Y6.1909 Z-0.1113 I-0.1233 J0.0207
G2 X68.8474 Y6.1951 I0.0044 J-0.0002
G3 X68.848 I0.0003 J0.125
G2 X68.8527 Y6.1906 Z-0.1114 I0.0 J-0.0047
G3 X68.9775 Y6.0711 Z-0.1123 I0.1249 J0.0055
G1 X70.9412 Z-0.1221
G0 Z0.8
G1 X71.4412
G1 F10.0 Z-0.1246
G1 F30.0 X74.1817 Z-0.1383
G3 X74.3066 Y6.1909 Z-0.1392 I0.0 J0.125
G2 X74.311 Y6.1951 Z-0.1393 I0.0044 J-0.0002
G3 X74.3115 I0.0003 J0.125
G2 X74.3162 Y6.1906 I0.0 J-0.0047
G3 X74.3178 Y6.1754 Z-0.1394 I0.1249 J0.0055
G1 Y6.1333 Z-0.1396
G1 Y5.9461 Z-0.1405
G3 X74.4428 Y5.8211 Z-0.1415 I0.125 J0.0
G1 X75.4081 Z-0.1463
G3 X75.5328 Y5.9552 Z-0.1473 I0.0 J0.125
G1 Y6.1902 Z-0.1485
G3 Y6.1906 I-0.125 J0.0
G2 X75.5373 Y6.1951 I0.0045 J0.0
G3 X75.5379 I0.0004 J0.125
G2 X75.5422 Y6.1909 Z-0.1486 I0.0 J-0.0044
G3 X75.6671 Y6.0711 Z-0.1495 I0.1249 J0.0052
G1 X77.213 Z-0.1572
G3 X77.3379 Y6.1906 Z-0.1582 I0.0 J0.125
G2 X77.3425 Y6.1951 I0.0047 J-0.0002
G3 X77.3431 I0.0003 J0.125
G2 X77.3475 Y6.1909 Z-0.1583 I0.0 J-0.0044
G3 X77.3491 Y6.1754 I0.1249 J0.0052
G1 Y5.9461 Z-0.1595
G3 X77.4741 Y5.8211 Z-0.1605 I0.125 J0.0
G1 X78.4428 Z-0.1653
G3 X78.5678 Y5.9461 Z-0.1663 I0.0 J0.125
G1 Y6.1371 Z-0.1672
G1 Y6.1753 Z-0.1674
G3 X78.5695 Y6.1909 Z-0.1675 I-0.1233 J0.0208
G2 X78.5738 Y6.1951 I0.0043 J-0.0002
G3 X78.5744 I0.0003 J0.125
G2 X78.5791 Y6.1906 Z-0.1676 I0.0 J-0.0047
G3 X78.7039 Y6.0711 Z-0.1685 I0.1249 J0.0055
G1 X83.9081 Z-0.1944
G3 X84.033 Y6.1909 Z-0.1954 I0.0 J0.125
G2 X84.0374 Y6.1951 I0.0043 J-0.0002
G3 X84.0379 I0.0003 J0.125
G2 X84.0426 Y6.1906 Z-0.1955 I0.0 J-0.0047
G3 X84.0442 Y6.1754 I0.1249 J0.0055
G1 Y6.1333 Z-0.1958
G1 Y5.9461 Z-0.1967
G3 X84.1692 Y5.8211 Z-0.1977 I0.125 J0.0
G1 X85.1345 Z-0.2025
G3 X85.2592 Y5.9552 Z-0.2035 I0.0 J0.125
G1 Y6.1902 Z-0.2047
G3 Y6.1906 I-0.125 J0.0
G2 X85.2637 Y6.1951 I0.0045 J0.0
G3 X85.2643 I0.0004 J0.125
G2 X85.2686 Y6.1909 I0.0 J-0.0044
G3 X85.3935 Y6.0711 Z-0.2057 I0.1249 J0.0052
G1 X86.9394 Z-0.2134
G3 X87.0643 Y6.1906 Z-0.2143 I0.0 J0.125
G2 X87.0689 Y6.1951 Z-0.2144 I0.0047 J-0.0002
G3 X87.0695 I0.0003 J0.125
G2 X87.0738 Y6.1909 I0.0 J-0.0044
G3 X87.0755 Y6.1753 Z-0.2145 I0.1249 J0.0052
G1 Y5.9461 Z-0.2156
G3 X87.2005 Y5.8211 Z-0.2166 I0.125 J0.0
G1 X88.1692 Z-0.2214
G3 X88.2942 Y5.9461 Z-0.2224 I0.0 J0.125
G1 Y6.1371 Z-0.2234
G1 Y6.1754 Z-0.2236
G3 X88.2959 Y6.1909 I-0.1233 J0.0207
G2 X88.3002 Y6.1951 Z-0.2237 I0.0044 J-0.0002
G3 X88.3008 I0.0003 J0.125
G2 X88.3055 Y6.1906 I0.0 J-0.0047
G3 X88.4303 Y6.0711 Z-0.2247 I0.1249 J0.0055
G1 X90.3796 Z-0.2344
G3 X90.5046 Y6.1961 Z-0.2354 I0.0 J0.125
G1 Y7.8083 Z-0.2434
G3 X90.3852 Y7.9331 Z-0.2444 I-0.125 J0.0
G2 X90.381 Y7.9375 I0.0002 J0.0044
G3 Y7.9381 I-0.125 J0.0003
G2 X90.3855 Y7.9428 I0.0047 J0.0
G3 X90.4004 Y7.9444 Z-0.2445 I-0.0059 J0.1249
G1 X90.4619 Z-0.2448
G1 X90.6526 Z-0.2458
G1 X90.8397 Z-0.2467
G3 X90.9647 Y8.0694 Z-0.2477 I0.0 J0.125
G1 Y9.0378 Z-0.2525
G3 X90.8397 Y9.1628 Z-0.2535 I-0.125 J0.0
G1 X90.6648 Z-0.2543
G3 X90.6637 Y9.1629 I-0.0126 J-0.1788
G3 X90.6262 Y9.1596 Z-0.2545 I-0.008 J-0.1247
G2 X90.6246 Y9.1593 I-0.0037 J0.0153
G1 X90.3859 Z-0.2557
G3 X90.3855 I0.0 J-0.125
G2 X90.381 Y9.1638 Z-0.2558 I0.0 J0.0045
G3 Y9.1644 I-0.125 J0.0004
G2 X90.3852 Y9.1688 I0.0044 J0.0
G3 X90.5046 Y9.2937 Z-0.2568 I-0.0055 J0.1249
G1 Y10.8395 Z-0.2645
G3 X90.3855 Y10.9644 Z-0.2654 I-0.125 J0.0
G2 X90.381 Y10.9691 I0.0002 J0.0047
G3 Y10.9696 Z-0.2655 I-0.125 J0.0003
G2 X90.3852 Y10.974 I0.0044 J0.0
G3 X90.4004 Y10.9756 Z-0.2656 I-0.0055 J0.1249
G1 X90.4616 Z-0.2659
G1 X90.8397 Z-0.2678
G3 X90.9647 Y11.1006 Z-0.2687 I0.0 J0.125
G1 Y12.0694 Z-0.2736
G3 X90.8397 Y12.1944 Z-0.2745 I-0.125 J0.0
G1 X90.6487 Z-0.2755
G1 X90.4004 Z-0.2767
G3 X90.3852 Y12.196 Z-0.2768 I-0.0207 J-0.1233
G2 X90.381 Y12.2004 I0.0002 J0.0044
G3 Y12.2009 I-0.125 J0.0003
G2 X90.3855 Y12.2056 Z-0.2769 I0.0047 J0.0
G3 X90.5046 Y12.3305 Z-0.2778 I-0.0059 J0.1249
G1 Y13.8082 Z-0.2852
G0 Z0.8
G1 Y14.3082
G1 F10.0 Z-0.2877
G1 F30.0 Y16.3107 Z-0.2977
G3 X90.3852 Y16.4356 Z-0.2986 I-0.125 J0.0
G2 X90.381 Y16.4399 I0.0002 J0.0044
G3 Y16.4405 I-0.125 J0.0003
G2 X90.3855 Y16.4452 Z-0.2987 I0.0047 J0.0
G3 X90.4004 Y16.4468 Z-0.2988 I-0.0058 J0.1249
G1 X90.4619 Z-0.2991
G1 X90.6526 Z-0.3
G1 X90.8397 Z-0.3009
G3 X90.9647 Y16.5718 Z-0.3019 I0.0 J0.125
G1 Y17.5402 Z-0.3068
G3 X90.8397 Y17.6652 Z-0.3077 I-0.125 J0.0
G1 X90.6648 Z-0.3086
G3 X90.6637 Y17.6653 I-0.0126 J-0.1787
G3 X90.6267 Y17.6621 Z-0.3088 I-0.008 J-0.1247
G3 X90.6248 Y17.6617 I0.0253 J-0.1224
G1 X90.3859 Z-0.31
G3 X90.3855 I0.0 J-0.125
G2 X90.381 Y17.6662 I0.0 J0.0045
G3 Y17.6668 I-0.125 J0.0004
G2 X90.3852 Y17.6712 Z-0.3101 I0.0044 J0.0
G3 X90.5046 Y17.7961 Z-0.311 I-0.0056 J0.1249
G1 Y19.3419 Z-0.3187
G3 X90.3855 Y19.4668 Z-0.3197 I-0.125 J0.0
G2 X90.381 Y19.4715 I0.0002 J0.0047
G3 Y19.472 I-0.125 J0.0003
G2 X90.3852 Y19.4764 I0.0044 J0.0
G3 X90.4005 Y19.478 Z-0.3198 I-0.0056 J0.1249
G1 X90.4616 Z-0.3201
G1 X90.8397 Z-0.322
G3 X90.9647 Y19.603 Z-0.323 I0.0 J0.125
G1 Y20.5718 Z-0.3278
G3 X90.8397 Y20.6968 Z-0.3288 I-0.125 J0.0
G1 X90.6487 Z-0.3297
G1 X90.4004 Z-0.331
G3 X90.3852 Y20.6984 Z-0.3311 I-0.0207 J-0.1233
G2 X90.381 Y20.7028 I0.0002 J0.0044
G3 Y20.7033 I-0.125 J0.0003
G2 X90.3855 Y20.708 I0.0047 J0.0
G3 X90.5046 Y20.8329 Z-0.3321 I-0.0058 J0.1249
G1 Y22.4447 Z-0.3401
G3 X90.3796 Y22.5697 Z-0.3411 I-0.125 J0.0
G1 X88.4303 Z-0.3508
G3 X88.3055 Y22.4506 Z-0.3518 I0.0 J-0.125
G2 X88.3008 Y22.4461 I-0.0047 J0.0002
G3 X88.3002 I-0.0003 J-0.125
G2 X88.2958 Y22.4503 I0.0 J0.0044
G3 X88.2942 Y22.4654 Z-0.3519 I-0.1249 J-0.0056
G1 Y22.7138 Z-0.3531
G1 Y22.9048 Z-0.3541
G3 X88.1692 Y23.0298 Z-0.3551 I-0.125 J0.0
G1 X87.2005 Z-0.3599
G3 X87.0755 Y22.9048 Z-0.3609 I0.0 J-0.125
G1 Y22.5266 Z-0.3628
G1 Y22.4655 Z-0.3631
G3 X87.0739 Y22.4502 Z-0.3632 I0.1233 J-0.0208
G2 X87.0695 Y22.4461 I-0.0043 J0.0002
G3 X87.0689 I-0.0003 J-0.125
G2 X87.0642 Y22.4506 I0.0 J0.0047
G3 X86.9394 Y22.5697 Z-0.3642 I-0.1249 J-0.0059
G1 X85.3935 Z-0.3719
G3 X85.2687 Y22.4503 Z-0.3728 I0.0 J-0.125
G2 X85.2643 Y22.4461 Z-0.3729 I-0.0044 J0.0002
G3 X85.2637 I-0.0003 J-0.125
G2 X85.2592 Y22.4506 I0.0 J0.0045
G3 Y22.4509 I-0.125 J0.0004
G1 Y22.6896 Z-0.3741
G1 X85.2593 Y22.6906
G2 X85.2594 Y22.6912 I0.0096 J-0.0017
G3 X85.2627 Y22.7294 Z-0.3743 I-0.1215 J0.0295
G1 X85.2626 Y22.7299
G1 Y22.9048 Z-0.3752
G3 X85.1376 Y23.0298 Z-0.3761 I-0.125 J0.0
G1 X84.1692 Z-0.381
G3 X84.0442 Y22.9048 Z-0.3819 I0.0 J-0.125
G1 Y22.7176 Z-0.3829
G1 Y22.527 Z-0.3838
G1 Y22.4654 Z-0.3841
G3 X84.0427 Y22.4506 Z-0.3842 I0.1233 J-0.0207
G2 X84.038 Y22.4461 I-0.0047 J0.0002
G3 X84.0374 Z-0.3843 I-0.0003 J-0.125
G2 X84.033 Y22.4503 I0.0 J0.0044
G3 X83.9081 Y22.5697 Z-0.3852 I-0.1249 J-0.0056
G1 X81.181 Z-0.3988
G0 Z0.8
G1 X80.681
G1 F10.0 Z-0.4013
G1 F30.0 X78.704 Z-0.4112
G3 X78.5791 Y22.4505 Z-0.4121 I0.0 J-0.125
G2 X78.5744 Y22.4461 Z-0.4122 I-0.0047 J0.0002
G3 X78.5738 I-0.0003 J-0.125
G2 X78.5695 Y22.4502 I0.0 J0.0044
G3 X78.5682 Y22.4634 Z-0.4123 I-0.1249 J-0.0055
G1 Y22.7138 Z-0.4135
G1 Y22.9048 Z-0.4145
G3 X78.4432 Y23.0298 Z-0.4154 I-0.125 J0.0
G1 X77.4745 Z-0.4203
G3 X77.3495 Y22.9048 Z-0.4212 I0.0 J-0.125
G1 Y22.5266 Z-0.4231
G1 Y22.4674 Z-0.4234
G3 X77.3475 Y22.4503 Z-0.4235 I0.1229 J-0.0227
G2 X77.3431 Y22.4461 I-0.0044 J0.0002
G3 X77.3426 I-0.0003 J-0.125
G2 X77.3379 Y22.4506 Z-0.4236 I0.0 J0.0047
G3 X77.213 Y22.5697 Z-0.4245 I-0.1249 J-0.0059
G1 X75.6672 Z-0.4322
G3 X75.5423 Y22.4503 Z-0.4332 I0.0 J-0.125
G2 X75.5379 Y22.4461 I-0.0044 J0.0002
G3 X75.5373 I-0.0003 J-0.125
G2 X75.5328 Y22.4506 Z-0.4333 I0.0 J0.0045
G3 Y22.4509 I-0.125 J0.0004
G1 Y22.6898 Z-0.4345
G2 X75.5331 Y22.692 I0.0113 J-0.0004
G3 X75.5366 Y22.7214 Z-0.4346 I-0.1215 J0.0294
G1 Y22.7242
G1 Y22.9048 Z-0.4355
G3 X75.4116 Y23.0298 Z-0.4365 I-0.125 J0.0
G1 X74.4432 Z-0.4413
G3 X74.3182 Y22.9048 Z-0.4423 I0.0 J-0.125
G1 Y22.7176 Z-0.4432
G1 Y22.527 Z-0.4442
G1 Y22.4674 Z-0.4445
G3 X74.3163 Y22.4506 Z-0.4446 I0.1229 J-0.0227
G2 X74.3116 Y22.4461 I-0.0047 J0.0002
G3 X74.311 I-0.0003 J-0.125
G2 X74.3066 Y22.4503 I0.0 J0.0044
G3 X74.1818 Y22.5697 Z-0.4456 I-0.1249 J-0.0056
G1 X68.9776 Z-0.4715
G3 X68.8527 Y22.4505 Z-0.4725 I0.0 J-0.125
G2 X68.848 Y22.4461 I-0.0047 J0.0002
G3 X68.8475 I-0.0003 J-0.125
G2 X68.8431 Y22.4503 Z-0.4726 I0.0 J0.0044
G3 X68.8418 Y22.4632 I-0.1249 J-0.0056
G1 Y22.7138 Z-0.4739
G1 Y22.9048 Z-0.4748
G3 X68.7168 Y23.0298 Z-0.4758 I-0.125 J0.0
G1 X67.7481 Z-0.4806
G3 X67.6231 Y22.9048 Z-0.4816 I0.0 J-0.125
G1 Y22.5266 Z-0.4835
G1 Y22.4675 Z-0.4838
G3 X67.6211 Y22.4503 Z-0.4839 I0.1229 J-0.0228
G2 X67.6167 Y22.4461 I-0.0044 J0.0002
G3 X67.6162 I-0.0003 J-0.125
G2 X67.6115 Y22.4506 I0.0 J0.0047
G3 X67.4866 Y22.5697 Z-0.4849 I-0.1249 J-0.0059
G1 X65.9408 Z-0.4926
G3 X65.8159 Y22.4503 Z-0.4936 I0.0 J-0.125
G2 X65.8115 Y22.4461 I-0.0044 J0.0002
G3 X65.8109 I-0.0003 J-0.125
G2 X65.8064 Y22.4506 I0.0 J0.0045
G3 Y22.4509 I-0.125 J0.0004
G1 Y22.6903 Z-0.4948
G2 X65.8066 Y22.692 I0.0076 J-0.0002
G3 X65.8102 Y22.7218 Z-0.495 I-0.1214 J0.0298
G1 Y22.7242
G1 Y22.9048 Z-0.4959
G3 X65.6852 Y23.0298 Z-0.4969 I-0.125 J0.0
G1 X64.7168 Z-0.5017
G3 X64.5918 Y22.9048 Z-0.5027 I0.0 J-0.125
G1 Y22.7176 Z-0.5036
G1 Y22.527 Z-0.5046
G1 Y22.4675 Z-0.5049
G3 X64.5898 Y22.4505 I0.1229 J-0.0228
G2 X64.5851 Y22.4461 Z-0.505 I-0.0047 J0.0002
G3 X64.5846 I-0.0003 J-0.125
G2 X64.5802 Y22.4503 I0.0 J0.0044
G3 X64.4553 Y22.5697 Z-0.506 I-0.1249 J-0.0056
G1 X62.506 Z-0.5157
G3 X62.381 Y22.4447 Z-0.5167 I0.0 J-0.125
G1 Y20.8329 Z-0.5247
G3 X62.5001 Y20.708 Z-0.5256 I0.125 J0.0
G2 X62.5046 Y20.7033 Z-0.5257 I-0.0002 J-0.0047
G3 Y20.7028 I0.125 J-0.0003
G2 X62.5004 Y20.6984 I-0.0044 J0.0
G3 X62.4853 Y20.6968 Z-0.5258 I0.0056 J-0.1249
G1 X62.2369 Z-0.527
G1 X62.0459 Z-0.528
G3 X61.9209 Y20.5718 Z-0.529 I0.0 J-0.125
G1 Y19.603 Z-0.5338
G3 X62.0459 Y19.478 Z-0.5348 I0.125 J0.0
G1 X62.4241 Z-0.5366
G1 X62.4852 Z-0.5369
G3 X62.5004 Y19.4764 Z-0.537 I0.0208 J0.1233
G2 X62.5046 Y19.472 Z-0.5371 I-0.0002 J-0.0044
G3 Y19.4715 I0.125 J-0.0003
G2 X62.5002 Y19.4668 I-0.0047 J0.0
G3 X62.381 Y19.3419 Z-0.538 I0.0058 J-0.1249
G1 Y17.7961 Z-0.5458
G3 X62.5004 Y17.6712 Z-0.5467 I0.125 J0.0
G2 X62.5046 Y17.6668 I-0.0002 J-0.0044
G3 Y17.6662 I0.125 J-0.0003
G2 X62.5001 Y17.6617 Z-0.5468 I-0.0045 J0.0
G3 X62.4998 I-0.0004 J-0.125
G1 X62.261 Z-0.548
G3 X62.2607 Y17.6618 I-0.0198 J-0.1234
G3 X62.2599 Y17.6619 I-0.0251 J-0.1225
G3 X62.2595 Y17.662 I-0.0257 J-0.1223
G2 X62.2586 Y17.6622 I0.0073 J0.0353
G3 X62.2208 Y17.6652 Z-0.5482 I-0.0286 J-0.1217
G1 X62.0459 Z-0.549
G3 X61.921 Y17.5437 Z-0.55 I0.0 J-0.125
G3 X61.9209 Y17.5402 I0.125 J-0.0035
G1 Y16.5718
G3 X62.0459 Y16.4468 I0.125 J0.0
G1 X62.2331
G1 X62.4237
G1 X62.4853
G3 X62.5001 Y16.4452 I0.0207 J0.1233
G2 X62.5046 Y16.4405 I-0.0002 J-0.0047
G3 Y16.4399 I0.125 J-0.0003
G2 X62.5004 Y16.4356 I-0.0044 J0.0
G3 X62.381 Y16.3107 I0.0056 J-0.1249
G1 Y15.0947
G0 Z0.8
G1 Y14.5947
G1 F10.0 Z-0.55
G1 F30.0 Y12.3305
G3 X62.5001 Y12.2056 I0.125 J0.0
G2 X62.5046 Y12.2009 I-0.0002 J-0.0047
G3 Y12.2004 I0.125 J-0.0003
G2 X62.5004 Y12.196 I-0.0044 J0.0
G3 X62.4853 Y12.1944 I0.0056 J-0.1249
G1 X62.2369
G1 X62.0459
G3 X61.9209 Y12.0694 I0.0 J-0.125
G1 Y11.1006
G3 X62.0459 Y10.9756 I0.125 J0.0
G1 X62.4241
G1 X62.4853
G3 X62.5004 Y10.974 I0.0207 J0.1233
G2 X62.5046 Y10.9696 I-0.0002 J-0.0044
G3 Y10.9691 I0.125 J-0.0003
G2 X62.5001 Y10.9644 I-0.0047 J0.0
G3 X62.381 Y10.8395 I0.0059 J-0.1249
G1 Y9.2937
G3 X62.5004 Y9.1688 I0.125 J0.0
G2 X62.5046 Y9.1644 I-0.0002 J-0.0044
G3 Y9.1638 I0.125 J-0.0003
G2 X62.5001 Y9.1593 I-0.0045 J0.0
G3 X62.4998 I-0.0004 J-0.125
G1 X62.2611
G3 X62.2607 Y9.1594 I-0.0198 J-0.1234
G3 X62.2599 Y9.1595 I-0.0251 J-0.1225
G3 X62.259 Y9.1597 I-0.0257 J-0.1223
G3 X62.2208 Y9.1628 I-0.029 J-0.1216
G1 X62.0459
G3 X61.9209 Y9.0378 I0.0 J-0.125
G1 Y8.0694
G3 X62.0459 Y7.9444 I0.125 J0.0
G1 X62.2331
G1 X62.4237
G1 X62.4853
G3 X62.5001 Y7.9428 I0.0207 J0.1233
G2 X62.5046 Y7.9381 I-0.0002 J-0.0047
G3 Y7.9375 I0.125 J-0.0003
G2 X62.5004 Y7.9331 I-0.0044 J0.0
G3 X62.381 Y7.8083 I0.0056 J-0.1249
G1 Y6.1961
G3 X62.506 Y6.0711 I0.125 J0.0
G1 X64.4553
G3 X64.5802 Y6.1909 I0.0 J0.125
G2 X64.5846 Y6.1951 I0.0043 J-0.0002
G3 X64.5851 I0.0003 J0.125
G2 X64.5898 Y6.1906 I0.0 J-0.0047
G3 X64.5914 Y6.1754 I0.1249 J0.0055
G1 Y6.1333
G1 Y5.9461
G3 X64.7164 Y5.8211 I0.125 J0.0
G1 X65.6817
G3 X65.8064 Y5.9552 I0.0 J0.125
G1 Y6.1902
G3 Y6.1906 I-0.125 J0.0
G2 X65.8109 Y6.1951 I0.0045 J0.0
G3 X65.8115 I0.0004 J0.125
G2 X65.8158 Y6.1909 I0.0 J-0.0044
G3 X65.9407 Y6.0711 I0.1249 J0.0052
G1 X67.4866
G3 X67.6115 Y6.1906 I0.0 J0.125
G2 X67.6161 Y6.1951 I0.0047 J-0.0002
G3 X67.6167 I0.0003 J0.125
G2 X67.621 Y6.1909 I0.0 J-0.0044
G3 X67.6227 Y6.1753 I0.1249 J0.0052
G1 Y5.9461
G3 X67.7477 Y5.8211 I0.125 J0.0
G1 X68.7164
G3 X68.8414 Y5.9461 I0.0 J0.125
G1 Y6.1371
G1 Y6.1754
G3 X68.8431 Y6.1909 I-0.1233 J0.0207
G2 X68.8474 Y6.1951 I0.0044 J-0.0002
G3 X68.848 I0.0003 J0.125
G2 X68.8527 Y6.1906 I0.0 J-0.0047
G3 X68.9775 Y6.0711 I0.1249 J0.0055
G1 X70.9412
G0 Z0.8
G1 X71.4412
G1 F10.0 Z-0.55
G1 F30.0 X74.1817
G3 X74.3066 Y6.1909 I0.0 J0.125
G2 X74.311 Y6.1951 I0.0044 J-0.0002
G3 X74.3115 I0.0003 J0.125
G2 X74.3162 Y6.1906 I0.0 J-0.0047
G3 X74.3178 Y6.1754 I0.1249 J0.0055
G1 Y6.1333
G1 Y5.9461
G3 X74.4428 Y5.8211 I0.125 J0.0
G1 X75.4081
G3 X75.5328 Y5.9552 I0.0 J0.125
G1 Y6.1902
G3 Y6.1906 I-0.125 J0.0
G2 X75.5373 Y6.1951 I0.0045 J0.0
G3 X75.5379 I0.0004 J0.125
G2 X75.5422 Y6.1909 I0.0 J-0.0044
G3 X75.6671 Y6.0711 I0.1249 J0.0052
G1 X77.213
G3 X77.3379 Y6.1906 I0.0 J0.125
G2 X77.3425 Y6.1951 I0.0047 J-0.0002
G3 X77.3431 I0.0003 J0.125
G2 X77.3475 Y6.1909 I0.0 J-0.0044
G3 X77.3491 Y6.1754 I0.1249 J0.0052
G1 Y5.9461
G3 X77.4741 Y5.8211 I0.125 J0.0
G1 X78.4428
G3 X78.5678 Y5.9461 I0.0 J0.125
G1 Y6.1371
G1 Y6.1753
G3 X78.5695 Y6.1909 I-0.1233 J0.0208
G2 X78.5738 Y6.1951 I0.0043 J-0.0002
G3 X78.5744 I0.0003 J0.125
G2 X78.5791 Y6.1906 I0.0 J-0.0047
G3 X78.7039 Y6.0711 I0.1249 J0.0055
G1 X83.9081
G3 X84.033 Y6.1909 I0.0 J0.125
G2 X84.0374 Y6.1951 I0.0043 J-0.0002
G3 X84.0379 I0.0003 J0.125
G2 X84.0426 Y6.1906 I0.0 J-0.0047
G3 X84.0442 Y6.1754 I0.1249 J0.0055
G1 Y6.1333
G1 Y5.9461
G3 X84.1692 Y5.8211 I0.125 J0.0
G1 X85.1345
G3 X85.2592 Y5.9552 I0.0 J0.125
G1 Y6.1902
G3 Y6.1906 I-0.125 J0.0
G2 X85.2637 Y6.1951 I0.0045 J0.0
G3 X85.2643 I0.0004 J0.125
G2 X85.2686 Y6.1909 I0.0 J-0.0044
G3 X85.3935 Y6.0711 I0.1249 J0.0052
G1 X86.9394
G3 X87.0643 Y6.1906 I0.0 J0.125
G2 X87.0689 Y6.1951 I0.0047 J-0.0002
G3 X87.0695 I0.0003 J0.125
G2 X87.0738 Y6.1909 I0.0 J-0.0044
