( Made using CamBam - http://www.cambam.co.uk )
( CNCWorkstation1.0.sheet3 4/10/2013 00:08:09 )
( T4 : 0.25 )
( T7 : 0.25 )
G20 G90 G64 G40
G0 Z0.25
( T7 : 0.25 )
T7 M6
( Bevel Handles )
G17
M3 S1000
G0 X40.2705 Y19.8525
G1 F60.0 Z-0.1
G1 Y20.2883
G1 Y20.5248
G2 X40.6833 Y20.9376 I0.4119 J0.001
G1 X45.1215
G2 X45.5344 Y20.5248 I0.001 J-0.4118
G1 Y20.2883
G1 Y19.8525
G0 Z0.25
G0 X47.0267 Y19.9383
G1 Z-0.1
G1 Y20.8126
G1 Y21.188
G1 Y21.3133
G3 X46.6524 Y21.6876 I-0.3736 J0.0007
G1 X39.1524
G3 X38.7781 Y21.3133 I-0.0007 J-0.3736
G1 X38.7805 Y21.2693
G1 X38.7781 Y20.1019
G1 Y19.9383
G0 Z0.25
G0 X35.7405 Y19.8932
G1 Z-0.1
G1 Y20.7675
G1 Y21.1428
G1 Y21.2682
G3 X35.3662 Y21.6425 I-0.3736 J0.0007
G1 X27.8662
G3 X27.4919 Y21.2682 I-0.0007 J-0.3736
G1 X27.4942 Y21.2241
G1 X27.4919 Y20.0567
G1 Y19.8932
G0 Z0.25
G0 X28.9842 Y19.8074
G1 Z-0.1
G1 Y20.2432
G1 Y20.4796
G2 X29.3971 Y20.8925 I0.4119 J0.001
G1 X33.8353
G2 X34.2481 Y20.4796 I0.001 J-0.4118
G1 Y20.2432
G1 Y19.8074
( Drill1 )
G0 Z0.5
( T4 : 0.25 )
T4 M6
M3 S1000
G0 X41.8481 Y79.8444
G0 Z0.5
G0 X41.8525 Y79.8444
G1 F10.0 Z0.0
G2 F50.0 X41.8459 Y79.8406 Z-0.3333 I-0.0044 J0.0
G2 Y79.8483 Z-0.6667 I0.0022 J0.0038
G2 X41.8468 Y79.8486 Z-0.7 I0.0022 J-0.0038
G2 X41.8524 Y79.8435 I0.0014 J-0.0042
G2 X41.8452 Y79.8411 I-0.0043 J0.0009
G2 X41.8468 Y79.8486 I0.003 J0.0033
G0 Z0.5
G0 X36.7431 Y92.8489
G1 F10.0 Z0.0
G2 F50.0 X36.7364 Y92.8451 Z-0.3333 I-0.0044 J0.0
G2 Y92.8527 Z-0.6667 I0.0022 J0.0038
G2 X36.7373 Y92.8531 Z-0.7 I0.0022 J-0.0038
G2 X36.743 Y92.848 I0.0014 J-0.0042
G2 X36.7357 Y92.8456 I-0.0043 J0.0009
G2 X36.7373 Y92.8531 I0.003 J0.0033
G0 Z0.5
G0 X32.509 Y92.8489
G1 F10.0 Z0.0
G2 F50.0 X32.5023 Y92.8451 Z-0.3333 I-0.0044 J0.0
G2 Y92.8527 Z-0.6667 I0.0022 J0.0038
G2 X32.5032 Y92.8531 Z-0.7 I0.0022 J-0.0038
G2 X32.5089 Y92.848 I0.0014 J-0.0042
G2 X32.5016 Y92.8456 I-0.0043 J0.0009
G2 X32.5032 Y92.8531 I0.003 J0.0033
G0 Z0.5
G0 X28.01 Y75.9341
G1 F10.0 Z0.0
G2 F50.0 X28.0033 Y75.9303 Z-0.3333 I-0.0044 J0.0
G2 Y75.938 Z-0.6667 I0.0022 J0.0038
G2 X28.0042 Y75.9383 Z-0.7 I0.0022 J-0.0038
G2 X28.0099 Y75.9332 I0.0014 J-0.0042
G2 X28.0026 Y75.9308 I-0.0043 J0.0009
G2 X28.0042 Y75.9383 I0.003 J0.0033
G0 Z0.5
G0 X23.6476 Y75.9341
G1 F10.0 Z0.0
G2 F50.0 X23.641 Y75.9303 Z-0.3333 I-0.0044 J0.0
G2 Y75.938 Z-0.6667 I0.0022 J0.0038
G2 X23.6418 Y75.9383 Z-0.7 I0.0022 J-0.0038
G2 X23.6475 Y75.9332 I0.0014 J-0.0042
G2 X23.6402 Y75.9308 I-0.0043 J0.0009
G2 X23.6418 Y75.9383 I0.003 J0.0033
G0 Z0.5
G0 X18.7853 Y75.9341
G1 F10.0 Z0.0
G2 F50.0 X18.7786 Y75.9303 Z-0.3333 I-0.0044 J0.0
G2 Y75.938 Z-0.6667 I0.0022 J0.0038
G2 X18.7795 Y75.9383 Z-0.7 I0.0022 J-0.0038
G2 X18.7852 Y75.9332 I0.0014 J-0.0042
G2 X18.7779 Y75.9308 I-0.0043 J0.0009
G2 X18.7795 Y75.9383 I0.003 J0.0033
G0 Z0.5
G0 X13.4229 Y75.9341
G1 F10.0 Z0.0
G2 F50.0 X13.4162 Y75.9303 Z-0.3333 I-0.0044 J0.0
G2 Y75.938 Z-0.6667 I0.0022 J0.0038
G2 X13.4171 Y75.9383 Z-0.7 I0.0022 J-0.0038
G2 X13.4228 Y75.9332 I0.0014 J-0.0042
G2 X13.4155 Y75.9308 I-0.0043 J0.0009
G2 X13.4171 Y75.9383 I0.003 J0.0033
G0 Z0.5
G0 X8.0605 Y75.9341
G1 F10.0 Z0.0
G2 F50.0 X8.0539 Y75.9303 Z-0.3333 I-0.0044 J0.0
G2 Y75.938 Z-0.6667 I0.0022 J0.0038
G2 X8.0547 Y75.9383 Z-0.7 I0.0022 J-0.0038
G2 X8.0604 Y75.9332 I0.0014 J-0.0042
G2 X8.0531 Y75.9308 I-0.0043 J0.0009
G2 X8.0547 Y75.9383 I0.003 J0.0033
G0 Z0.5
G0 X2.6981 Y75.9341
G1 F10.0 Z0.0
G2 F50.0 X2.6915 Y75.9303 Z-0.3333 I-0.0044 J0.0
G2 Y75.938 Z-0.6667 I0.0022 J0.0038
G2 X2.6923 Y75.9383 Z-0.7 I0.0022 J-0.0038
G2 X2.698 Y75.9332 I0.0014 J-0.0042
G2 X2.6908 Y75.9308 I-0.0043 J0.0009
G2 X2.6923 Y75.9383 I0.003 J0.0033
G0 Z0.5
G0 X5.6669 Y45.2138
G1 F10.0 Z0.0
G2 F50.0 X5.6605 Y45.2101 Z-0.3333 I-0.0043 J0.0
G2 Y45.2175 Z-0.6667 I0.0021 J0.0037
G2 X5.6613 Y45.2178 Z-0.7 I0.0021 J-0.0037
G2 X5.6668 Y45.2129 I0.0013 J-0.004
G2 X5.6598 Y45.2106 I-0.0042 J0.0009
G2 X5.6613 Y45.2178 I0.0028 J0.0032
G0 Z0.5
G0 X7.5919 Y41.9254
G1 F10.0 Z0.0
G2 F50.0 X7.5855 Y41.9217 Z-0.3333 I-0.0043 J0.0
G2 Y41.9291 Z-0.6667 I0.0021 J0.0037
G2 X7.5863 Y41.9294 Z-0.7 I0.0021 J-0.0037
G2 X7.5918 Y41.9245 I0.0013 J-0.004
G2 X7.5848 Y41.9222 I-0.0042 J0.0009
G2 X7.5863 Y41.9294 I0.0028 J0.0032
G0 Z0.5
G0 X10.3828 Y45.2138
G1 F10.0 Z0.0
G2 F50.0 X10.3764 Y45.2101 Z-0.3333 I-0.0043 J0.0
G2 Y45.2175 Z-0.6667 I0.0021 J0.0037
G2 X10.3773 Y45.2178 Z-0.7 I0.0021 J-0.0037
G2 X10.3827 Y45.2129 I0.0013 J-0.004
G2 X10.3757 Y45.2106 I-0.0042 J0.0009
G2 X10.3773 Y45.2178 I0.0028 J0.0032
G0 Z0.5
G0 X12.3082 Y41.9254
G1 F10.0 Z0.0
G2 F50.0 X12.3018 Y41.9217 Z-0.3333 I-0.0043 J0.0
G2 Y41.9291 Z-0.6667 I0.0021 J0.0037
G2 X12.3026 Y41.9294 Z-0.7 I0.0021 J-0.0037
G2 X12.3081 Y41.9245 I0.0013 J-0.004
G2 X12.3011 Y41.9222 I-0.0042 J0.0009
G2 X12.3026 Y41.9294 I0.0028 J0.0032
G0 Z0.5
G0 X15.0991 Y45.2138
G1 F10.0 Z0.0
G2 F50.0 X15.0928 Y45.2101 Z-0.3333 I-0.0043 J0.0
G2 Y45.2175 Z-0.6667 I0.0021 J0.0037
G2 X15.0936 Y45.2178 Z-0.7 I0.0021 J-0.0037
G2 X15.099 Y45.2129 I0.0013 J-0.004
G2 X15.092 Y45.2106 I-0.0042 J0.0009
G2 X15.0936 Y45.2178 I0.0028 J0.0032
G0 Z0.5
G0 X17.0241 Y41.9254
G1 F10.0 Z0.0
G2 F50.0 X17.0177 Y41.9217 Z-0.3333 I-0.0043 J0.0
G2 Y41.9291 Z-0.6667 I0.0021 J0.0037
G2 X17.0186 Y41.9294 Z-0.7 I0.0021 J-0.0037
G2 X17.024 Y41.9245 I0.0013 J-0.004
G2 X17.017 Y41.9222 I-0.0042 J0.0009
G2 X17.0186 Y41.9294 I0.0028 J0.0032
G0 Z0.5
G0 X19.8154 Y45.2138
G1 F10.0 Z0.0
G2 F50.0 X19.8091 Y45.2101 Z-0.3333 I-0.0043 J0.0
G2 Y45.2175 Z-0.6667 I0.0021 J0.0037
G2 X19.8099 Y45.2178 Z-0.7 I0.0021 J-0.0037
G2 X19.8154 Y45.2129 I0.0013 J-0.004
G2 X19.8083 Y45.2106 I-0.0042 J0.0009
G2 X19.8099 Y45.2178 I0.0028 J0.0032
G0 Z0.5
G0 X21.7404 Y41.9254
G1 F10.0 Z0.0
G2 F50.0 X21.7341 Y41.9217 Z-0.3333 I-0.0043 J0.0
G2 Y41.9291 Z-0.6667 I0.0021 J0.0037
G2 X21.7349 Y41.9294 Z-0.7 I0.0021 J-0.0037
G2 X21.7403 Y41.9245 I0.0013 J-0.004
G2 X21.7333 Y41.9222 I-0.0042 J0.0009
G2 X21.7349 Y41.9294 I0.0028 J0.0032
G0 Z0.5
G0 X24.5314 Y45.2138
G1 F10.0 Z0.0
G2 F50.0 X24.525 Y45.2101 Z-0.3333 I-0.0043 J0.0
G2 Y45.2175 Z-0.6667 I0.0021 J0.0037
G2 X24.5258 Y45.2178 Z-0.7 I0.0021 J-0.0037
G2 X24.5313 Y45.2129 I0.0013 J-0.004
G2 X24.5243 Y45.2106 I-0.0042 J0.0009
G2 X24.5258 Y45.2178 I0.0028 J0.0032
G0 Z0.5
G0 X26.4568 Y41.9254
G1 F10.0 Z0.0
G2 F50.0 X26.4504 Y41.9217 Z-0.3333 I-0.0043 J0.0
G2 Y41.9291 Z-0.6667 I0.0021 J0.0037
G2 X26.4512 Y41.9294 Z-0.7 I0.0021 J-0.0037
G2 X26.4567 Y41.9245 I0.0013 J-0.004
G2 X26.4497 Y41.9222 I-0.0042 J0.0009
G2 X26.4512 Y41.9294 I0.0028 J0.0032
G0 Z0.5
G0 X29.288 Y39.2102
G1 F10.0 Z0.0
G2 F50.0 X29.2816 Y39.2065 Z-0.3333 I-0.0043 J0.0
G2 Y39.2139 Z-0.6667 I0.0021 J0.0037
G2 X29.2824 Y39.2143 Z-0.7 I0.0021 J-0.0037
G2 X29.2879 Y39.2093 I0.0013 J-0.004
G2 X29.2809 Y39.2071 I-0.0042 J0.0009
G2 X29.2824 Y39.2143 I0.0028 J0.0032
G0 Z0.5
G0 X31.1727 Y41.9254
G1 F10.0 Z0.0
G2 F50.0 X31.1663 Y41.9217 Z-0.3333 I-0.0043 J0.0
G2 Y41.9291 Z-0.6667 I0.0021 J0.0037
G2 X31.1671 Y41.9294 Z-0.7 I0.0021 J-0.0037
G2 X31.1726 Y41.9245 I0.0013 J-0.004
G2 X31.1656 Y41.9222 I-0.0042 J0.0009
G2 X31.1671 Y41.9294 I0.0028 J0.0032
G0 Z0.5
G0 X29.2477 Y45.2138
G1 F10.0 Z0.0
G2 F50.0 X29.2413 Y45.2101 Z-0.3333 I-0.0043 J0.0
G2 Y45.2175 Z-0.6667 I0.0021 J0.0037
G2 X29.2421 Y45.2178 Z-0.7 I0.0021 J-0.0037
G2 X29.2476 Y45.2129 I0.0013 J-0.004
G2 X29.2406 Y45.2106 I-0.0042 J0.0009
G2 X29.2421 Y45.2178 I0.0028 J0.0032
G0 Z0.5
G0 X37.289 Y39.2102
G1 F10.0 Z0.0
G2 F50.0 X37.2826 Y39.2065 Z-0.3333 I-0.0043 J0.0
G2 Y39.2139 Z-0.6667 I0.0021 J0.0037
G2 X37.2834 Y39.2143 Z-0.7 I0.0021 J-0.0037
G2 X37.2889 Y39.2093 I0.0013 J-0.004
G2 X37.2819 Y39.2071 I-0.0042 J0.0009
G2 X37.2834 Y39.2143 I0.0028 J0.0032
G0 Z0.5
G0 X41.4753 Y34.9608
G1 F10.0 Z0.0
G2 F50.0 X41.4689 Y34.9571 Z-0.3333 I-0.0043 J0.0
G2 Y34.9644 Z-0.6667 I0.0021 J0.0037
G2 X41.4697 Y34.9648 Z-0.7 I0.0021 J-0.0037
G2 X41.4752 Y34.9599 I0.0013 J-0.004
G2 X41.4682 Y34.9576 I-0.0042 J0.0009
G2 X41.4697 Y34.9648 I0.0028 J0.0032
G0 Z0.5
G0 X41.4753 Y26.9597
G1 F10.0 Z0.0
G2 F50.0 X41.4689 Y26.9561 Z-0.3333 I-0.0043 J0.0
G2 Y26.9634 Z-0.6667 I0.0021 J0.0037
G2 X41.4697 Y26.9638 Z-0.7 I0.0021 J-0.0037
G2 X41.4752 Y26.9589 I0.0013 J-0.004
G2 X41.4682 Y26.9566 I-0.0042 J0.0009
G2 X41.4697 Y26.9638 I0.0028 J0.0032
G0 Z0.5
G0 X45.039 Y16.1539
G1 F10.0 Z0.0
G2 F50.0 X45.0324 Y16.15 Z-0.3333 I-0.0044 J0.0
G2 Y16.1577 Z-0.6667 I0.0022 J0.0038
G2 X45.0332 Y16.1581 Z-0.7 I0.0022 J-0.0038
G2 X45.0389 Y16.1529 I0.0014 J-0.0042
G2 X45.0316 Y16.1506 I-0.0043 J0.0009
G2 X45.0332 Y16.1581 I0.003 J0.0033
G0 Z0.5
G0 X41.4753 Y13.7063
G1 F10.0 Z0.0
G2 F50.0 X41.4689 Y13.7026 Z-0.3333 I-0.0043 J0.0
G2 Y13.71 Z-0.6667 I0.0021 J0.0037
G2 X41.4697 Y13.7103 Z-0.7 I0.0021 J-0.0037
G2 X41.4752 Y13.7054 I0.0013 J-0.004
G2 X41.4682 Y13.7031 I-0.0042 J0.0009
G2 X41.4697 Y13.7103 I0.0028 J0.0032
G0 Z0.5
G0 X41.4753 Y5.7053
G1 F10.0 Z0.0
G2 F50.0 X41.4689 Y5.7016 Z-0.3333 I-0.0043 J0.0
G2 Y5.709 Z-0.6667 I0.0021 J0.0037
G2 X41.4697 Y5.7093 Z-0.7 I0.0021 J-0.0037
G2 X41.4752 Y5.7044 I0.0013 J-0.004
G2 X41.4682 Y5.7021 I-0.0042 J0.0009
G2 X41.4697 Y5.7093 I0.0028 J0.0032
G0 Z0.5
G0 X37.289 Y1.4558
G1 F10.0 Z0.0
G2 F50.0 X37.2826 Y1.4521 Z-0.3333 I-0.0043 J0.0
G2 Y1.4595 Z-0.6667 I0.0021 J0.0037
G2 X37.2834 Y1.4599 Z-0.7 I0.0021 J-0.0037
G2 X37.2889 Y1.4549 I0.0013 J-0.004
G2 X37.2819 Y1.4526 I-0.0042 J0.0009
G2 X37.2834 Y1.4599 I0.0028 J0.0032
G0 Z0.5
G0 X29.288 Y1.4558
G1 F10.0 Z0.0
G2 F50.0 X29.2816 Y1.4521 Z-0.3333 I-0.0043 J0.0
G2 Y1.4595 Z-0.6667 I0.0021 J0.0037
G2 X29.2824 Y1.4599 Z-0.7 I0.0021 J-0.0037
G2 X29.2879 Y1.4549 I0.0013 J-0.004
G2 X29.2809 Y1.4526 I-0.0042 J0.0009
G2 X29.2824 Y1.4599 I0.0028 J0.0032
G0 Z0.5
G0 X25.1083 Y5.7053
G1 F10.0 Z0.0
G2 F50.0 X25.1019 Y5.7016 Z-0.3333 I-0.0043 J0.0
G2 Y5.709 Z-0.6667 I0.0021 J0.0037
G2 X25.1027 Y5.7093 Z-0.7 I0.0021 J-0.0037
G2 X25.1082 Y5.7044 I0.0013 J-0.004
G2 X25.1012 Y5.7021 I-0.0042 J0.0009
G2 X25.1027 Y5.7093 I0.0028 J0.0032
G0 Z0.5
G0 X19.9819 Y5.7053
G1 F10.0 Z0.0
G2 F50.0 X19.9756 Y5.7016 Z-0.3333 I-0.0043 J0.0
G2 Y5.709 Z-0.6667 I0.0021 J0.0037
G2 X19.9764 Y5.7093 Z-0.7 I0.0021 J-0.0037
G2 X19.9818 Y5.7044 I0.0013 J-0.004
G2 X19.9748 Y5.7021 I-0.0042 J0.0009
G2 X19.9764 Y5.7093 I0.0028 J0.0032
G0 Z0.5
G0 X14.8559 Y5.7053
G1 F10.0 Z0.0
G2 F50.0 X14.8495 Y5.7016 Z-0.3333 I-0.0043 J0.0
G2 Y5.709 Z-0.6667 I0.0021 J0.0037
G2 X14.8503 Y5.7093 Z-0.7 I0.0021 J-0.0037
G2 X14.8558 Y5.7044 I0.0013 J-0.004
G2 X14.8488 Y5.7021 I-0.0042 J0.0009
G2 X14.8503 Y5.7093 I0.0028 J0.0032
G0 Z0.5
G0 X10.7295 Y5.7053
G1 F10.0 Z0.0
G2 F50.0 X10.7231 Y5.7016 Z-0.3333 I-0.0043 J0.0
G2 Y5.709 Z-0.6667 I0.0021 J0.0037
G2 X10.724 Y5.7093 Z-0.7 I0.0021 J-0.0037
G2 X10.7294 Y5.7044 I0.0013 J-0.004
G2 X10.7224 Y5.7021 I-0.0042 J0.0009
G2 X10.724 Y5.7093 I0.0028 J0.0032
G0 Z0.5
G0 X6.6031 Y5.7053
G1 F10.0 Z0.0
G2 F50.0 X6.5968 Y5.7016 Z-0.3333 I-0.0043 J0.0
G2 Y5.709 Z-0.6667 I0.0021 J0.0037
G2 X6.5976 Y5.7093 Z-0.7 I0.0021 J-0.0037
G2 X6.603 Y5.7044 I0.0013 J-0.004
G2 X6.596 Y5.7021 I-0.0042 J0.0009
G2 X6.5976 Y5.7093 I0.0028 J0.0032
G0 Z0.5
G0 X2.4768 Y5.7053
G1 F10.0 Z0.0
G2 F50.0 X2.4704 Y5.7016 Z-0.3333 I-0.0043 J0.0
G2 Y5.709 Z-0.6667 I0.0021 J0.0037
G2 X2.4712 Y5.7093 Z-0.7 I0.0021 J-0.0037
G2 X2.4767 Y5.7044 I0.0013 J-0.004
G2 X2.4697 Y5.7021 I-0.0042 J0.0009
G2 X2.4712 Y5.7093 I0.0028 J0.0032
G0 Z0.5
G0 X1.9761 Y5.949
G1 F10.0 Z0.0
G2 F50.0 X1.9697 Y5.9453 Z-0.3333 I-0.0043 J0.0
G2 Y5.9527 Z-0.6667 I0.0021 J0.0037
G2 X1.9705 Y5.9531 Z-0.7 I0.0021 J-0.0037
G2 X1.976 Y5.9481 I0.0013 J-0.004
G2 X1.969 Y5.9459 I-0.0042 J0.0009
G2 X1.9705 Y5.9531 I0.0028 J0.0032
G0 Z0.5
G0 X1.9761 Y2.199
G1 F10.0 Z0.0
G2 F50.0 X1.9697 Y2.1954 Z-0.3333 I-0.0043 J0.0
G2 Y2.2027 Z-0.6667 I0.0021 J0.0037
G2 X1.9705 Y2.2031 Z-0.7 I0.0021 J-0.0037
G2 X1.976 Y2.1981 I0.0013 J-0.004
G2 X1.969 Y2.1959 I-0.0042 J0.0009
G2 X1.9705 Y2.2031 I0.0028 J0.0032
G0 Z0.5
G0 X1.9761 Y9.699
G1 F10.0 Z0.0
G2 F50.0 X1.9697 Y9.6953 Z-0.3333 I-0.0043 J0.0
G2 Y9.7027 Z-0.6667 I0.0021 J0.0037
G2 X1.9705 Y9.7031 Z-0.7 I0.0021 J-0.0037
G2 X1.976 Y9.6981 I0.0013 J-0.004
G2 X1.969 Y9.6959 I-0.0042 J0.0009
G2 X1.9705 Y9.7031 I0.0028 J0.0032
G0 Z0.5
G0 X1.9761 Y13.449
G1 F10.0 Z0.0
G2 F50.0 X1.9697 Y13.4453 Z-0.3333 I-0.0043 J0.0
G2 Y13.4527 Z-0.6667 I0.0021 J0.0037
G2 X1.9705 Y13.4531 Z-0.7 I0.0021 J-0.0037
G2 X1.976 Y13.4481 I0.0013 J-0.004
G2 X1.969 Y13.4459 I-0.0042 J0.0009
G2 X1.9705 Y13.4531 I0.0028 J0.0032
G0 Z0.5
G0 X2.4768 Y13.7063
G1 F10.0 Z0.0
G2 F50.0 X2.4704 Y13.7026 Z-0.3333 I-0.0043 J0.0
G2 Y13.71 Z-0.6667 I0.0021 J0.0037
G2 X2.4712 Y13.7103 Z-0.7 I0.0021 J-0.0037
G2 X2.4767 Y13.7054 I0.0013 J-0.004
G2 X2.4697 Y13.7031 I-0.0042 J0.0009
G2 X2.4712 Y13.7103 I0.0028 J0.0032
G0 Z0.5
G0 X1.9761 Y17.199
G1 F10.0 Z0.0
G2 F50.0 X1.9697 Y17.1953 Z-0.3333 I-0.0043 J0.0
G2 Y17.2027 Z-0.6667 I0.0021 J0.0037
G2 X1.9705 Y17.203 Z-0.7 I0.0021 J-0.0037
G2 X1.976 Y17.1981 I0.0013 J-0.004
G2 X1.969 Y17.1958 I-0.0042 J0.0009
G2 X1.9705 Y17.203 I0.0028 J0.0032
G0 Z0.5
G0 X4.2287 Y18.8221
G1 F10.0 Z0.0
G2 F50.0 X4.2223 Y18.8184 Z-0.3333 I-0.0043 J0.0
G2 Y18.8258 Z-0.6667 I0.0021 J0.0037
G2 X4.2231 Y18.8261 Z-0.7 I0.0021 J-0.0037
G2 X4.2286 Y18.8212 I0.0013 J-0.004
G2 X4.2216 Y18.8189 I-0.0042 J0.0009
G2 X4.2231 Y18.8261 I0.0028 J0.0032
G0 Z0.5
G0 X4.2287 Y21.8439
G1 F10.0 Z0.0
G2 F50.0 X4.2223 Y21.8403 Z-0.3333 I-0.0043 J0.0
G2 Y21.8476 Z-0.6667 I0.0021 J0.0037
G2 X4.2231 Y21.848 Z-0.7 I0.0021 J-0.0037
G2 X4.2286 Y21.8431 I0.0013 J-0.004
G2 X4.2216 Y21.8408 I-0.0042 J0.0009
G2 X4.2231 Y21.848 I0.0028 J0.0032
G0 Z0.5
G0 X1.9761 Y23.467
G1 F10.0 Z0.0
G2 F50.0 X1.9697 Y23.4634 Z-0.3333 I-0.0043 J0.0
G2 Y23.4707 Z-0.6667 I0.0021 J0.0037
G2 X1.9705 Y23.4711 Z-0.7 I0.0021 J-0.0037
G2 X1.976 Y23.4662 I0.0013 J-0.004
G2 X1.969 Y23.4639 I-0.0042 J0.0009
G2 X1.9705 Y23.4711 I0.0028 J0.0032
G0 Z0.5
G0 X2.4768 Y26.9597
G1 F10.0 Z0.0
G2 F50.0 X2.4704 Y26.9561 Z-0.3333 I-0.0043 J0.0
G2 Y26.9634 Z-0.6667 I0.0021 J0.0037
G2 X2.4712 Y26.9638 Z-0.7 I0.0021 J-0.0037
G2 X2.4767 Y26.9589 I0.0013 J-0.004
G2 X2.4697 Y26.9566 I-0.0042 J0.0009
G2 X2.4712 Y26.9638 I0.0028 J0.0032
G0 Z0.5
G0 X1.9761 Y27.217
G1 F10.0 Z0.0
G2 F50.0 X1.9697 Y27.2133 Z-0.3333 I-0.0043 J0.0
G2 Y27.2207 Z-0.6667 I0.0021 J0.0037
G2 X1.9705 Y27.2211 Z-0.7 I0.0021 J-0.0037
G2 X1.976 Y27.2161 I0.0013 J-0.004
G2 X1.969 Y27.2139 I-0.0042 J0.0009
G2 X1.9705 Y27.2211 I0.0028 J0.0032
G0 Z0.5
G0 X1.9761 Y30.967
G1 F10.0 Z0.0
G2 F50.0 X1.9697 Y30.9633 Z-0.3333 I-0.0043 J0.0
G2 Y30.9707 Z-0.6667 I0.0021 J0.0037
G2 X1.9705 Y30.9711 Z-0.7 I0.0021 J-0.0037
G2 X1.976 Y30.9661 I0.0013 J-0.004
G2 X1.969 Y30.9639 I-0.0042 J0.0009
G2 X1.9705 Y30.9711 I0.0028 J0.0032
G0 Z0.5
G0 X1.9761 Y34.717
G1 F10.0 Z0.0
G2 F50.0 X1.9697 Y34.7133 Z-0.3333 I-0.0043 J0.0
G2 Y34.7207 Z-0.6667 I0.0021 J0.0037
G2 X1.9705 Y34.7211 Z-0.7 I0.0021 J-0.0037
G2 X1.976 Y34.7161 I0.0013 J-0.004
G2 X1.969 Y34.7139 I-0.0042 J0.0009
G2 X1.9705 Y34.7211 I0.0028 J0.0032
G0 Z0.5
G0 X2.4768 Y34.9608
G1 F10.0 Z0.0
G2 F50.0 X2.4704 Y34.9571 Z-0.3333 I-0.0043 J0.0
G2 Y34.9644 Z-0.6667 I0.0021 J0.0037
G2 X2.4712 Y34.9648 Z-0.7 I0.0021 J-0.0037
G2 X2.4767 Y34.9599 I0.0013 J-0.004
G2 X2.4697 Y34.9576 I-0.0042 J0.0009
G2 X2.4712 Y34.9648 I0.0028 J0.0032
G0 Z0.5
G0 X1.9761 Y38.467
G1 F10.0 Z0.0
G2 F50.0 X1.9697 Y38.4633 Z-0.3333 I-0.0043 J0.0
G2 Y38.4707 Z-0.6667 I0.0021 J0.0037
G2 X1.9705 Y38.471 Z-0.7 I0.0021 J-0.0037
G2 X1.976 Y38.4661 I0.0013 J-0.004
G2 X1.969 Y38.4638 I-0.0042 J0.0009
G2 X1.9705 Y38.471 I0.0028 J0.0032
G0 Z0.5
G0 X6.6031 Y34.9608
G1 F10.0 Z0.0
G2 F50.0 X6.5968 Y34.9571 Z-0.3333 I-0.0043 J0.0
G2 Y34.9644 Z-0.6667 I0.0021 J0.0037
G2 X6.5976 Y34.9648 Z-0.7 I0.0021 J-0.0037
G2 X6.603 Y34.9599 I0.0013 J-0.004
G2 X6.596 Y34.9576 I-0.0042 J0.0009
G2 X6.5976 Y34.9648 I0.0028 J0.0032
G0 Z0.5
G0 X10.7295 Y34.9608
G1 F10.0 Z0.0
G2 F50.0 X10.7231 Y34.9571 Z-0.3333 I-0.0043 J0.0
G2 Y34.9644 Z-0.6667 I0.0021 J0.0037
G2 X10.724 Y34.9648 Z-0.7 I0.0021 J-0.0037
G2 X10.7294 Y34.9599 I0.0013 J-0.004
G2 X10.7224 Y34.9576 I-0.0042 J0.0009
G2 X10.724 Y34.9648 I0.0028 J0.0032
G0 Z0.5
G0 X14.8559 Y34.9608
G1 F10.0 Z0.0
G2 F50.0 X14.8495 Y34.9571 Z-0.3333 I-0.0043 J0.0
G2 Y34.9644 Z-0.6667 I0.0021 J0.0037
G2 X14.8503 Y34.9648 Z-0.7 I0.0021 J-0.0037
G2 X14.8558 Y34.9599 I0.0013 J-0.004
G2 X14.8488 Y34.9576 I-0.0042 J0.0009
G2 X14.8503 Y34.9648 I0.0028 J0.0032
G0 Z0.5
G0 X19.9819 Y34.9608
G1 F10.0 Z0.0
G2 F50.0 X19.9756 Y34.9571 Z-0.3333 I-0.0043 J0.0
G2 Y34.9644 Z-0.6667 I0.0021 J0.0037
G2 X19.9764 Y34.9648 Z-0.7 I0.0021 J-0.0037
G2 X19.9818 Y34.9599 I0.0013 J-0.004
G2 X19.9748 Y34.9576 I-0.0042 J0.0009
G2 X19.9764 Y34.9648 I0.0028 J0.0032
G0 Z0.5
G0 X25.1083 Y34.9608
G1 F10.0 Z0.0
G2 F50.0 X25.1019 Y34.9571 Z-0.3333 I-0.0043 J0.0
G2 Y34.9644 Z-0.6667 I0.0021 J0.0037
G2 X25.1027 Y34.9648 Z-0.7 I0.0021 J-0.0037
G2 X25.1082 Y34.9599 I0.0013 J-0.004
G2 X25.1012 Y34.9576 I-0.0042 J0.0009
G2 X25.1027 Y34.9648 I0.0028 J0.0032
G0 Z0.5
G0 X25.1083 Y26.9597
G1 F10.0 Z0.0
G2 F50.0 X25.1019 Y26.9561 Z-0.3333 I-0.0043 J0.0
G2 Y26.9634 Z-0.6667 I0.0021 J0.0037
G2 X25.1027 Y26.9638 Z-0.7 I0.0021 J-0.0037
G2 X25.1082 Y26.9589 I0.0013 J-0.004
G2 X25.1012 Y26.9566 I-0.0042 J0.0009
G2 X25.1027 Y26.9638 I0.0028 J0.0032
G0 Z0.5
G0 X19.9819 Y26.9597
G1 F10.0 Z0.0
G2 F50.0 X19.9756 Y26.9561 Z-0.3333 I-0.0043 J0.0
G2 Y26.9634 Z-0.6667 I0.0021 J0.0037
G2 X19.9764 Y26.9638 Z-0.7 I0.0021 J-0.0037
G2 X19.9818 Y26.9589 I0.0013 J-0.004
G2 X19.9748 Y26.9566 I-0.0042 J0.0009
G2 X19.9764 Y26.9638 I0.0028 J0.0032
G0 Z0.5
G0 X14.8559 Y26.9597
G1 F10.0 Z0.0
G2 F50.0 X14.8495 Y26.9561 Z-0.3333 I-0.0043 J0.0
G2 Y26.9634 Z-0.6667 I0.0021 J0.0037
G2 X14.8503 Y26.9638 Z-0.7 I0.0021 J-0.0037
G2 X14.8558 Y26.9589 I0.0013 J-0.004
G2 X14.8488 Y26.9566 I-0.0042 J0.0009
G2 X14.8503 Y26.9638 I0.0028 J0.0032
G0 Z0.5
G0 X10.7295 Y26.9597
G1 F10.0 Z0.0
G2 F50.0 X10.7231 Y26.9561 Z-0.3333 I-0.0043 J0.0
G2 Y26.9634 Z-0.6667 I0.0021 J0.0037
G2 X10.724 Y26.9638 Z-0.7 I0.0021 J-0.0037
G2 X10.7294 Y26.9589 I0.0013 J-0.004
G2 X10.7224 Y26.9566 I-0.0042 J0.0009
G2 X10.724 Y26.9638 I0.0028 J0.0032
G0 Z0.5
G0 X6.6031 Y26.9597
G1 F10.0 Z0.0
G2 F50.0 X6.5968 Y26.9561 Z-0.3333 I-0.0043 J0.0
G2 Y26.9634 Z-0.6667 I0.0021 J0.0037
G2 X6.5976 Y26.9638 Z-0.7 I0.0021 J-0.0037
G2 X6.603 Y26.9589 I0.0013 J-0.004
G2 X6.596 Y26.9566 I-0.0042 J0.0009
G2 X6.5976 Y26.9638 I0.0028 J0.0032
G0 Z0.5
G0 X8.7297 Y21.8439
G1 F10.0 Z0.0
G2 F50.0 X8.7233 Y21.8403 Z-0.3333 I-0.0043 J0.0
G2 Y21.8476 Z-0.6667 I0.0021 J0.0037
G2 X8.7241 Y21.848 Z-0.7 I0.0021 J-0.0037
G2 X8.7296 Y21.8431 I0.0013 J-0.004
G2 X8.7226 Y21.8408 I-0.0042 J0.0009
G2 X8.7241 Y21.848 I0.0028 J0.0032
G0 Z0.5
G0 X8.7297 Y18.8221
G1 F10.0 Z0.0
G2 F50.0 X8.7233 Y18.8184 Z-0.3333 I-0.0043 J0.0
G2 Y18.8258 Z-0.6667 I0.0021 J0.0037
G2 X8.7241 Y18.8261 Z-0.7 I0.0021 J-0.0037
G2 X8.7296 Y18.8212 I0.0013 J-0.004
G2 X8.7226 Y18.8189 I-0.0042 J0.0009
G2 X8.7241 Y18.8261 I0.0028 J0.0032
G0 Z0.5
G0 X13.2311 Y18.8221
G1 F10.0 Z0.0
G2 F50.0 X13.2247 Y18.8184 Z-0.3333 I-0.0043 J0.0
G2 Y18.8258 Z-0.6667 I0.0021 J0.0037
G2 X13.2255 Y18.8261 Z-0.7 I0.0021 J-0.0037
G2 X13.231 Y18.8212 I0.0013 J-0.004
G2 X13.224 Y18.8189 I-0.0042 J0.0009
G2 X13.2255 Y18.8261 I0.0028 J0.0032
G0 Z0.5
G0 X13.2311 Y21.8439
G1 F10.0 Z0.0
G2 F50.0 X13.2247 Y21.8403 Z-0.3333 I-0.0043 J0.0
G2 Y21.8476 Z-0.6667 I0.0021 J0.0037
G2 X13.2255 Y21.848 Z-0.7 I0.0021 J-0.0037
G2 X13.231 Y21.8431 I0.0013 J-0.004
G2 X13.224 Y21.8408 I-0.0042 J0.0009
G2 X13.2255 Y21.848 I0.0028 J0.0032
G0 Z0.5
G0 X17.7321 Y21.8439
G1 F10.0 Z0.0
G2 F50.0 X17.7257 Y21.8403 Z-0.3333 I-0.0043 J0.0
G2 Y21.8476 Z-0.6667 I0.0021 J0.0037
G2 X17.7265 Y21.848 Z-0.7 I0.0021 J-0.0037
G2 X17.732 Y21.8431 I0.0013 J-0.004
G2 X17.725 Y21.8408 I-0.0042 J0.0009
G2 X17.7265 Y21.848 I0.0028 J0.0032
G0 Z0.5
G0 X17.7321 Y18.8221
G1 F10.0 Z0.0
G2 F50.0 X17.7257 Y18.8184 Z-0.3333 I-0.0043 J0.0
G2 Y18.8258 Z-0.6667 I0.0021 J0.0037
G2 X17.7265 Y18.8261 Z-0.7 I0.0021 J-0.0037
G2 X17.732 Y18.8212 I0.0013 J-0.004
G2 X17.725 Y18.8189 I-0.0042 J0.0009
G2 X17.7265 Y18.8261 I0.0028 J0.0032
G0 Z0.5
G0 X22.2335 Y18.8221
G1 F10.0 Z0.0
G2 F50.0 X22.2271 Y18.8184 Z-0.3333 I-0.0043 J0.0
G2 Y18.8258 Z-0.6667 I0.0021 J0.0037
G2 X22.2279 Y18.8261 Z-0.7 I0.0021 J-0.0037
G2 X22.2334 Y18.8212 I0.0013 J-0.004
G2 X22.2264 Y18.8189 I-0.0042 J0.0009
G2 X22.2279 Y18.8261 I0.0028 J0.0032
G0 Z0.5
G0 X22.2335 Y21.8439
G1 F10.0 Z0.0
G2 F50.0 X22.2271 Y21.8403 Z-0.3333 I-0.0043 J0.0
G2 Y21.8476 Z-0.6667 I0.0021 J0.0037
G2 X22.2279 Y21.848 Z-0.7 I0.0021 J-0.0037
G2 X22.2334 Y21.8431 I0.0013 J-0.004
G2 X22.2264 Y21.8408 I-0.0042 J0.0009
G2 X22.2279 Y21.848 I0.0028 J0.0032
G0 Z0.5
G0 X19.9819 Y13.7063
G1 F10.0 Z0.0
G2 F50.0 X19.9756 Y13.7026 Z-0.3333 I-0.0043 J0.0
G2 Y13.71 Z-0.6667 I0.0021 J0.0037
G2 X19.9764 Y13.7103 Z-0.7 I0.0021 J-0.0037
G2 X19.9818 Y13.7054 I0.0013 J-0.004
G2 X19.9748 Y13.7031 I-0.0042 J0.0009
G2 X19.9764 Y13.7103 I0.0028 J0.0032
G0 Z0.5
G0 X14.8559 Y13.7063
G1 F10.0 Z0.0
G2 F50.0 X14.8495 Y13.7026 Z-0.3333 I-0.0043 J0.0
G2 Y13.71 Z-0.6667 I0.0021 J0.0037
G2 X14.8503 Y13.7103 Z-0.7 I0.0021 J-0.0037
G2 X14.8558 Y13.7054 I0.0013 J-0.004
G2 X14.8488 Y13.7031 I-0.0042 J0.0009
G2 X14.8503 Y13.7103 I0.0028 J0.0032
G0 Z0.5
G0 X10.7295 Y13.7063
G1 F10.0 Z0.0
G2 F50.0 X10.7231 Y13.7026 Z-0.3333 I-0.0043 J0.0
G2 Y13.71 Z-0.6667 I0.0021 J0.0037
G2 X10.724 Y13.7103 Z-0.7 I0.0021 J-0.0037
G2 X10.7294 Y13.7054 I0.0013 J-0.004
G2 X10.7224 Y13.7031 I-0.0042 J0.0009
G2 X10.724 Y13.7103 I0.0028 J0.0032
G0 Z0.5
G0 X6.6031 Y13.7063
G1 F10.0 Z0.0
G2 F50.0 X6.5968 Y13.7026 Z-0.3333 I-0.0043 J0.0
G2 Y13.71 Z-0.6667 I0.0021 J0.0037
G2 X6.5976 Y13.7103 Z-0.7 I0.0021 J-0.0037
G2 X6.603 Y13.7054 I0.0013 J-0.004
G2 X6.596 Y13.7031 I-0.0042 J0.0009
G2 X6.5976 Y13.7103 I0.0028 J0.0032
G0 Z0.5
G0 X25.1083 Y13.7063
G1 F10.0 Z0.0
G2 F50.0 X25.1019 Y13.7026 Z-0.3333 I-0.0043 J0.0
G2 Y13.71 Z-0.6667 I0.0021 J0.0037
G2 X25.1027 Y13.7103 Z-0.7 I0.0021 J-0.0037
G2 X25.1082 Y13.7054 I0.0013 J-0.004
G2 X25.1012 Y13.7031 I-0.0042 J0.0009
G2 X25.1027 Y13.7103 I0.0028 J0.0032
( Slots )
S1000
G0 Z1.5
G0 X45.4841 Y42.1389
G1 F10.0 Z0.0
G1 F30.0 Y42.6882 Z-0.5493
G1 Y42.6885 Z-0.5496
G3 Y42.6889 Z-0.55 I-0.125 J0.0
G2 X45.4886 Y42.6934 I0.0045 J0.0
G3 X45.4891 I0.0004 J0.125
G2 X45.4942 Y42.6884 I0.0 J-0.005
G1 Y42.6882
G3 X45.6192 Y42.5632 I0.125 J0.0
G1 X46.1122
G3 X46.2372 Y42.6882 I0.0 J0.125
G1 Y42.6884
G2 X46.2423 Y42.6934 I0.0051 J0.0
G3 X46.2428 I0.0001 J0.125
G2 X46.2473 Y42.6889 I0.0 J-0.0045
G3 Y42.6885 I0.125 J-0.0004
G1 Y42.6882
G1 Y41.6882
G3 Y41.6875 I0.125 J0.0
G2 X46.2428 Y41.683 I-0.0045 J0.0
G3 X46.2423 I-0.0004 J-0.125
G2 X46.2372 Y41.6881 I0.0 J0.0051
G3 X46.1122 Y41.8132 I-0.125 J0.0001
G1 X45.6192
G3 X45.4942 Y41.6881 I0.0 J-0.125
G2 X45.4891 Y41.683 I-0.0051 J0.0
G2 X45.4841 Y41.6881 I0.0 J0.0051
G3 Y41.6882 I-0.125 J0.0001
G1 Y42.6882
G1 Y42.6885
G3 Y42.6889 I-0.125 J0.0
G0 Z1.5
G0 Y35.3953
G1 F10.0 Z0.0
G1 F30.0 Y35.9375 Z-0.5423
G1 Y35.9379 Z-0.5426
G3 Y35.9382 Z-0.543 I-0.125 J0.0
G2 X45.4886 Y35.9427 Z-0.55 I0.0045 J0.0
G3 X45.4891 I0.0004 J0.125
G2 X45.4942 Y35.9377 I0.0 J-0.005
G1 Y35.9375
G3 X45.6192 Y35.8125 I0.125 J0.0
G1 X46.1122
G3 X46.2372 Y35.9375 I0.0 J0.125
G1 Y35.9379
G3 Y35.9382 I-0.125 J0.0
G2 X46.2418 Y35.9427 I0.0045 J0.0
G3 X46.2428 I0.0007 J0.125
G2 X46.2473 Y35.9383 I0.0 J-0.0045
G3 Y35.9379 I0.125 J-0.0004
G1 Y35.9375
G1 Y34.9375
G3 Y34.9368 I0.125 J0.0
G2 X46.2428 Y34.9323 I-0.0045 J0.0
G3 X46.2423 I-0.0004 J-0.125
G2 X46.2372 Y34.9374 I0.0 J0.0051
G3 X46.1122 Y35.0625 I-0.125 J0.0001
G1 X45.6192
G3 X45.4942 Y34.9374 I0.0 J-0.125
G2 X45.4891 Y34.9323 I-0.0051 J0.0
G3 X45.4886 I-0.0001 J-0.125
G2 X45.4841 Y34.9369 I0.0 J0.0045
G3 Y34.9375 I-0.125 J0.0007
G1 Y35.9375
G1 Y35.9379
G3 Y35.9382 I-0.125 J0.0
G2 X45.4886 Y35.9427 I0.0045 J0.0
G0 Z1.5
G0 X41.6004 Y36.5936
G1 F10.0 Z0.0
G1 F30.0 Y36.1458 Z-0.4478
G3 X41.6362 Y36.0582 Z-0.5448 I0.125 J0.0
G2 X41.6382 Y36.0536 Z-0.55 I-0.005 J-0.005
G2 X41.6337 Y36.0493 I-0.0045 J0.0002
G3 X41.6331 I-0.0007 J-0.125
G2 X41.6293 Y36.0512 I0.0 J0.0047
G3 X41.5292 Y36.1014 I-0.1001 J-0.0748
G1 X41.4129
G3 X41.3122 Y36.0505 I0.0 J-0.125
G2 X41.3098 Y36.0493 I-0.0023 J0.0017
G3 X41.3083 I-0.0011 J-0.125
G2 X41.3039 Y36.0538 I0.0 J0.0045
G3 Y36.0547 I-0.125 J0.0004
G2 X41.3051 Y36.0578 I0.0044 J0.0
G3 X41.3417 Y36.1462 I-0.0884 J0.0883
G1 Y36.8069
G3 X41.3052 Y36.8952 I-0.125 J0.0
G2 X41.3039 Y36.8985 I0.0032 J0.0032
G3 Y36.8993 I-0.125 J0.0005
G2 X41.3084 Y36.9038 I0.0045 J0.0
G3 X41.3085 I0.0003 J0.125
G2 X41.3126 Y36.9018 I0.0 J-0.0051
G3 X41.4129 Y36.8514 I0.1003 J0.0746
G1 X41.5289
G3 X41.6296 Y36.9023 I0.0 J0.125
G2 X41.6325 Y36.9038 I0.0029 J-0.0022
G3 X41.6332 I0.0005 J0.125
G2 X41.6382 Y36.8988 I0.0 J-0.0051
G3 Y36.898 I0.125 J0.0002
G2 X41.6375 Y36.8961 I-0.0026 J0.0
G3 X41.6004 Y36.8073 I0.0879 J-0.0889
G1 Y36.1458
G3 X41.6362 Y36.0582 I0.125 J0.0
G2 X41.6382 Y36.0536 I-0.005 J-0.005
G0 Z1.5
G0 X41.3417 Y33.6937
G1 F10.0 Z0.0
G1 F30.0 Y33.7753 Z-0.0817
G3 X41.3052 Y33.8636 Z-0.1797 I-0.125 J0.0
G2 X41.3039 Y33.8669 Z-0.1833 I0.0033 J0.0033
G3 Y33.868 Z-0.1844 I-0.125 J0.0005
G2 X41.3084 Y33.8726 Z-0.1916 I0.0045 J0.0
G3 X41.3085 Z-0.1917 I0.0003 J0.125
G2 X41.3126 Y33.8705 Z-0.1964 I0.0 J-0.005
G3 X41.4129 Y33.8201 Z-0.3128 I0.1003 J0.0746
G1 X41.5289 Z-0.4288
G3 X41.6296 Y33.8711 Z-0.5459 I0.0 J0.125
G2 X41.6324 Y33.8726 Z-0.5493 I0.0028 J-0.0021
G3 X41.6332 Z-0.55 I0.0006 J0.125
G2 X41.6382 Y33.8675 I0.0 J-0.005
G3 Y33.8664 I0.125 J-0.0002
G2 X41.6374 Y33.8645 I-0.0027 J0.0
G3 X41.6004 Y33.7757 I0.0879 J-0.0888
G1 Y33.1146
G3 X41.6363 Y33.0269 I0.125 J0.0
G2 X41.6382 Y33.0225 I-0.0048 J-0.0048
G2 X41.6332 Y33.0177 I-0.0051 J0.0003
G2 X41.6291 Y33.0198 I0.0 J0.0051
G3 X41.5289 Y33.0701 I-0.1003 J-0.0746
G1 X41.4129
G3 X41.3123 Y33.0193 I0.0 J-0.125
G2 X41.3091 Y33.0177 I-0.0032 J0.0023
G3 X41.3083 I-0.0004 J-0.125
G2 X41.3039 Y33.0222 I0.0 J0.0045
G3 Y33.0235 I-0.125 J0.0007
G2 X41.3051 Y33.0266 I0.0044 J0.0
G3 X41.3417 Y33.1149 I-0.0884 J0.0883
G1 Y33.7753
G3 X41.3052 Y33.8636 I-0.125 J0.0
G2 X41.3039 Y33.8669 I0.0033 J0.0033
G3 Y33.868 I-0.125 J0.0005
G2 X41.3084 Y33.8726 I0.0045 J0.0
G3 X41.3085 I0.0003 J0.125
G2 X41.3126 Y33.8705 I0.0 J-0.005
G3 X41.4129 Y33.8201 I0.1003 J0.0746
G1 X41.5289
G3 X41.6296 Y33.8711 I0.0 J0.125
G2 X41.6324 Y33.8726 I0.0028 J-0.0021
G3 X41.6332 I0.0006 J0.125
G0 Z1.5
G0 X41.3417 Y28.7232
G1 F10.0 Z0.0
G1 F30.0 Y28.8059 Z-0.0827
G3 X41.3052 Y28.8942 Z-0.1807 I-0.125 J0.0
G2 X41.3039 Y28.8974 Z-0.1843 I0.0032 J0.0032
G3 Y28.8983 Z-0.1851 I-0.125 J0.0005
G2 X41.3084 Y28.9028 Z-0.1922 I0.0045 J0.0
G3 X41.3085 Z-0.1924 I0.0003 J0.125
G2 X41.3126 Y28.9007 Z-0.1971 I0.0 J-0.0051
G3 X41.4129 Y28.8504 Z-0.3135 I0.1003 J0.0746
G1 X41.5289 Z-0.4295
G3 X41.6296 Y28.9013 Z-0.5466 I0.0 J0.125
G2 X41.6325 Y28.9028 Z-0.55 I0.0029 J-0.0022
G3 X41.6332 I0.0005 J0.125
G2 X41.6382 Y28.8977 I0.0 J-0.0051
G3 Y28.897 I0.125 J0.0002
G2 X41.6375 Y28.8951 I-0.0025 J0.0
G3 X41.6004 Y28.8063 I0.0879 J-0.0889
G1 Y28.1448
G3 X41.6362 Y28.0572 I0.125 J0.0
G2 X41.6382 Y28.0526 I-0.005 J-0.0049
G2 X41.6337 Y28.0483 I-0.0045 J0.0002
G3 X41.6331 I-0.0007 J-0.125
G2 X41.6293 Y28.0502 I0.0 J0.0047
G3 X41.5292 Y28.1004 I-0.1001 J-0.0748
G1 X41.4129
G3 X41.3122 Y28.0494 I0.0 J-0.125
G2 X41.3099 Y28.0483 I-0.0023 J0.0017
G3 X41.3083 I-0.0011 J-0.125
G2 X41.3039 Y28.0527 I0.0 J0.0045
G3 Y28.0537 I-0.125 J0.0004
G2 X41.3051 Y28.0568 I0.0044 J0.0
G3 X41.3417 Y28.1451 I-0.0884 J0.0883
G1 Y28.8059
G3 X41.3052 Y28.8942 I-0.125 J0.0
G2 X41.3039 Y28.8974 I0.0032 J0.0032
G3 Y28.8983 I-0.125 J0.0005
G2 X41.3084 Y28.9028 I0.0045 J0.0
G3 X41.3085 I0.0003 J0.125
G2 X41.3126 Y28.9007 I0.0 J-0.0051
G3 X41.4129 Y28.8504 I0.1003 J0.0746
G1 X41.5289
G3 X41.6296 Y28.9013 I0.0 J0.125
G2 X41.6325 Y28.9028 I0.0029 J-0.0022
G0 Z1.5
G0 X41.3417 Y25.6919
G1 F10.0 Z0.0
G1 F30.0 Y25.7743 Z-0.0824
G3 X41.3052 Y25.8626 Z-0.1804 I-0.125 J0.0
G2 X41.3039 Y25.8659 Z-0.1841 I0.0033 J0.0033
G3 Y25.867 Z-0.1852 I-0.125 J0.0004
G2 X41.3084 Y25.8715 Z-0.1923 I0.0045 J0.0
G3 X41.3085 Z-0.1925 I0.0003 J0.125
G2 X41.3126 Y25.8695 Z-0.1972 I0.0 J-0.005
G3 X41.4129 Y25.8191 Z-0.3136 I0.1003 J0.0746
G1 X41.5289 Z-0.4295
G3 X41.6296 Y25.8701 Z-0.5467 I0.0 J0.125
G2 X41.6324 Y25.8715 Z-0.55 I0.0028 J-0.0021
G3 X41.6332 I0.0006 J0.125
G2 X41.6382 Y25.8665 I0.0 J-0.005
G3 Y25.8654 I0.125 J-0.0002
G2 X41.6374 Y25.8635 I-0.0027 J0.0
G3 X41.6004 Y25.7747 I0.0879 J-0.0888
G1 Y25.1136
G3 X41.6363 Y25.0259 I0.125 J0.0
G2 X41.6382 Y25.0215 I-0.0049 J-0.0048
G2 X41.6332 Y25.0167 I-0.0051 J0.0003
G2 X41.6291 Y25.0187 I0.0 J0.0051
G3 X41.5289 Y25.0691 I-0.1003 J-0.0746
G1 X41.4129
G3 X41.3123 Y25.0183 I0.0 J-0.125
G2 X41.3091 Y25.0167 I-0.0032 J0.0023
G3 X41.3083 I-0.0004 J-0.125
G2 X41.3039 Y25.0212 I0.0 J0.0045
G3 Y25.0224 I-0.125 J0.0007
G2 X41.3051 Y25.0256 I0.0044 J0.0
G3 X41.3417 Y25.1139 I-0.0884 J0.0883
G1 Y25.7743
G3 X41.3052 Y25.8626 I-0.125 J0.0
G2 X41.3039 Y25.8659 I0.0033 J0.0033
G3 Y25.867 I-0.125 J0.0004
G2 X41.3084 Y25.8715 I0.0045 J0.0
G3 X41.3085 I0.0003 J0.125
G2 X41.3126 Y25.8695 I0.0 J-0.005
G3 X41.4129 Y25.8191 I0.1003 J0.0746
G1 X41.5289
G3 X41.6296 Y25.8701 I0.0 J0.125
G2 X41.6324 Y25.8715 I0.0028 J-0.0021
G0 Z1.5
G0 X38.2757 Y26.4215
G1 F10.0 Z0.0
G1 F30.0 Y25.8715 Z-0.55
G1 Y25.1351
G3 Y25.1339 I0.125 J0.0
G2 X38.2573 Y25.0663 I-0.129 J-0.0012
G3 X38.2552 Y25.0626 I0.1072 J-0.0644
G2 X38.2429 Y25.0542 I-0.0146 J0.0081
G1 X34.7879
G2 X34.7756 Y25.0627 I0.0024 J0.0167
G3 X34.7739 Y25.0656 I-0.1093 J-0.0607
G2 X34.7553 Y25.1345 I0.1158 J0.0683
G3 Y25.1351 I-0.125 J0.0006
G1 Y26.9219
G3 X34.7552 Y26.9235 I-0.125 J0.0
G2 X34.7734 Y26.9908 I0.1277 J0.0016
G3 X34.7756 Y26.9945 I-0.1072 J0.0643
G2 X34.7881 Y27.0031 I0.015 J-0.0083
G1 X38.2431
G2 X38.255 Y26.995 I-0.0021 J-0.0159
G3 X38.2573 Y26.9909 I0.1096 J0.0602
G2 X38.2757 Y26.923 I-0.1114 J-0.0667
G3 Y26.9219 I0.125 J-0.0011
G1 Y25.8715
G0 Z1.5
G0 X31.6848 Y26.4215
G1 F10.0 Z0.0
G1 F30.0 Y25.8715 Z-0.55
G1 Y25.1351
G3 Y25.1325 I0.125 J0.0
G2 X31.6672 Y25.0673 I-0.1201 J-0.0025
G3 X31.6643 Y25.0624 I0.1066 J-0.0653
G2 X31.6524 Y25.0542 I-0.0141 J0.0078
G1 X28.1973
G2 X28.1847 Y25.0628 I0.0024 J0.017
G3 X28.1823 Y25.0669 I-0.1092 J-0.0609
G2 X28.1643 Y25.1331 I0.1056 J0.0643
G3 Y25.1351 I-0.125 J0.002
G1 Y26.9219
G3 Y26.9238 I-0.125 J0.0
G2 X28.1823 Y26.9903 I0.1242 J0.0019
G3 X28.1846 Y26.9942 I-0.1068 J0.0649
G2 X28.1976 Y27.0031 I0.0156 J-0.0087
G1 X31.6524
G2 X31.6641 Y26.9951 I-0.0021 J-0.0157
G3 X31.6666 Y26.9908 I0.1096 J0.0601
G2 X31.6848 Y26.9235 I-0.1094 J-0.0657
G3 Y26.9219 I0.125 J-0.0016
G1 Y25.8715
G0 Z1.5
G0 X24.9747 Y25.7015
G1 F10.0 Z0.0
G1 F30.0 Y25.7743 Z-0.0729
G3 X24.9382 Y25.8626 Z-0.1709 I-0.125 J0.0
G2 X24.9369 Y25.8659 Z-0.1745 I0.0033 J0.0033
G3 Y25.8665 Z-0.1751 I-0.125 J0.0004
G2 X24.9418 Y25.8715 Z-0.1829 I0.0051 J0.0
G2 X24.9456 Y25.8696 Z-0.1873 I-0.0002 J-0.0049
G3 X25.0459 Y25.8191 Z-0.3038 I0.1003 J0.0746
G1 X25.1619 Z-0.4198
G3 X25.2626 Y25.8701 Z-0.5369 I0.0 J0.125
G2 X25.2655 Y25.8715 Z-0.5403 I0.0028 J-0.0021
G3 X25.2662 Z-0.541 I0.0006 J0.125
G2 X25.2712 Y25.8665 Z-0.5489 I0.0 J-0.005
G3 Y25.8654 Z-0.55 I0.125 J-0.0002
G2 X25.2705 Y25.8635 I-0.0027 J0.0
G3 X25.2334 Y25.7747 I0.0879 J-0.0888
G1 Y25.1136
G3 X25.2693 Y25.0259 I0.125 J0.0
G2 X25.2712 Y25.0215 I-0.0049 J-0.0048
G2 X25.2662 Y25.0167 I-0.0051 J0.0003
G2 X25.2622 Y25.0187 I0.0001 J0.0051
G3 X25.1619 Y25.0691 I-0.1003 J-0.0746
G1 X25.0459
G3 X24.9453 Y25.0183 I0.0 J-0.125
G2 X24.942 Y25.0167 I-0.0033 J0.0024
G3 X24.9414 I-0.0003 J-0.125
G2 X24.9369 Y25.0212 I0.0 J0.0045
G3 Y25.0224 I-0.125 J0.0007
G2 X24.9382 Y25.0256 I0.0044 J0.0
G3 X24.9747 Y25.1139 I-0.0884 J0.0883
G1 Y25.7743
G3 X24.9382 Y25.8626 I-0.125 J0.0
G2 X24.9369 Y25.8659 I0.0033 J0.0033
G3 Y25.8665 I-0.125 J0.0004
G2 X24.9418 Y25.8715 I0.0051 J0.0
G2 X24.9456 Y25.8696 I-0.0002 J-0.0049
G3 X25.0459 Y25.8191 I0.1003 J0.0746
G1 X25.1619
G3 X25.2626 Y25.8701 I0.0 J0.125
G2 X25.2655 Y25.8715 I0.0028 J-0.0021
G3 X25.2662 I0.0006 J0.125
G2 X25.2712 Y25.8665 I0.0 J-0.005
G3 Y25.8654 I0.125 J-0.0002
G0 Z1.5
G0 X25.2334 Y28.5857
G1 F10.0 Z0.0
G1 F30.0 Y28.1448 Z-0.4409
G3 X25.2693 Y28.0572 Z-0.538 I0.125 J0.0
G2 X25.2712 Y28.0526 Z-0.5431 I-0.005 J-0.0049
G2 X25.2668 Y28.0483 Z-0.55 I-0.0045 J0.0002
G1 X25.2667
G3 X25.2662 I-0.0007 J-0.125
G2 X25.2623 Y28.0502 I0.0 J0.0049
G3 X25.1622 Y28.1004 I-0.1001 J-0.0749
G1 X25.0459
G3 X24.9453 Y28.0495 I0.0 J-0.125
G2 X24.9428 Y28.0483 I-0.0024 J0.0018
G3 X24.9414 I-0.0011 J-0.125
G2 X24.9369 Y28.0528 I0.0 J0.0045
G3 Y28.0537 I-0.125 J0.0004
G2 X24.9382 Y28.0568 I0.0044 J0.0
G3 X24.9747 Y28.1451 I-0.0884 J0.0883
G1 Y28.8059
G3 X24.9382 Y28.8942 I-0.125 J0.0
G2 X24.9369 Y28.8974 I0.0032 J0.0032
G3 Y28.8983 I-0.125 J0.0005
G2 X24.9414 Y28.9028 I0.0045 J0.0
G3 X24.9416 I0.0004 J0.125
G2 X24.9456 Y28.9008 I0.0 J-0.0049
G3 X25.0459 Y28.8504 I0.1003 J0.0746
G1 X25.1619
G3 X25.2626 Y28.9014 I0.0 J0.125
G2 X25.2655 Y28.9028 I0.0028 J-0.0021
G3 X25.2662 I0.0006 J0.125
G2 X25.2712 Y28.8977 I0.0 J-0.005
G3 Y28.897 I0.125 J0.0002
G2 X25.2705 Y28.8951 I-0.0026 J0.0
G3 X25.2334 Y28.8063 I0.0879 J-0.0889
G1 Y28.1448
G3 X25.2693 Y28.0572 I0.125 J0.0
G2 X25.2712 Y28.0526 I-0.005 J-0.0049
G2 X25.2668 Y28.0483 I-0.0045 J0.0002
G0 Z1.5
G0 X25.2334 Y33.5548
G1 F10.0 Z0.0
G1 F30.0 Y33.1146 Z-0.4403
G3 X25.2693 Y33.0269 Z-0.5374 I0.125 J0.0
G2 X25.2712 Y33.0225 Z-0.5423 I-0.0049 J-0.0048
G2 X25.2662 Y33.0177 Z-0.55 I-0.0051 J0.0003
G2 X25.2622 Y33.0198 I0.0001 J0.0051
G3 X25.1619 Y33.0701 I-0.1003 J-0.0746
G1 X25.0459
G3 X24.9453 Y33.0194 I0.0 J-0.125
G2 X24.942 Y33.0177 I-0.0033 J0.0024
G3 X24.9414 I-0.0003 J-0.125
G2 X24.9369 Y33.0222 I0.0 J0.0045
G3 Y33.0235 I-0.125 J0.0007
G2 X24.9382 Y33.0266 I0.0044 J0.0
G3 X24.9747 Y33.1149 I-0.0884 J0.0883
G1 Y33.7753
G3 X24.9382 Y33.8636 I-0.125 J0.0
G2 X24.9369 Y33.8669 I0.0033 J0.0033
G3 Y33.8675 I-0.125 J0.0005
G2 X24.9418 Y33.8726 I0.0051 J0.0
G2 X24.9456 Y33.8706 I-0.0002 J-0.0049
G3 X25.0459 Y33.8201 I0.1003 J0.0745
G1 X25.1619
G3 X25.2626 Y33.8711 I0.0 J0.125
G2 X25.2655 Y33.8726 I0.0028 J-0.0021
G3 X25.2662 I0.0006 J0.125
G2 X25.2712 Y33.8675 I0.0 J-0.005
G3 Y33.8664 I0.125 J-0.0002
G2 X25.2705 Y33.8645 I-0.0027 J0.0
G3 X25.2334 Y33.7757 I0.0879 J-0.0888
G1 Y33.1146
G3 X25.2693 Y33.0269 I0.125 J0.0
G2 X25.2712 Y33.0225 I-0.0049 J-0.0048
G2 X25.2662 Y33.0177 I-0.0051 J0.0003
G0 Z1.5
G0 X25.2334 Y36.5867
G1 F10.0 Z0.0
G1 F30.0 Y36.1458 Z-0.4409
G3 X25.2692 Y36.0582 Z-0.538 I0.125 J0.0
G2 X25.2712 Y36.0536 Z-0.5431 I-0.005 J-0.0049
G2 X25.2667 Y36.0493 Z-0.55 I-0.0045 J0.0002
G3 X25.2662 I-0.0007 J-0.125
G2 X25.2623 Y36.0512 I0.0 J0.0048
G3 X25.1622 Y36.1014 I-0.1001 J-0.0749
G1 X25.0459
G3 X24.9453 Y36.0505 I0.0 J-0.125
G2 X24.9428 Y36.0493 I-0.0024 J0.0018
G3 X24.9414 I-0.0011 J-0.125
G2 X24.9369 Y36.0538 I0.0 J0.0045
G3 Y36.0547 I-0.125 J0.0004
G2 X24.9382 Y36.0578 I0.0044 J0.0
G3 X24.9747 Y36.1462 I-0.0884 J0.0883
G1 Y36.8069
G3 X24.9382 Y36.8952 I-0.125 J0.0
G2 X24.9369 Y36.8985 I0.0032 J0.0032
G3 Y36.8993 I-0.125 J0.0005
G2 X24.9414 Y36.9038 I0.0045 J0.0
G3 X24.9416 I0.0004 J0.125
G2 X24.9456 Y36.9018 I0.0 J-0.005
G3 X25.0459 Y36.8514 I0.1003 J0.0746
G1 X25.1619
G3 X25.2626 Y36.9024 I0.0 J0.125
G2 X25.2655 Y36.9038 I0.0028 J-0.0021
G3 X25.2662 I0.0006 J0.125
G2 X25.2712 Y36.8988 I0.0 J-0.0051
G3 Y36.898 I0.125 J0.0002
G2 X25.2705 Y36.8961 I-0.0026 J0.0
G3 X25.2334 Y36.8073 I0.0879 J-0.0888
G1 Y36.1458
G3 X25.2692 Y36.0582 I0.125 J0.0
G2 X25.2712 Y36.0536 I-0.005 J-0.0049
G2 X25.2667 Y36.0493 I-0.0045 J0.0002
G0 Z1.5
G0 X22.1036 Y38.43
G1 F10.0 Z0.0
G2 F30.0 X22.2292 Y38.4785 Z-0.1377 I0.1255 J-0.1383
G1 X22.2293 Z-0.1378
G2 X22.416 Y38.2917 Z-0.4312 I0.0 J-0.1868
G1 Y38.2916
G2 X22.3795 Y38.1807 Z-0.55 I-0.1868 J0.0
G2 X22.2293 Y38.1049 I-0.1503 J0.1109
G1 X22.2292
G2 X22.0424 Y38.2916 I0.0 J0.1868
G1 Y38.2917
G2 X22.2292 Y38.4785 I0.1867 J0.0
G1 X22.2293
G2 X22.416 Y38.2917 I0.0 J-0.1868
G1 Y38.2916
G2 X22.3795 Y38.1807 I-0.1868 J0.0
G0 Z1.5
G0 X19.8483 Y36.7303
G1 F10.0 Z0.0
G1 F30.0 Y36.8069 Z-0.0767
G3 X19.8118 Y36.8952 Z-0.1747 I-0.125 J0.0
G2 X19.8105 Y36.8985 Z-0.1783 I0.0032 J0.0032
G3 Y36.8993 Z-0.1792 I-0.125 J0.0005
G2 X19.815 Y36.9038 Z-0.1862 I0.0045 J0.0
G3 X19.8152 Z-0.1865 I0.0004 J0.125
G2 X19.8192 Y36.9018 Z-0.1911 I0.0 J-0.005
G3 X19.9195 Y36.8514 Z-0.3075 I0.1003 J0.0746
G1 X20.0355 Z-0.4235
G3 X20.1362 Y36.9024 Z-0.5407 I0.0 J0.125
G2 X20.1391 Y36.9038 Z-0.544 I0.0028 J-0.0021
G3 X20.1398 Z-0.5447 I0.0006 J0.125
G2 X20.1442 Y36.9013 Z-0.55 I0.0 J-0.0051
G2 X20.1449 Y36.8988 I-0.0044 J-0.0025
G3 Y36.898 I0.125 J0.0002
G2 X20.1441 Y36.8961 I-0.0026 J0.0
G3 X20.107 Y36.8073 I0.0879 J-0.0888
G1 Y36.1458
G3 X20.1429 Y36.0582 I0.125 J0.0
G2 X20.1449 Y36.0536 I-0.005 J-0.0049
G2 X20.1403 Y36.0493 I-0.0045 J0.0002
G3 X20.1398 I-0.0007 J-0.125
G2 X20.136 Y36.0512 I0.0 J0.0048
G3 X20.0358 Y36.1014 I-0.1001 J-0.0749
G1 X19.9195
G3 X19.8189 Y36.0505 I0.0 J-0.125
G2 X19.8164 Y36.0493 I-0.0024 J0.0018
G3 X19.815 I-0.0011 J-0.125
G2 X19.8105 Y36.0538 I0.0 J0.0045
G3 Y36.0547 I-0.125 J0.0004
G2 X19.8118 Y36.0578 I0.0044 J0.0
G3 X19.8483 Y36.1462 I-0.0884 J0.0883
G1 Y36.8069
G3 X19.8118 Y36.8952 I-0.125 J0.0
G2 X19.8105 Y36.8985 I0.0032 J0.0032
G3 Y36.8993 I-0.125 J0.0005
G2 X19.815 Y36.9038 I0.0045 J0.0
G3 X19.8152 I0.0004 J0.125
G2 X19.8192 Y36.9018 I0.0 J-0.005
G3 X19.9195 Y36.8514 I0.1003 J0.0746
G1 X20.0355
G3 X20.1362 Y36.9024 I0.0 J0.125
G2 X20.1391 Y36.9038 I0.0028 J-0.0021
G3 X20.1398 I0.0006 J0.125
G2 X20.1442 Y36.9013 I0.0 J-0.0051
G0 Z1.5
G0 X19.8483 Y33.6927
G1 F10.0 Z0.0
G1 F30.0 Y33.7753 Z-0.0826
G3 X19.8118 Y33.8636 Z-0.1806 I-0.125 J0.0
G2 X19.8105 Y33.8669 Z-0.1843 I0.0033 J0.0033
G3 Y33.8675 Z-0.1849 I-0.125 J0.0005
G2 X19.8154 Y33.8726 Z-0.1927 I0.0051 J0.0
G2 X19.8192 Y33.8706 Z-0.1971 I-0.0002 J-0.0049
G3 X19.9195 Y33.8201 Z-0.3136 I0.1003 J0.0746
G1 X20.0355 Z-0.4295
G3 X20.1362 Y33.8711 Z-0.5467 I0.0 J0.125
G2 X20.1391 Y33.8726 Z-0.55 I0.0028 J-0.0021
G3 X20.1398 I0.0006 J0.125
G2 X20.1449 Y33.8675 I0.0 J-0.005
G3 Y33.8664 I0.125 J-0.0002
G2 X20.1441 Y33.8645 I-0.0027 J0.0
G3 X20.107 Y33.7757 I0.0879 J-0.0888
G1 Y33.1146
G3 X20.1429 Y33.0269 I0.125 J0.0
G2 X20.1449 Y33.0225 I-0.0048 J-0.0048
G2 X20.1398 Y33.0177 I-0.0051 J0.0003
G2 X20.1358 Y33.0198 I0.0001 J0.0051
G3 X20.0355 Y33.0701 I-0.1003 J-0.0746
G1 X19.9195
G3 X19.8189 Y33.0194 I0.0 J-0.125
G2 X19.8157 Y33.0177 I-0.0033 J0.0024
G3 X19.815 I-0.0003 J-0.125
G2 X19.8105 Y33.0222 I0.0 J0.0045
G3 Y33.0235 I-0.125 J0.0007
G2 X19.8118 Y33.0266 I0.0044 J0.0
G3 X19.8483 Y33.1149 I-0.0884 J0.0883
G1 Y33.7753
G3 X19.8118 Y33.8636 I-0.125 J0.0
G2 X19.8105 Y33.8669 I0.0033 J0.0033
G3 Y33.8675 I-0.125 J0.0005
G2 X19.8154 Y33.8726 I0.0051 J0.0
G2 X19.8192 Y33.8706 I-0.0002 J-0.0049
G3 X19.9195 Y33.8201 I0.1003 J0.0746
G1 X20.0355
G3 X20.1362 Y33.8711 I0.0 J0.125
G2 X20.1391 Y33.8726 I0.0028 J-0.0021
G0 Z1.5
G0 X19.8483 Y28.7232
G1 F10.0 Z0.0
G1 F30.0 Y28.8059 Z-0.0827
G3 X19.8118 Y28.8942 Z-0.1808 I-0.125 J0.0
G2 X19.8105 Y28.8974 Z-0.1844 I0.0032 J0.0032
G3 Y28.8983 Z-0.1852 I-0.125 J0.0005
G2 X19.815 Y28.9028 Z-0.1923 I0.0045 J0.0
G3 X19.8152 Z-0.1925 I0.0004 J0.125
G2 X19.8192 Y28.9008 Z-0.1971 I0.0 J-0.0049
G3 X19.9195 Y28.8504 Z-0.3136 I0.1003 J0.0746
G1 X20.0355 Z-0.4295
G3 X20.1362 Y28.9014 Z-0.5467 I0.0 J0.125
G2 X20.1391 Y28.9028 Z-0.55 I0.0028 J-0.0021
G3 X20.1398 I0.0006 J0.125
G2 X20.1449 Y28.8977 I0.0 J-0.005
G3 Y28.897 I0.125 J0.0002
G2 X20.1441 Y28.8951 I-0.0026 J0.0
G3 X20.107 Y28.8063 I0.0879 J-0.0889
G1 Y28.1448
G3 X20.1429 Y28.0572 I0.125 J0.0
G2 X20.1449 Y28.0526 I-0.005 J-0.0049
G2 X20.1403 Y28.0483 I-0.0045 J0.0002
G3 X20.1398 I-0.0007 J-0.125
G2 X20.1359 Y28.0502 I0.0 J0.0049
G3 X20.0358 Y28.1004 I-0.1001 J-0.0749
G1 X19.9195
G3 X19.8189 Y28.0495 I0.0 J-0.125
G2 X19.8164 Y28.0483 I-0.0024 J0.0018
G3 X19.815 I-0.0011 J-0.125
G2 X19.8105 Y28.0528 I0.0 J0.0045
G3 Y28.0537 I-0.125 J0.0004
G2 X19.8118 Y28.0568 I0.0044 J0.0
G3 X19.8483 Y28.1451 I-0.0884 J0.0883
G1 Y28.8059
G3 X19.8118 Y28.8942 I-0.125 J0.0
G2 X19.8105 Y28.8974 I0.0032 J0.0032
G3 Y28.8983 I-0.125 J0.0005
G2 X19.815 Y28.9028 I0.0045 J0.0
G3 X19.8152 I0.0004 J0.125
G2 X19.8192 Y28.9008 I0.0 J-0.0049
G3 X19.9195 Y28.8504 I0.1003 J0.0746
G1 X20.0355
G3 X20.1362 Y28.9014 I0.0 J0.125
G2 X20.1391 Y28.9028 I0.0028 J-0.0021
G0 Z1.5
G0 X19.8483 Y25.6917
G1 F10.0 Z0.0
G1 F30.0 Y25.7743 Z-0.0826
G3 X19.8119 Y25.8626 Z-0.1806 I-0.125 J0.0
G2 X19.8105 Y25.8659 Z-0.1843 I0.0033 J0.0033
G3 Y25.8665 Z-0.1849 I-0.125 J0.0004
G2 X19.8154 Y25.8715 Z-0.1927 I0.0051 J0.0
G2 X19.8192 Y25.8696 Z-0.1971 I-0.0002 J-0.0049
G3 X19.9195 Y25.8191 Z-0.3136 I0.1003 J0.0746
G1 X20.0355 Z-0.4295
G3 X20.1362 Y25.8701 Z-0.5467 I0.0 J0.125
G2 X20.1391 Y25.8715 Z-0.55 I0.0028 J-0.0021
G3 X20.1398 I0.0006 J0.125
G2 X20.1449 Y25.8665 I0.0 J-0.005
G3 Y25.8654 I0.125 J-0.0002
G2 X20.1441 Y25.8635 I-0.0027 J0.0
G3 X20.107 Y25.7747 I0.0879 J-0.0888
G1 Y25.1136
G3 X20.1429 Y25.0259 I0.125 J0.0
G2 X20.1449 Y25.0215 I-0.0049 J-0.0048
G2 X20.1398 Y25.0167 I-0.0051 J0.0003
G2 X20.1358 Y25.0187 I0.0001 J0.0051
G3 X20.0355 Y25.0691 I-0.1003 J-0.0746
G1 X19.9195
G3 X19.8189 Y25.0183 I0.0 J-0.125
G2 X19.8157 Y25.0167 I-0.0033 J0.0024
G3 X19.815 I-0.0003 J-0.125
G2 X19.8105 Y25.0212 I0.0 J0.0045
G3 Y25.0225 I-0.125 J0.0007
G2 X19.8118 Y25.0256 I0.0044 J0.0
G3 X19.8483 Y25.1139 I-0.0884 J0.0883
G1 Y25.7743
G3 X19.8119 Y25.8626 I-0.125 J0.0
G2 X19.8105 Y25.8659 I0.0033 J0.0033
G3 Y25.8665 I-0.125 J0.0004
G2 X19.8154 Y25.8715 I0.0051 J0.0
G2 X19.8192 Y25.8696 I-0.0002 J-0.0049
G3 X19.9195 Y25.8191 I0.1003 J0.0746
G1 X20.0355
G3 X20.1362 Y25.8701 I0.0 J0.125
G2 X20.1391 Y25.8715 I0.0028 J-0.0021
G0 Z1.5
G0 X14.7223 Y25.7017
G1 F10.0 Z0.0
G1 F30.0 Y25.7743 Z-0.0726
G3 X14.6858 Y25.8626 Z-0.1706 I-0.125 J0.0
G2 X14.6845 Y25.8659 Z-0.1743 I0.0033 J0.0033
G3 Y25.867 Z-0.1754 I-0.125 J0.0004
G2 X14.689 Y25.8715 Z-0.1825 I0.0045 J0.0
G3 X14.6892 Z-0.1828 I0.0003 J0.125
G2 X14.6932 Y25.8696 Z-0.1873 I0.0 J-0.0049
G3 X14.7935 Y25.8191 Z-0.3038 I0.1003 J0.0746
G1 X14.9095 Z-0.4198
G3 X15.0102 Y25.8701 Z-0.5369 I0.0 J0.125
G2 X15.0131 Y25.8715 Z-0.5403 I0.0029 J-0.0022
G3 X15.0138 Z-0.541 I0.0005 J0.125
G2 X15.0188 Y25.8665 Z-0.5489 I0.0 J-0.0051
G3 Y25.8654 Z-0.55 I0.125 J-0.0001
G2 X15.0181 Y25.8635 I-0.0026 J0.0
G3 X14.981 Y25.7747 I0.0879 J-0.0889
G1 Y25.1136
G3 X15.0169 Y25.0259 I0.125 J0.0
G2 X15.0188 Y25.0215 I-0.0049 J-0.0049
G2 X15.0138 Y25.0167 I-0.0051 J0.0003
G2 X15.0098 Y25.0187 I0.0 J0.005
G3 X14.9095 Y25.0691 I-0.1003 J-0.0746
G1 X14.7935
G3 X14.6929 Y25.0183 I0.0 J-0.125
G2 X14.6896 Y25.0167 I-0.0033 J0.0024
G3 X14.6889 I-0.0003 J-0.125
G2 X14.6845 Y25.0212 I0.0 J0.0045
G3 Y25.0225 I-0.125 J0.0007
G2 X14.6857 Y25.0256 I0.0044 J0.0
G3 X14.7223 Y25.1139 I-0.0884 J0.0883
G1 Y25.7743
G3 X14.6858 Y25.8626 I-0.125 J0.0
G2 X14.6845 Y25.8659 I0.0033 J0.0033
G3 Y25.867 I-0.125 J0.0004
G2 X14.689 Y25.8715 I0.0045 J0.0
G3 X14.6892 I0.0003 J0.125
G2 X14.6932 Y25.8696 I0.0 J-0.0049
G3 X14.7935 Y25.8191 I0.1003 J0.0746
G1 X14.9095
G3 X15.0102 Y25.8701 I0.0 J0.125
G2 X15.0131 Y25.8715 I0.0029 J-0.0022
G3 X15.0138 I0.0005 J0.125
G2 X15.0188 Y25.8665 I0.0 J-0.0051
G3 Y25.8654 I0.125 J-0.0001
G0 Z1.5
G0 X14.981 Y28.5857
G1 F10.0 Z0.0
G1 F30.0 Y28.1448 Z-0.4409
G3 X15.0168 Y28.0572 Z-0.538 I0.125 J0.0
G2 X15.0188 Y28.0526 Z-0.5431 I-0.005 J-0.0049
G2 X15.0143 Y28.0483 Z-0.55 I-0.0045 J0.0002
G3 X15.0137 I-0.0007 J-0.125
G2 X15.0099 Y28.0502 I0.0 J0.0047
G3 X14.9098 Y28.1004 I-0.1001 J-0.0748
G1 X14.7935
G3 X14.6928 Y28.0494 I0.0 J-0.125
G2 X14.6905 Y28.0483 I-0.0023 J0.0017
G3 X14.6889 I-0.0011 J-0.125
G2 X14.6845 Y28.0527 I0.0 J0.0045
G3 Y28.0537 I-0.125 J0.0004
G2 X14.6857 Y28.0568 I0.0044 J0.0
G3 X14.7223 Y28.1451 I-0.0884 J0.0883
G1 Y28.8059
G3 X14.6858 Y28.8942 I-0.125 J0.0
G2 X14.6845 Y28.8974 I0.0032 J0.0032
G3 Y28.8983 I-0.125 J0.0005
G2 X14.689 Y28.9028 I0.0045 J0.0
G3 X14.6892 I0.0003 J0.125
G2 X14.6932 Y28.9008 I0.0 J-0.0049
G3 X14.7935 Y28.8504 I0.1003 J0.0746
G1 X14.9095
G3 X15.0102 Y28.9013 I0.0 J0.125
G2 X15.0131 Y28.9028 I0.0029 J-0.0022
G3 X15.0138 I0.0005 J0.125
G2 X15.0188 Y28.8977 I0.0 J-0.0051
G3 Y28.897 I0.125 J0.0002
G2 X15.0181 Y28.8951 I-0.0025 J0.0
G3 X14.981 Y28.8063 I0.0879 J-0.0889
G1 Y28.1448
G3 X15.0168 Y28.0572 I0.125 J0.0
G2 X15.0188 Y28.0526 I-0.005 J-0.0049
G2 X15.0143 Y28.0483 I-0.0045 J0.0002
G0 Z1.5
G0 X10.8546 Y28.5926
G1 F10.0 Z0.0
G1 F30.0 Y28.1448 Z-0.4478
G3 X10.8904 Y28.0572 Z-0.5449 I0.125 J0.0
G2 X10.8925 Y28.0526 Z-0.55 I-0.005 J-0.0049
G2 X10.8879 Y28.0483 I-0.0045 J0.0002
G3 X10.8874 I-0.0007 J-0.125
G2 X10.8836 Y28.0502 I0.0 J0.0047
G3 X10.7834 Y28.1004 I-0.1001 J-0.0748
G1 X10.6671
G3 X10.5664 Y28.0494 I0.0 J-0.125
G2 X10.5641 Y28.0483 I-0.0023 J0.0017
G3 X10.5626 I-0.0012 J-0.125
G2 X10.5581 Y28.0527 I0.0 J0.0045
G3 Y28.0537 I-0.125 J0.0004
G2 X10.5594 Y28.0568 I0.0044 J0.0
G3 X10.5959 Y28.1451 I-0.0884 J0.0883
G1 Y28.8059
G3 X10.5594 Y28.8942 I-0.125 J0.0
G2 X10.5581 Y28.8974 I0.0032 J0.0032
G3 Y28.8983 I-0.125 J0.0005
G2 X10.5626 Y28.9028 I0.0045 J0.0
G3 X10.5628 I0.0003 J0.125
G2 X10.5668 Y28.9008 I0.0 J-0.0049
G3 X10.6671 Y28.8504 I0.1003 J0.0746
G1 X10.7831
G3 X10.8838 Y28.9013 I0.0 J0.125
G2 X10.8867 Y28.9028 I0.0029 J-0.0022
G3 X10.8874 I0.0005 J0.125
G2 X10.8925 Y28.8977 I0.0 J-0.0051
G3 Y28.897 I0.125 J0.0002
G2 X10.8917 Y28.8951 I-0.0025 J0.0
G3 X10.8546 Y28.8063 I0.0879 J-0.0889
G1 Y28.1448
G3 X10.8904 Y28.0572 I0.125 J0.0
G2 X10.8925 Y28.0526 I-0.005 J-0.0049
G0 Z1.5
G0 X10.5959 Y25.6927
G1 F10.0 Z0.0
G1 F30.0 Y25.7743 Z-0.0817
G3 X10.5594 Y25.8626 Z-0.1797 I-0.125 J0.0
G2 X10.5581 Y25.8659 Z-0.1833 I0.0033 J0.0033
G3 Y25.867 Z-0.1844 I-0.125 J0.0004
G2 X10.5626 Y25.8715 Z-0.1916 I0.0045 J0.0
G3 X10.5628 Z-0.1918 I0.0003 J0.125
G2 X10.5668 Y25.8696 Z-0.1964 I0.0 J-0.0049
G3 X10.6671 Y25.8191 Z-0.3128 I0.1003 J0.0746
G1 X10.7831 Z-0.4288
G3 X10.8838 Y25.8701 Z-0.5459 I0.0 J0.125
G2 X10.8867 Y25.8715 Z-0.5493 I0.0029 J-0.0022
G3 X10.8874 Z-0.55 I0.0005 J0.125
G2 X10.8925 Y25.8665 I0.0 J-0.0051
G3 Y25.8654 I0.125 J-0.0001
G2 X10.8917 Y25.8635 I-0.0026 J0.0
G3 X10.8546 Y25.7747 I0.0879 J-0.0889
G1 Y25.1136
G3 X10.8905 Y25.0259 I0.125 J0.0
G2 X10.8924 Y25.0215 I-0.0049 J-0.0049
G2 X10.8874 Y25.0167 I-0.0051 J0.0003
G2 X10.8834 Y25.0187 I0.0 J0.005
G3 X10.7831 Y25.0691 I-0.1003 J-0.0746
G1 X10.6671
G3 X10.5665 Y25.0183 I0.0 J-0.125
G2 X10.5632 Y25.0167 I-0.0033 J0.0024
G3 X10.5626 I-0.0003 J-0.125
G2 X10.5581 Y25.0212 I0.0 J0.0045
G3 Y25.0224 I-0.125 J0.0007
G2 X10.5594 Y25.0256 I0.0044 J0.0
G3 X10.5959 Y25.1139 I-0.0884 J0.0883
G1 Y25.7743
G3 X10.5594 Y25.8626 I-0.125 J0.0
G2 X10.5581 Y25.8659 I0.0033 J0.0033
G3 Y25.867 I-0.125 J0.0004
G2 X10.5626 Y25.8715 I0.0045 J0.0
G3 X10.5628 I0.0003 J0.125
G2 X10.5668 Y25.8696 I0.0 J-0.0049
G3 X10.6671 Y25.8191 I0.1003 J0.0746
G1 X10.7831
G3 X10.8838 Y25.8701 I0.0 J0.125
G2 X10.8867 Y25.8715 I0.0029 J-0.0022
G3 X10.8874 I0.0005 J0.125
G0 Z1.5
G0 X6.4695 Y25.7017
G1 F10.0 Z0.0
G1 F30.0 Y25.7743 Z-0.0726
G3 X6.4331 Y25.8626 Z-0.1706 I-0.125 J0.0
G2 X6.4317 Y25.8659 Z-0.1743 I0.0033 J0.0033
G3 Y25.867 Z-0.1754 I-0.125 J0.0004
G2 X6.4362 Y25.8715 Z-0.1825 I0.0045 J0.0
G3 X6.4365 Z-0.1828 I0.0003 J0.125
G2 X6.4404 Y25.8696 Z-0.1873 I0.0 J-0.0049
G3 X6.5407 Y25.8191 Z-0.3038 I0.1003 J0.0746
G1 X6.6567 Z-0.4198
G3 X6.7574 Y25.8701 Z-0.5369 I0.0 J0.125
G2 X6.7604 Y25.8715 Z-0.5403 I0.0029 J-0.0022
G3 X6.761 Z-0.541 I0.0005 J0.125
G2 X6.7661 Y25.8665 Z-0.5489 I0.0 J-0.0051
G3 Y25.8654 Z-0.55 I0.125 J-0.0001
G2 X6.7653 Y25.8635 I-0.0026 J0.0
G3 X6.7282 Y25.7747 I0.0879 J-0.0889
G1 Y25.1136
G3 X6.7641 Y25.0259 I0.125 J0.0
G2 X6.7661 Y25.0215 I-0.0049 J-0.0049
G2 X6.761 Y25.0167 I-0.0051 J0.0003
G2 X6.757 Y25.0187 I0.0 J0.005
G3 X6.6567 Y25.0691 I-0.1003 J-0.0746
G1 X6.5407
G3 X6.4402 Y25.0183 I0.0 J-0.125
G2 X6.4368 Y25.0167 I-0.0033 J0.0024
G3 X6.4362 I-0.0003 J-0.125
G2 X6.4317 Y25.0212 I0.0 J0.0045
G3 Y25.0224 I-0.125 J0.0007
G2 X6.433 Y25.0256 I0.0044 J0.0
G3 X6.4695 Y25.1139 I-0.0884 J0.0883
G1 Y25.7743
G3 X6.4331 Y25.8626 I-0.125 J0.0
G2 X6.4317 Y25.8659 I0.0033 J0.0033
G3 Y25.867 I-0.125 J0.0004
G2 X6.4362 Y25.8715 I0.0045 J0.0
G3 X6.4365 I0.0003 J0.125
G2 X6.4404 Y25.8696 I0.0 J-0.0049
G3 X6.5407 Y25.8191 I0.1003 J0.0746
G1 X6.6567
G3 X6.7574 Y25.8701 I0.0 J0.125
G2 X6.7604 Y25.8715 I0.0029 J-0.0022
G3 X6.761 I0.0005 J0.125
G2 X6.7661 Y25.8665 I0.0 J-0.0051
G3 Y25.8654 I0.125 J-0.0001
G0 Z1.5
G0 X6.7282 Y28.5857
G1 F10.0 Z0.0
G1 F30.0 Y28.1448 Z-0.4409
G3 X6.7641 Y28.0572 Z-0.538 I0.125 J0.0
G2 X6.7661 Y28.0526 Z-0.5431 I-0.005 J-0.0049
G2 X6.7616 Y28.0483 Z-0.55 I-0.0045 J0.0002
G3 X6.761 I-0.0007 J-0.125
G2 X6.7572 Y28.0502 I0.0 J0.0047
G3 X6.657 Y28.1004 I-0.1001 J-0.0748
G1 X6.5407
G3 X6.44 Y28.0494 I0.0 J-0.125
G2 X6.4377 Y28.0483 I-0.0023 J0.0017
G3 X6.4362 I-0.0011 J-0.125
G2 X6.4317 Y28.0527 I0.0 J0.0045
G3 Y28.0537 I-0.125 J0.0004
G2 X6.433 Y28.0568 I0.0044 J0.0
G3 X6.4695 Y28.1451 I-0.0884 J0.0883
G1 Y28.8059
G3 X6.433 Y28.8942 I-0.125 J0.0
G2 X6.4317 Y28.8974 I0.0032 J0.0032
G3 Y28.8983 I-0.125 J0.0005
G2 X6.4362 Y28.9028 I0.0045 J0.0
G3 X6.4364 I0.0003 J0.125
G2 X6.4404 Y28.9008 I0.0 J-0.0049
G3 X6.5407 Y28.8504 I0.1003 J0.0746
G1 X6.6567
G3 X6.7574 Y28.9013 I0.0 J0.125
G2 X6.7604 Y28.9028 I0.0029 J-0.0022
G3 X6.761 I0.0005 J0.125
G2 X6.7661 Y28.8977 I0.0 J-0.0051
G3 Y28.897 I0.125 J0.0002
G2 X6.7653 Y28.8951 I-0.0025 J0.0
G3 X6.7282 Y28.8063 I0.0879 J-0.0889
G1 Y28.1448
G3 X6.7641 Y28.0572 I0.125 J0.0
G2 X6.7661 Y28.0526 I-0.005 J-0.0049
G2 X6.7616 Y28.0483 I-0.0045 J0.0002
G0 Z1.5
G0 X2.6018 Y28.5926
G1 F10.0 Z0.0
G1 F30.0 Y28.1448 Z-0.4478
G3 X2.6377 Y28.0572 Z-0.5449 I0.125 J0.0
G2 X2.6397 Y28.0526 Z-0.55 I-0.005 J-0.0049
G2 X2.6352 Y28.0483 I-0.0045 J0.0002
G3 X2.6346 I-0.0007 J-0.125
G2 X2.6308 Y28.0502 I0.0 J0.0047
G3 X2.5307 Y28.1004 I-0.1001 J-0.0748
G1 X2.4143
G3 X2.3137 Y28.0494 I0.0 J-0.125
G2 X2.3113 Y28.0483 I-0.0023 J0.0017
G3 X2.3098 I-0.0011 J-0.125
G2 X2.3053 Y28.0527 I0.0 J0.0045
G3 Y28.0537 I-0.125 J0.0004
G2 X2.3066 Y28.0568 I0.0044 J0.0
G3 X2.3432 Y28.1451 I-0.0884 J0.0883
G1 Y28.8059
G3 X2.3067 Y28.8942 I-0.125 J0.0
G2 X2.3053 Y28.8974 I0.0032 J0.0032
G3 Y28.8983 I-0.125 J0.0005
G2 X2.3098 Y28.9028 I0.0045 J0.0
G3 X2.3101 I0.0003 J0.125
G2 X2.314 Y28.9008 I0.0 J-0.0049
G3 X2.4143 Y28.8504 I0.1003 J0.0746
G1 X2.5303
G3 X2.631 Y28.9013 I0.0 J0.125
G2 X2.634 Y28.9028 I0.0029 J-0.0022
G3 X2.6346 I0.0005 J0.125
G2 X2.6397 Y28.8977 I0.0 J-0.0051
G3 Y28.897 I0.125 J0.0002
G2 X2.639 Y28.8951 I-0.0025 J0.0
G3 X2.6018 Y28.8063 I0.0879 J-0.0889
G1 Y28.1448
G3 X2.6377 Y28.0572 I0.125 J0.0
G2 X2.6397 Y28.0526 I-0.005 J-0.0049
G0 Z1.5
G0 X2.3432 Y25.6927
G1 F10.0 Z0.0
G1 F30.0 Y25.7743 Z-0.0817
G3 X2.3067 Y25.8626 Z-0.1797 I-0.125 J0.0
G2 X2.3053 Y25.8659 Z-0.1833 I0.0033 J0.0033
G3 Y25.867 Z-0.1844 I-0.125 J0.0004
G2 X2.3099 Y25.8715 Z-0.1916 I0.0045 J0.0
G3 X2.3101 Z-0.1918 I0.0003 J0.125
G2 X2.314 Y25.8696 Z-0.1964 I0.0 J-0.0049
G3 X2.4143 Y25.8191 Z-0.3128 I0.1003 J0.0746
G1 X2.5303 Z-0.4288
G3 X2.631 Y25.8701 Z-0.5459 I0.0 J0.125
G2 X2.634 Y25.8715 Z-0.5493 I0.0029 J-0.0022
G3 X2.6346 Z-0.55 I0.0005 J0.125
G2 X2.6397 Y25.8665 I0.0 J-0.0051
G3 Y25.8654 I0.125 J-0.0001
G2 X2.6389 Y25.8635 I-0.0026 J0.0
G3 X2.6018 Y25.7747 I0.0879 J-0.0888
G1 Y25.1136
G3 X2.6377 Y25.0259 I0.125 J0.0
G2 X2.6397 Y25.0215 I-0.0049 J-0.0049
G2 X2.6346 Y25.0167 I-0.0051 J0.0003
G2 X2.6306 Y25.0187 I0.0 J0.005
G3 X2.5303 Y25.0691 I-0.1003 J-0.0746
G1 X2.4143
G3 X2.3137 Y25.0183 I0.0 J-0.125
G2 X2.3105 Y25.0167 I-0.0032 J0.0023
G3 X2.3098 I-0.0004 J-0.125
G2 X2.3053 Y25.0212 I0.0 J0.0045
G3 Y25.0225 I-0.125 J0.0007
G2 X2.3066 Y25.0256 I0.0044 J0.0
G3 X2.3432 Y25.1139 I-0.0884 J0.0883
G1 Y25.7743
G3 X2.3067 Y25.8626 I-0.125 J0.0
G2 X2.3053 Y25.8659 I0.0033 J0.0033
G3 Y25.867 I-0.125 J0.0004
G2 X2.3099 Y25.8715 I0.0045 J0.0
G3 X2.3101 I0.0003 J0.125
G2 X2.314 Y25.8696 I0.0 J-0.0049
G3 X2.4143 Y25.8191 I0.1003 J0.0746
G1 X2.5303
G3 X2.631 Y25.8701 I0.0 J0.125
G2 X2.634 Y25.8715 I0.0029 J-0.0022
G3 X2.6346 I0.0005 J0.125
G0 Z1.5
G0 X2.6018 Y33.5548
G1 F10.0 Z0.0
G1 F30.0 Y33.1146 Z-0.4402
G3 X2.6377 Y33.0269 Z-0.5374 I0.125 J0.0
G2 X2.6397 Y33.0225 Z-0.5423 I-0.0049 J-0.0048
G2 X2.6346 Y33.0177 Z-0.55 I-0.0051 J0.0003
G2 X2.6306 Y33.0197 I0.0 J0.005
G3 X2.5303 Y33.0701 I-0.1003 J-0.0746
G1 X2.4143
G3 X2.3137 Y33.0193 I0.0 J-0.125
G2 X2.3105 Y33.0177 I-0.0032 J0.0023
G3 X2.3098 I-0.0004 J-0.125
G2 X2.3053 Y33.0222 I0.0 J0.0045
G3 Y33.0235 I-0.125 J0.0007
G2 X2.3066 Y33.0266 I0.0044 J0.0
G3 X2.3432 Y33.1149 I-0.0884 J0.0883
G1 Y33.7753
G3 X2.3067 Y33.8636 I-0.125 J0.0
G2 X2.3053 Y33.8669 I0.0033 J0.0033
G3 Y33.868 I-0.125 J0.0005
G2 X2.3099 Y33.8726 I0.0045 J0.0
G3 X2.3101 I0.0003 J0.125
G2 X2.314 Y33.8706 I0.0 J-0.0049
G3 X2.4143 Y33.8201 I0.1003 J0.0746
G1 X2.5303
G3 X2.631 Y33.8711 I0.0 J0.125
G2 X2.634 Y33.8726 I0.0029 J-0.0022
G3 X2.6346 I0.0005 J0.125
G2 X2.6397 Y33.8675 I0.0 J-0.0051
G3 Y33.8664 I0.125 J-0.0001
G2 X2.6389 Y33.8645 I-0.0026 J0.0
G3 X2.6018 Y33.7757 I0.0879 J-0.0888
G1 Y33.1146
G3 X2.6377 Y33.0269 I0.125 J0.0
G2 X2.6397 Y33.0225 I-0.0049 J-0.0048
G2 X2.6346 Y33.0177 I-0.0051 J0.0003
G0 Z1.5
G0 X2.6018 Y36.5867
G1 F10.0 Z0.0
G1 F30.0 Y36.1458 Z-0.4409
G3 X2.6377 Y36.0582 Z-0.538 I0.125 J0.0
G2 X2.6397 Y36.0536 Z-0.5431 I-0.005 J-0.005
G2 X2.6352 Y36.0493 Z-0.55 I-0.0045 J0.0002
G3 X2.6346 I-0.0007 J-0.125
G2 X2.6308 Y36.0512 I0.0 J0.0047
G3 X2.5307 Y36.1014 I-0.1001 J-0.0748
G1 X2.4143
G3 X2.3137 Y36.0505 I0.0 J-0.125
G2 X2.3113 Y36.0493 I-0.0023 J0.0017
G3 X2.3098 I-0.0011 J-0.125
G2 X2.3053 Y36.0538 I0.0 J0.0045
G3 Y36.0547 I-0.125 J0.0004
G2 X2.3066 Y36.0578 I0.0044 J0.0
G3 X2.3432 Y36.1462 I-0.0884 J0.0883
G1 Y36.8069
G3 X2.3067 Y36.8952 I-0.125 J0.0
G2 X2.3053 Y36.8985 I0.0032 J0.0032
G3 Y36.8993 I-0.125 J0.0005
G2 X2.3098 Y36.9038 I0.0045 J0.0
G3 X2.31 I0.0003 J0.125
G2 X2.314 Y36.9018 I0.0 J-0.005
G3 X2.4143 Y36.8514 I0.1003 J0.0746
G1 X2.5303
G3 X2.631 Y36.9023 I0.0 J0.125
G2 X2.634 Y36.9038 I0.0029 J-0.0022
G3 X2.6346 I0.0005 J0.125
G2 X2.6397 Y36.8988 I0.0 J-0.0051
G3 Y36.898 I0.125 J0.0002
G2 X2.6389 Y36.8961 I-0.0026 J0.0
G3 X2.6018 Y36.8073 I0.0879 J-0.0889
G1 Y36.1458
G3 X2.6377 Y36.0582 I0.125 J0.0
G2 X2.6397 Y36.0536 I-0.005 J-0.005
G2 X2.6352 Y36.0493 I-0.0045 J0.0002
G0 Z1.5
G0 X4.3603 Y38.4199
G1 F10.0 Z0.0
G2 F30.0 X4.4112 Y38.2917 Z-0.1413 I-0.1358 J-0.1282
G1 Y38.2916 Z-0.1414
G2 X4.2244 Y38.1049 Z-0.4348 I-0.1868 J0.0
G2 X4.1164 Y38.1392 Z-0.55 I0.0 J0.1868
G2 X4.0376 Y38.2916 I0.108 J0.1524
G1 Y38.2917
G2 X4.2244 Y38.4785 I0.1867 J0.0
G2 X4.4112 Y38.2917 I0.0 J-0.1867
G1 Y38.2916
G2 X4.2244 Y38.1049 I-0.1868 J0.0
G2 X4.1164 Y38.1392 I0.0 J0.1868
G0 Z1.5
G0 X6.4695 Y36.3616
G1 F10.0 Z0.0
G1 F30.0 Y36.8069 Z-0.4453
G3 X6.433 Y36.8952 Z-0.5433 I-0.125 J0.0
G2 X6.4317 Y36.8985 Z-0.5469 I0.0032 J0.0032
G3 Y36.8993 Z-0.5478 I-0.125 J0.0005
G2 X6.4322 Y36.9014 Z-0.55 I0.0045 J0.0
G2 X6.4362 Y36.9038 I0.004 J-0.0021
G3 X6.4364 I0.0003 J0.125
G2 X6.4404 Y36.9018 I0.0 J-0.005
G3 X6.5407 Y36.8514 I0.1003 J0.0746
G1 X6.6567
G3 X6.7574 Y36.9023 I0.0 J0.125
G2 X6.7604 Y36.9038 I0.0029 J-0.0022
G3 X6.761 I0.0005 J0.125
G2 X6.7661 Y36.8988 I0.0 J-0.0051
G3 Y36.898 I0.125 J0.0002
G2 X6.7653 Y36.8962 I-0.0026 J0.0
G3 X6.7282 Y36.8073 I0.0879 J-0.0889
G1 Y36.1458
G3 X6.7641 Y36.0582 I0.125 J0.0
G2 X6.7661 Y36.0536 I-0.005 J-0.005
G2 X6.7616 Y36.0493 I-0.0045 J0.0002
G3 X6.761 I-0.0007 J-0.125
G2 X6.7572 Y36.0512 I0.0 J0.0047
G3 X6.657 Y36.1014 I-0.1001 J-0.0748
G1 X6.5407
G3 X6.44 Y36.0505 I0.0 J-0.125
G2 X6.4377 Y36.0493 I-0.0023 J0.0017
G3 X6.4362 I-0.0011 J-0.125
G2 X6.4317 Y36.0538 I0.0 J0.0045
G3 Y36.0547 I-0.125 J0.0004
G2 X6.433 Y36.0578 I0.0044 J0.0
G3 X6.4695 Y36.1462 I-0.0884 J0.0883
G1 Y36.8069
G3 X6.433 Y36.8952 I-0.125 J0.0
G2 X6.4317 Y36.8985 I0.0032 J0.0032
G3 Y36.8993 I-0.125 J0.0005
G2 X6.4322 Y36.9014 I0.0045 J0.0
G0 Z1.5
G0 X8.5206 Y38.3695
G1 F10.0 Z0.0
G2 F30.0 X8.5376 Y38.2917 Z-0.0802 I-0.1698 J-0.0778
G1 Y38.2916 Z-0.0803
G2 X8.3508 Y38.1049 Z-0.3737 I-0.1868 J0.0
G2 X8.1995 Y38.182 Z-0.55 I0.0 J0.1868
G2 X8.164 Y38.2916 I0.1512 J0.1096
G1 Y38.2917
G2 X8.3508 Y38.4785 I0.1867 J0.0
G2 X8.5376 Y38.2917 I0.0 J-0.1867
G1 Y38.2916
G2 X8.3508 Y38.1049 I-0.1868 J0.0
G2 X8.1995 Y38.182 I0.0 J0.1868
G0 Z1.5
G0 X10.5959 Y36.3617
G1 F10.0 Z0.0
G1 F30.0 Y36.8069 Z-0.4453
G3 X10.5594 Y36.8952 Z-0.5433 I-0.125 J0.0
G2 X10.5581 Y36.8985 Z-0.5469 I0.0032 J0.0032
G3 Y36.8993 Z-0.5478 I-0.125 J0.0005
G2 X10.5586 Y36.9015 Z-0.55 I0.0045 J0.0
G2 X10.5626 Y36.9038 I0.004 J-0.0021
G3 X10.5628 I0.0003 J0.125
G2 X10.5668 Y36.9018 I0.0 J-0.005
G3 X10.6671 Y36.8514 I0.1003 J0.0746
G1 X10.7831
G3 X10.8838 Y36.9023 I0.0 J0.125
G2 X10.8867 Y36.9038 I0.0029 J-0.0022
G3 X10.8874 I0.0005 J0.125
G2 X10.8925 Y36.8988 I0.0 J-0.0051
G3 Y36.898 I0.125 J0.0002
G2 X10.8917 Y36.8961 I-0.0026 J0.0
G3 X10.8546 Y36.8073 I0.0879 J-0.0889
G1 Y36.1458
G3 X10.8904 Y36.0582 I0.125 J0.0
G2 X10.8925 Y36.0536 I-0.005 J-0.005
G2 X10.8879 Y36.0493 I-0.0045 J0.0002
G3 X10.8873 I-0.0007 J-0.125
G2 X10.8836 Y36.0512 I0.0 J0.0047
G3 X10.7834 Y36.1014 I-0.1001 J-0.0748
G1 X10.6671
G3 X10.5664 Y36.0505 I0.0 J-0.125
G2 X10.5641 Y36.0493 I-0.0023 J0.0017
G3 X10.5626 I-0.0011 J-0.125
G2 X10.5581 Y36.0538 I0.0 J0.0045
G3 Y36.0547 I-0.125 J0.0004
G2 X10.5594 Y36.0578 I0.0044 J0.0
G3 X10.5959 Y36.1462 I-0.0884 J0.0883
G1 Y36.8069
G3 X10.5594 Y36.8952 I-0.125 J0.0
G2 X10.5581 Y36.8985 I0.0032 J0.0032
G3 Y36.8993 I-0.125 J0.0005
G2 X10.5586 Y36.9015 I0.0045 J0.0
G0 Z1.5
G0 X12.647 Y38.3695
G1 F10.0 Z0.0
G2 F30.0 X12.664 Y38.2917 Z-0.0802 I-0.1698 J-0.0778
G1 Y38.2916 Z-0.0803
G2 X12.4772 Y38.1049 Z-0.3737 I-0.1868 J0.0
G2 X12.3259 Y38.182 Z-0.55 I0.0 J0.1868
G2 X12.2904 Y38.2916 I0.1512 J0.1096
G1 Y38.2917
G2 X12.4772 Y38.4785 I0.1867 J0.0
G2 X12.664 Y38.2917 I0.0 J-0.1867
G1 Y38.2916
G2 X12.4772 Y38.1049 I-0.1868 J0.0
G2 X12.3259 Y38.182 I0.0 J0.1868
G0 Z1.5
G0 X14.7223 Y36.3617
G1 F10.0 Z0.0
G1 F30.0 Y36.8069 Z-0.4453
G3 X14.6858 Y36.8952 Z-0.5433 I-0.125 J0.0
G2 X14.6845 Y36.8985 Z-0.5469 I0.0032 J0.0032
G3 Y36.8993 Z-0.5478 I-0.125 J0.0005
G2 X14.685 Y36.9015 Z-0.55 I0.0045 J0.0
G2 X14.689 Y36.9038 I0.004 J-0.0021
G3 X14.6892 I0.0003 J0.125
G2 X14.6932 Y36.9018 I0.0 J-0.005
G3 X14.7935 Y36.8514 I0.1003 J0.0746
G1 X14.9095
G3 X15.0102 Y36.9023 I0.0 J0.125
G2 X15.0131 Y36.9038 I0.0029 J-0.0022
G3 X15.0138 I0.0005 J0.125
G2 X15.0188 Y36.8988 I0.0 J-0.0051
G3 Y36.898 I0.125 J0.0002
G2 X15.0181 Y36.8962 I-0.0026 J0.0
G3 X14.981 Y36.8073 I0.0879 J-0.0889
G1 Y36.1458
G3 X15.0168 Y36.0582 I0.125 J0.0
G2 X15.0188 Y36.0536 I-0.005 J-0.005
G2 X15.0143 Y36.0493 I-0.0045 J0.0002
G3 X15.0137 I-0.0007 J-0.125
G2 X15.01 Y36.0512 I0.0 J0.0047
G3 X14.9098 Y36.1014 I-0.1001 J-0.0748
G1 X14.7935
G3 X14.6928 Y36.0505 I0.0 J-0.125
G2 X14.6905 Y36.0493 I-0.0023 J0.0017
G3 X14.6889 I-0.0011 J-0.125
G2 X14.6845 Y36.0538 I0.0 J0.0045
G3 Y36.0547 I-0.125 J0.0004
G2 X14.6857 Y36.0578 I0.0044 J0.0
G3 X14.7223 Y36.1462 I-0.0884 J0.0883
G1 Y36.8069
G3 X14.6858 Y36.8952 I-0.125 J0.0
G2 X14.6845 Y36.8985 I0.0032 J0.0032
G3 Y36.8993 I-0.125 J0.0005
G2 X14.685 Y36.9015 I0.0045 J0.0
G0 Z1.5
G0 X17.2803 Y38.3512
G1 F10.0 Z0.0
G2 F30.0 X17.29 Y38.2917 Z-0.0606 I-0.177 J-0.0595
G1 Y38.2916
G2 X17.1032 Y38.1049 Z-0.354 I-0.1868 J0.0
G1 Z-0.3541
G2 X16.9412 Y38.1985 Z-0.55 I0.0 J0.1867
G2 X16.9164 Y38.2916 I0.1619 J0.0931
G1 Y38.2917
G2 X17.1032 Y38.4785 I0.1868 J0.0
G2 X17.29 Y38.2917 I0.0 J-0.1868
G1 Y38.2916
G2 X17.1032 Y38.1049 I-0.1868 J0.0
G2 X16.9412 Y38.1985 I0.0 J0.1867
G0 Z1.5
G0 X14.7223 Y33.6958
G1 F10.0 Z0.0
G1 F30.0 Y33.7753 Z-0.0796
G3 X14.6858 Y33.8636 Z-0.1776 I-0.125 J0.0
G2 X14.6845 Y33.8669 Z-0.1812 I0.0033 J0.0033
G3 Y33.868 Z-0.1823 I-0.125 J0.0005
G2 X14.689 Y33.8726 Z-0.1895 I0.0045 J0.0
G3 X14.6892 Z-0.1897 I0.0003 J0.125
G2 X14.6931 Y33.8706 Z-0.1943 I0.0 J-0.0049
G3 X14.7935 Y33.8201 Z-0.3107 I0.1003 J0.0746
G1 X14.9095 Z-0.4267
G3 X15.0102 Y33.8711 Z-0.5438 I0.0 J0.125
G2 X15.0131 Y33.8726 Z-0.5472 I0.0029 J-0.0022
G3 X15.0138 Z-0.5479 I0.0005 J0.125
G2 X15.0158 Y33.8721 Z-0.55 I0.0 J-0.0051
G2 X15.0188 Y33.8675 I-0.0021 J-0.0046
G3 Y33.8664 I0.125 J-0.0001
G2 X15.0181 Y33.8645 I-0.0026 J0.0
G3 X14.981 Y33.7757 I0.0879 J-0.0889
G1 Y33.1146
G3 X15.0169 Y33.0269 I0.125 J0.0
G2 X15.0188 Y33.0225 I-0.0049 J-0.0048
G2 X15.0138 Y33.0177 I-0.0051 J0.0003
G2 X15.0098 Y33.0197 I0.0 J0.005
G3 X14.9095 Y33.0701 I-0.1003 J-0.0746
G1 X14.7935
G3 X14.6929 Y33.0194 I0.0 J-0.125
G2 X14.6896 Y33.0177 I-0.0033 J0.0024
G3 X14.6889 I-0.0003 J-0.125
G2 X14.6845 Y33.0222 I0.0 J0.0045
G3 Y33.0235 I-0.125 J0.0007
G2 X14.6857 Y33.0266 I0.0044 J0.0
G3 X14.7223 Y33.1149 I-0.0884 J0.0883
G1 Y33.7753
G3 X14.6858 Y33.8636 I-0.125 J0.0
G2 X14.6845 Y33.8669 I0.0033 J0.0033
G3 Y33.868 I-0.125 J0.0005
G2 X14.689 Y33.8726 I0.0045 J0.0
G3 X14.6892 I0.0003 J0.125
G2 X14.6931 Y33.8706 I0.0 J-0.0049
G3 X14.7935 Y33.8201 I0.1003 J0.0746
G1 X14.9095
G3 X15.0102 Y33.8711 I0.0 J0.125
G2 X15.0131 Y33.8726 I0.0029 J-0.0022
G3 X15.0138 I0.0005 J0.125
G2 X15.0158 Y33.8721 I0.0 J-0.0051
G0 Z1.5
G0 X10.5959 Y33.7027
G1 F10.0 Z0.0
G1 F30.0 Y33.7753 Z-0.0726
G3 X10.5594 Y33.8636 Z-0.1706 I-0.125 J0.0
G2 X10.5581 Y33.8669 Z-0.1743 I0.0033 J0.0033
G3 Y33.868 Z-0.1754 I-0.125 J0.0005
G2 X10.5626 Y33.8726 Z-0.1826 I0.0045 J0.0
G3 X10.5628 Z-0.1828 I0.0003 J0.125
G2 X10.5668 Y33.8706 Z-0.1873 I0.0 J-0.0049
G3 X10.6671 Y33.8201 Z-0.3038 I0.1003 J0.0746
G1 X10.7831 Z-0.4198
G3 X10.8838 Y33.8711 Z-0.5369 I0.0 J0.125
G2 X10.8867 Y33.8726 Z-0.5403 I0.0029 J-0.0022
G3 X10.8874 Z-0.541 I0.0005 J0.125
G2 X10.8925 Y33.8675 Z-0.5489 I0.0 J-0.0051
G3 Y33.8664 Z-0.55 I0.125 J-0.0001
G2 X10.8917 Y33.8645 I-0.0026 J0.0
G3 X10.8546 Y33.7757 I0.0879 J-0.0889
G1 Y33.1146
G3 X10.8905 Y33.0269 I0.125 J0.0
G2 X10.8924 Y33.0225 I-0.0049 J-0.0048
G2 X10.8874 Y33.0177 I-0.0051 J0.0003
G2 X10.8834 Y33.0197 I0.0 J0.005
G3 X10.7831 Y33.0701 I-0.1003 J-0.0746
G1 X10.6671
G3 X10.5665 Y33.0194 I0.0 J-0.125
G2 X10.5632 Y33.0177 I-0.0033 J0.0024
G3 X10.5626 I-0.0003 J-0.125
G2 X10.5581 Y33.0222 I0.0 J0.0045
G3 Y33.0235 I-0.125 J0.0007
G2 X10.5594 Y33.0266 I0.0044 J0.0
G3 X10.5959 Y33.1149 I-0.0884 J0.0883
G1 Y33.7753
G3 X10.5594 Y33.8636 I-0.125 J0.0
G2 X10.5581 Y33.8669 I0.0033 J0.0033
G3 Y33.868 I-0.125 J0.0005
G2 X10.5626 Y33.8726 I0.0045 J0.0
G3 X10.5628 I0.0003 J0.125
G2 X10.5668 Y33.8706 I0.0 J-0.0049
G3 X10.6671 Y33.8201 I0.1003 J0.0746
G1 X10.7831
G3 X10.8838 Y33.8711 I0.0 J0.125
G2 X10.8867 Y33.8726 I0.0029 J-0.0022
G3 X10.8874 I0.0005 J0.125
G2 X10.8925 Y33.8675 I0.0 J-0.0051
G3 Y33.8664 I0.125 J-0.0001
G0 Z1.5
G0 X6.4695 Y33.7027
G1 F10.0 Z0.0
G1 F30.0 Y33.7753 Z-0.0726
G3 X6.433 Y33.8636 Z-0.1706 I-0.125 J0.0
G2 X6.4317 Y33.8669 Z-0.1743 I0.0033 J0.0033
G3 Y33.868 Z-0.1754 I-0.125 J0.0005
G2 X6.4362 Y33.8726 Z-0.1825 I0.0045 J0.0
G3 X6.4365 Z-0.1828 I0.0003 J0.125
G2 X6.4404 Y33.8706 Z-0.1873 I0.0 J-0.0049
G3 X6.5407 Y33.8201 Z-0.3038 I0.1003 J0.0745
G1 X6.6567 Z-0.4198
G3 X6.7574 Y33.8711 Z-0.5369 I0.0 J0.125
G2 X6.7604 Y33.8726 Z-0.5403 I0.0029 J-0.0022
G3 X6.761 Z-0.5409 I0.0005 J0.125
G2 X6.7661 Y33.8675 Z-0.5489 I0.0 J-0.0051
G3 Y33.8664 Z-0.55 I0.125 J-0.0001
G2 X6.7653 Y33.8645 I-0.0026 J0.0
G3 X6.7282 Y33.7757 I0.0879 J-0.0889
G1 Y33.1146
G3 X6.7641 Y33.0269 I0.125 J0.0
G2 X6.7661 Y33.0225 I-0.0049 J-0.0048
G2 X6.761 Y33.0177 I-0.0051 J0.0003
G2 X6.757 Y33.0197 I0.0 J0.005
G3 X6.6567 Y33.0701 I-0.1003 J-0.0746
G1 X6.5407
G3 X6.4402 Y33.0194 I0.0 J-0.125
G2 X6.4368 Y33.0177 I-0.0033 J0.0024
G3 X6.4362 I-0.0003 J-0.125
G2 X6.4317 Y33.0222 I0.0 J0.0045
G3 Y33.0235 I-0.125 J0.0007
G2 X6.433 Y33.0266 I0.0044 J0.0
G3 X6.4695 Y33.1149 I-0.0884 J0.0883
G1 Y33.7753
G3 X6.433 Y33.8636 I-0.125 J0.0
G2 X6.4317 Y33.8669 I0.0033 J0.0033
G3 Y33.868 I-0.125 J0.0005
G2 X6.4362 Y33.8726 I0.0045 J0.0
G3 X6.4365 I0.0003 J0.125
G2 X6.4404 Y33.8706 I0.0 J-0.0049
G3 X6.5407 Y33.8201 I0.1003 J0.0745
G1 X6.6567
G3 X6.7574 Y33.8711 I0.0 J0.125
G2 X6.7604 Y33.8726 I0.0029 J-0.0022
G3 X6.761 I0.0005 J0.125
G2 X6.7661 Y33.8675 I0.0 J-0.0051
G3 Y33.8664 I0.125 J-0.0001
G0 Z1.5
G0 X3.2479 Y49.1815
G1 F10.0 Z0.0
G1 F30.0 X3.3369 Z-0.0889
G3 X3.4261 Y49.2189 Z-0.1882 I0.0 J0.125
G2 X3.428 Y49.2197 Z-0.1903 I0.0019 J-0.0018
G3 X3.4281 Z-0.1905 I0.0009 J0.125
G2 X3.4327 Y49.2179 Z-0.1955 I0.0 J-0.007
G3 X3.4333 Y49.2173 Z-0.1963 I0.0889 J0.0879
G2 X3.4341 Y49.2153 Z-0.1985 I-0.0019 J-0.0019
G3 Y49.2152 Z-0.1987 I0.125 J-0.0009
G2 X3.4322 Y49.2105 Z-0.2039 I-0.0068 J0.0
G3 X3.3966 Y49.1231 Z-0.3006 I0.0894 J-0.0873
G1 Y48.9815 Z-0.4423
G3 X3.4333 Y48.893 Z-0.5405 I0.125 J0.0
G2 X3.4341 Y48.891 Z-0.5427 I-0.002 J-0.002
G3 Y48.8909 Z-0.5429 I0.125 J-0.0009
G2 X3.4323 Y48.8863 Z-0.5479 I-0.0069 J0.0
G2 X3.4304 Y48.8854 Z-0.55 I-0.0028 J0.0034
G2 X3.4295 Y48.8853 I-0.001 J0.0043
G3 X3.4284 I-0.0006 J-0.125
G2 X3.4252 Y48.8866 I0.0 J0.0046
G3 X3.3369 Y48.9231 I-0.0883 J-0.0885
G1 X2.8966
G1 X2.6178
G1 X2.4522
G1 X2.1775
G3 X2.0892 Y48.8866 I0.0 J-0.125
G2 X2.086 Y48.8853 I-0.0032 J0.0032
G3 X2.0849 I-0.0005 J-0.125
G2 X2.082 Y48.8864 I0.0 J0.0044
G3 X2.0819 Y48.8865 I-0.0892 J-0.0875
G2 X2.0807 Y48.8896 I0.0031 J0.0031
G3 Y48.8907 I-0.125 J0.0006
G2 X2.0819 Y48.8938 I0.0045 J0.0
G3 X2.1178 Y48.9815 I-0.0891 J0.0876
G1 Y49.1231
G3 X2.0819 Y49.2108 I-0.125 J0.0
G2 X2.0807 Y49.2139 I0.0031 J0.0031
G3 Y49.2149 I-0.125 J0.0005
G2 X2.082 Y49.2182 I0.0047 J0.0
G3 X2.0827 Y49.2189 I-0.0892 J0.0876
G2 X2.0846 Y49.2197 I0.0019 J-0.0021
G3 X2.0848 I0.0009 J0.125
G2 X2.0895 Y49.2177 I0.0 J-0.0068
G3 X2.1775 Y49.1815 I0.088 J0.0888
G1 X2.4522
G1 X2.6178
G1 X2.8966
G1 X3.3369
G3 X3.4261 Y49.2189 I0.0 J0.125
G2 X3.428 Y49.2197 I0.0019 J-0.0018
G3 X3.4281 I0.0009 J0.125
G2 X3.4327 Y49.2179 I0.0 J-0.007
G3 X3.4333 Y49.2173 I0.0889 J0.0879
G2 X3.4341 Y49.2153 I-0.0019 J-0.0019
G3 Y49.2152 I0.125 J-0.0009
G2 X3.4322 Y49.2105 I-0.0068 J0.0
G3 X3.3966 Y49.1231 I0.0894 J-0.0873
G1 Y48.9815
G3 X3.4333 Y48.893 I0.125 J0.0
G2 X3.4341 Y48.891 I-0.002 J-0.002
G3 Y48.8909 I0.125 J-0.0009
G2 X3.4323 Y48.8863 I-0.0069 J0.0
G2 X3.4304 Y48.8854 I-0.0028 J0.0034
G0 Z1.5
G0 X3.2489 Y51.1808
G1 F10.0 Z0.0
G1 F30.0 X3.3369 Z-0.088
G3 X3.4261 Y51.2182 Z-0.1873 I0.0 J0.125
G2 X3.428 Y51.219 Z-0.1894 I0.0019 J-0.0018
G3 X3.4281 Z-0.1895 I0.0009 J0.125
G2 X3.4327 Y51.2172 Z-0.1945 I0.0 J-0.007
G3 X3.4333 Y51.2166 Z-0.1954 I0.0889 J0.0879
G2 X3.4341 Y51.2146 Z-0.1976 I-0.002 J-0.002
G3 Y51.2145 Z-0.1977 I0.125 J-0.0009
G2 X3.4321 Y51.2097 Z-0.203 I-0.0069 J0.0
G3 X3.3966 Y51.1224 Z-0.2996 I0.0895 J-0.0873
G1 Y50.9808 Z-0.4413
G3 X3.4333 Y50.8923 Z-0.5396 I0.125 J0.0
G2 X3.4341 Y50.8903 Z-0.5418 I-0.002 J-0.002
G3 Y50.8902 Z-0.5419 I0.125 J-0.0009
G2 X3.4323 Y50.8856 Z-0.5469 I-0.0069 J0.0
G2 X3.4295 Y50.8846 Z-0.55 I-0.0028 J0.0034
G3 X3.4284 I-0.0006 J-0.125
G2 X3.4252 Y50.8859 I0.0 J0.0046
G3 X3.3369 Y50.9224 I-0.0883 J-0.0885
G1 X2.8966
G1 X2.6178
G1 X2.4522
G1 X2.1775
G3 X2.0892 Y50.8859 I0.0 J-0.125
G2 X2.086 Y50.8846 I-0.0032 J0.0032
G3 X2.0849 I-0.0005 J-0.125
G2 X2.0821 Y50.8857 I0.0 J0.0044
G3 X2.0819 Y50.8858 I-0.0892 J-0.0875
G2 X2.0807 Y50.8889 I0.0031 J0.0031
G3 Y50.89 I-0.125 J0.0006
G2 X2.082 Y50.8931 I0.0045 J0.0
G3 X2.1178 Y50.9808 I-0.0891 J0.0876
G1 Y51.1224
G3 X2.0819 Y51.2101 I-0.125 J0.0
G2 X2.0807 Y51.2132 I0.0031 J0.0031
G3 Y51.2142 I-0.125 J0.0006
G2 X2.082 Y51.2175 I0.0046 J0.0
G3 X2.0827 Y51.2182 I-0.0892 J0.0876
G2 X2.0846 Y51.219 I0.0019 J-0.0021
G3 X2.0848 I0.0009 J0.125
G2 X2.0895 Y51.217 I0.0 J-0.0068
G3 X2.1775 Y51.1808 I0.088 J0.0888
G1 X2.4522
G1 X2.6178
G1 X2.8966
G1 X3.3369
G3 X3.4261 Y51.2182 I0.0 J0.125
G2 X3.428 Y51.219 I0.0019 J-0.0018
G3 X3.4281 I0.0009 J0.125
G2 X3.4327 Y51.2172 I0.0 J-0.007
G3 X3.4333 Y51.2166 I0.0889 J0.0879
G2 X3.4341 Y51.2146 I-0.002 J-0.002
G3 Y51.2145 I0.125 J-0.0009
G2 X3.4321 Y51.2097 I-0.0069 J0.0
G3 X3.3966 Y51.1224 I0.0895 J-0.0873
G1 Y50.9808
G3 X3.4333 Y50.8923 I0.125 J0.0
G2 X3.4341 Y50.8903 I-0.002 J-0.002
G3 Y50.8902 I0.125 J-0.0009
G2 X3.4323 Y50.8856 I-0.0069 J0.0
G2 X3.4295 Y50.8846 I-0.0028 J0.0034
G0 Z1.5
G0 X12.951 Y50.9224
G1 F10.0 Z0.0
G1 F30.0 X12.9508 Z-0.0003
G1 X12.7851 Z-0.1659
G1 X12.5105 Z-0.4405
G3 X12.4221 Y50.8859 Z-0.5387 I0.0 J-0.125
G2 X12.419 Y50.8846 Z-0.5421 I-0.0031 J0.0031
G3 X12.418 Z-0.5431 I-0.0006 J-0.125
G2 X12.4149 Y50.8857 Z-0.5464 I0.0 J0.0046
G1 Z-0.5465
G2 X12.4136 Y50.8889 Z-0.55 I0.0033 J0.0032
G1 Y50.889
G3 Y50.89 I-0.125 J0.0005
G2 X12.4149 Y50.8931 I0.0044 J0.0
G3 X12.4508 Y50.9808 I-0.0891 J0.0877
G1 Y51.1224
G3 X12.4149 Y51.21 I-0.125 J0.0
G2 X12.4136 Y51.2133 I0.0033 J0.0032
G3 Y51.2143 I-0.125 J0.0005
G2 X12.4149 Y51.2174 I0.0045 J0.0
G3 X12.4157 Y51.2182 I-0.0891 J0.0876
G2 X12.4175 Y51.219 I0.0018 J-0.002
G3 X12.4176 I0.0009 J0.125
G2 X12.4225 Y51.2169 I0.0 J-0.007
G3 X12.5105 Y51.1808 I0.0879 J0.0888
G1 X12.7851
G1 X12.9508
G1 X13.2296
G1 X13.6699
G3 X13.759 Y51.2181 I0.0 J0.125
G2 X13.761 Y51.219 I0.002 J-0.002
G2 X13.7656 Y51.2172 I0.0 J-0.007
G3 X13.7663 Y51.2166 I0.0889 J0.0878
G2 X13.767 Y51.2147 I-0.0019 J-0.0019
G3 Y51.2145 I0.125 J-0.0009
G2 X13.7651 Y51.2097 I-0.0069 J0.0
G3 X13.7295 Y51.1224 I0.0895 J-0.0873
G1 Y50.9808
G3 X13.7663 Y50.8923 I0.125 J0.0
G2 X13.767 Y50.8904 I-0.0019 J-0.0019
G3 Y50.8902 I0.125 J-0.0009
G2 X13.7653 Y50.8856 I-0.0069 J0.0
G2 X13.7624 Y50.8846 I-0.0028 J0.0033
G3 X13.7613 I-0.0006 J-0.125
G2 X13.7582 Y50.8859 I0.0 J0.0044
G3 X13.6699 Y50.9224 I-0.0883 J-0.0884
G1 X13.2296
G1 X12.9508
G1 X12.7851
G1 X12.5105
G3 X12.4221 Y50.8859 I0.0 J-0.125
G2 X12.419 Y50.8846 I-0.0031 J0.0031
G3 X12.418 I-0.0006 J-0.125
G2 X12.4149 Y50.8857 I0.0 J0.0046
G2 X12.4136 Y50.8889 I0.0033 J0.0032
G0 Z1.5
G0 X12.5994 Y48.9231
G1 F10.0 Z0.0
G1 F30.0 X12.5105 Z-0.0889
G3 X12.4221 Y48.8866 Z-0.1871 I0.0 J-0.125
G2 X12.419 Y48.8853 Z-0.1905 I-0.0031 J0.0031
G3 X12.418 Z-0.1915 I-0.0006 J-0.125
G2 X12.4149 Y48.8864 Z-0.1948 I0.0 J0.0046
G1 Z-0.1949
G2 X12.4136 Y48.8897 Z-0.1984 I0.0033 J0.0032
G3 Y48.8907 Z-0.1995 I-0.125 J0.0005
G2 X12.4149 Y48.8938 Z-0.2029 I0.0043 J0.0
G3 X12.4508 Y48.9815 Z-0.3001 I-0.0891 J0.0877
G1 Y49.1231 Z-0.4417
G3 X12.415 Y49.2107 Z-0.5388 I-0.125 J0.0
G2 X12.4136 Y49.214 Z-0.5424 I0.0033 J0.0032
G3 Y49.2149 Z-0.5433 I-0.125 J0.0005
G2 X12.4149 Y49.2182 Z-0.5469 I0.0046 J0.0
G3 X12.4157 Y49.2189 Z-0.548 I-0.0892 J0.0876
G2 X12.4175 Y49.2197 Z-0.55 I0.0018 J-0.002
G1 X12.4176
G2 X12.4225 Y49.2176 I0.0 J-0.007
G3 X12.5105 Y49.1815 I0.0879 J0.0888
G1 X12.7851
G1 X12.9508
G1 X13.2296
G1 X13.6699
G3 X13.759 Y49.2188 I0.0 J0.125
G2 X13.761 Y49.2197 I0.002 J-0.002
G2 X13.7656 Y49.2179 I0.0 J-0.007
G3 X13.7663 Y49.2173 I0.0889 J0.0878
G2 X13.767 Y49.2154 I-0.0018 J-0.0019
G3 Y49.2152 I0.125 J-0.0009
G2 X13.7651 Y49.2105 I-0.0068 J0.0
G3 X13.7295 Y49.1231 I0.0894 J-0.0873
G1 Y48.9815
G3 X13.7663 Y48.893 I0.125 J0.0
G2 X13.767 Y48.8911 I-0.0019 J-0.0019
G3 Y48.8909 I0.125 J-0.0009
G2 X13.7653 Y48.8863 I-0.0069 J0.0
G2 X13.7624 Y48.8853 I-0.0028 J0.0033
G3 X13.7613 I-0.0006 J-0.125
G2 X13.7582 Y48.8866 I0.0 J0.0044
G3 X13.6699 Y48.9231 I-0.0883 J-0.0884
G1 X13.2296
G1 X12.9508
G1 X12.7851
G1 X12.5105
G3 X12.4221 Y48.8866 I0.0 J-0.125
G2 X12.419 Y48.8853 I-0.0031 J0.0031
G3 X12.418 I-0.0006 J-0.125
G2 X12.4149 Y48.8864 I0.0 J0.0046
G2 X12.4136 Y48.8897 I0.0033 J0.0032
G3 Y48.8907 I-0.125 J0.0005
G2 X12.4149 Y48.8938 I0.0043 J0.0
G3 X12.4508 Y48.9815 I-0.0891 J0.0877
G1 Y49.1231
G3 X12.415 Y49.2107 I-0.125 J0.0
G2 X12.4136 Y49.214 I0.0033 J0.0032
G3 Y49.2149 I-0.125 J0.0005
G2 X12.4149 Y49.2182 I0.0046 J0.0
G3 X12.4157 Y49.2189 I-0.0892 J0.0876
G2 X12.4175 Y49.2197 I0.0018 J-0.002
G0 Z1.5
G0 X22.939 Y48.9231
G1 F10.0 Z0.0
G1 F30.0 X22.8434 Z-0.0956
G3 X22.7551 Y48.8866 Z-0.1937 I0.0 J-0.125
G2 X22.752 Y48.8853 Z-0.1972 I-0.0031 J0.0031
G3 X22.7511 Z-0.1981 I-0.0006 J-0.125
G2 X22.7479 Y48.8865 Z-0.2016 I0.0 J0.0049
G2 X22.7466 Y48.8897 Z-0.2051 I0.0033 J0.0031
G3 Y48.8907 Z-0.2061 I-0.125 J0.0005
G2 X22.7479 Y48.8938 Z-0.2096 I0.0044 J0.0
G3 X22.7837 Y48.9815 Z-0.3067 I-0.0891 J0.0877
G1 Y49.1231 Z-0.4484
G3 X22.7479 Y49.2108 Z-0.5455 I-0.125 J0.0
G2 X22.7466 Y49.214 Z-0.549 I0.0033 J0.0032
G3 Y49.2149 Z-0.55 I-0.125 J0.0005
G2 X22.7479 Y49.2182 I0.0046 J0.0
G3 X22.7487 Y49.219 I-0.0892 J0.0876
G2 X22.7504 Y49.2197 I0.0017 J-0.0018
G3 X22.7506 I0.001 J0.125
G2 X22.7555 Y49.2176 I0.0 J-0.007
G3 X22.8434 Y49.1815 I0.0879 J0.0888
G1 X23.1181
G1 X23.2837
G1 X23.5625
G1 X24.0028
G3 X24.092 Y49.2189 I0.0 J0.125
G2 X24.0939 Y49.2197 I0.0019 J-0.0019
G3 X24.094 I0.0009 J0.125
G2 X24.0986 Y49.2179 I0.0 J-0.007
G3 X24.0992 Y49.2173 I0.0889 J0.0879
G2 X24.1 Y49.2153 I-0.002 J-0.002
G3 Y49.2152 I0.125 J-0.0009
G2 X24.0981 Y49.2105 I-0.0068 J0.0
G3 X24.0625 Y49.1231 I0.0894 J-0.0873
G1 Y48.9815
G3 X24.0992 Y48.893 I0.125 J0.0
G2 X24.1 Y48.891 I-0.002 J-0.002
G3 Y48.8909 I0.125 J-0.0009
G2 X24.0982 Y48.8863 I-0.0069 J0.0
G2 X24.0954 Y48.8853 I-0.0028 J0.0033
G3 X24.0944 I-0.0006 J-0.125
G2 X24.0911 Y48.8867 I0.0 J0.0046
G3 X24.0028 Y48.9231 I-0.0883 J-0.0885
G1 X23.5625
G1 X23.2837
G1 X23.1181
G1 X22.8434
G3 X22.7551 Y48.8866 I0.0 J-0.125
G2 X22.752 Y48.8853 I-0.0031 J0.0031
G3 X22.7511 I-0.0006 J-0.125
G2 X22.7479 Y48.8865 I0.0 J0.0049
G2 X22.7466 Y48.8897 I0.0033 J0.0031
G3 Y48.8907 I-0.125 J0.0005
G2 X22.7479 Y48.8938 I0.0044 J0.0
G3 X22.7837 Y48.9815 I-0.0891 J0.0877
G1 Y49.1231
G3 X22.7479 Y49.2108 I-0.125 J0.0
G2 X22.7466 Y49.214 I0.0033 J0.0032
G3 Y49.2149 I-0.125 J0.0005
G0 Z1.5
G0 X23.2909 Y50.9224
G1 F10.0 Z0.0
G1 F30.0 X23.2837 Z-0.0072
G1 X23.1181 Z-0.1728
G1 X22.8434 Z-0.4475
G3 X22.7551 Y50.8859 Z-0.5456 I0.0 J-0.125
G2 X22.752 Y50.8846 Z-0.5491 I-0.0031 J0.0031
G3 X22.7511 Z-0.55 I-0.0006 J-0.125
G1 X22.751
G2 X22.7479 Y50.8858 I0.0 J0.0049
G2 X22.7466 Y50.8889 I0.0032 J0.0031
G3 Y50.89 I-0.125 J0.0005
G2 X22.7479 Y50.8931 I0.0045 J0.0
G3 X22.7837 Y50.9808 I-0.0891 J0.0876
G1 Y51.1224
G3 X22.7479 Y51.2101 I-0.125 J0.0
G2 X22.7466 Y51.2133 I0.0032 J0.0032
G3 Y51.2142 I-0.125 J0.0005
G2 X22.7479 Y51.2175 I0.0046 J0.0
G3 X22.7487 Y51.2183 I-0.0891 J0.0876
G2 X22.7504 Y51.219 I0.0017 J-0.0018
G3 X22.7506 I0.001 J0.125
G2 X22.7555 Y51.2169 I0.0 J-0.007
G3 X22.8434 Y51.1808 I0.0879 J0.0888
G1 X23.1181
G1 X23.2837
G1 X23.5625
G1 X24.0028
G3 X24.092 Y51.2182 I0.0 J0.125
G2 X24.0939 Y51.219 I0.0019 J-0.0019
G3 X24.094 I0.0009 J0.125
G2 X24.0986 Y51.2172 I0.0 J-0.007
G3 X24.0992 Y51.2166 I0.0889 J0.0879
G2 X24.1 Y51.2146 I-0.002 J-0.002
G3 Y51.2145 I0.125 J-0.0009
G2 X24.0981 Y51.2097 I-0.0069 J0.0
G3 X24.0625 Y51.1224 I0.0895 J-0.0873
G1 Y50.9808
G3 X24.0992 Y50.8923 I0.125 J0.0
G2 X24.1 Y50.8903 I-0.002 J-0.002
G3 Y50.8902 I0.125 J-0.0009
G2 X24.0982 Y50.8856 I-0.0069 J0.0
G2 X24.0954 Y50.8846 I-0.0028 J0.0033
G3 X24.0944 I-0.0006 J-0.125
G2 X24.0911 Y50.886 I0.0 J0.0046
G3 X24.0028 Y50.9224 I-0.0883 J-0.0885
G1 X23.5625
G1 X23.2837
G1 X23.1181
G1 X22.8434
G3 X22.7551 Y50.8859 I0.0 J-0.125
G2 X22.752 Y50.8846 I-0.0031 J0.0031
G3 X22.7511 I-0.0006 J-0.125
G1 X22.751
G0 Z1.5
G0 X33.6167 Y50.9224
G1 F10.0 Z0.0
G1 F30.0 X33.6163 Z-0.0003
G1 X33.4507 Z-0.1659
G1 X33.1761 Z-0.4406
G3 X33.0878 Y50.8859 Z-0.5386 I0.0 J-0.125
G2 X33.0845 Y50.8846 Z-0.5422 I-0.0032 J0.0032
G3 X33.0835 Z-0.5433 I-0.0005 J-0.125
G2 X33.0806 Y50.8857 Z-0.5464 I0.0 J0.0044
G3 X33.0805 Y50.8858 Z-0.5466 I-0.0892 J-0.0875
G2 X33.0792 Y50.8889 Z-0.55 I0.0031 J0.0031
G3 Y50.89 I-0.125 J0.0006
G2 X33.0805 Y50.8931 I0.0045 J0.0
G3 X33.1164 Y50.9808 I-0.0891 J0.0876
G1 Y51.1224
G3 X33.0805 Y51.2101 I-0.125 J0.0
G2 X33.0792 Y51.2132 I0.0031 J0.0031
G3 Y51.2142 I-0.125 J0.0006
G2 X33.0805 Y51.2175 I0.0046 J0.0
G3 X33.0812 Y51.2182 I-0.0892 J0.0876
G2 X33.0832 Y51.219 I0.0019 J-0.0021
G3 X33.0833 I0.0008 J0.125
G2 X33.088 Y51.217 I0.0 J-0.0067
G3 X33.1761 Y51.1808 I0.088 J0.0887
G1 X33.4507
G1 X33.6163
G1 X33.8952
G1 X34.3354
G3 X34.4246 Y51.2182 I0.0 J0.125
G2 X34.4265 Y51.219 I0.0019 J-0.0018
G3 X34.4267 I0.0009 J0.125
G2 X34.4311 Y51.2173 I0.0 J-0.0068
G3 X34.4318 Y51.2166 I0.089 J0.0878
G2 X34.4326 Y51.2146 I-0.002 J-0.002
G3 Y51.2145 I0.125 J-0.0009
G2 X34.4307 Y51.2097 I-0.0069 J0.0
G3 X34.3951 Y51.1224 I0.0895 J-0.0873
G1 Y50.9808
G3 X34.4318 Y50.8923 I0.125 J0.0
G2 X34.4326 Y50.8903 I-0.002 J-0.002
G3 Y50.8902 I0.125 J-0.0009
G2 X34.4309 Y50.8857 I-0.0069 J0.0
G2 X34.4279 Y50.8846 I-0.0029 J0.0035
G3 X34.427 I-0.0005 J-0.125
G2 X34.4237 Y50.8859 I0.0 J0.0046
G3 X34.3354 Y50.9224 I-0.0883 J-0.0885
G1 X33.8952
G1 X33.6163
G1 X33.4507
G1 X33.1761
G3 X33.0878 Y50.8859 I0.0 J-0.125
G2 X33.0845 Y50.8846 I-0.0032 J0.0032
G3 X33.0835 I-0.0005 J-0.125
G2 X33.0806 Y50.8857 I0.0 J0.0044
G3 X33.0805 Y50.8858 I-0.0892 J-0.0875
G2 X33.0792 Y50.8889 I0.0031 J0.0031
G0 Z1.5
G0 X33.2649 Y48.9231
G1 F10.0 Z0.0
G1 F30.0 X33.1761 Z-0.0889
G3 X33.0878 Y48.8866 Z-0.1869 I0.0 J-0.125
G2 X33.0845 Y48.8853 Z-0.1905 I-0.0032 J0.0032
G3 X33.0835 Z-0.1915 I-0.0005 J-0.125
G2 X33.0806 Y48.8864 Z-0.1947 I0.0 J0.0044
G3 X33.0805 Y48.8865 Z-0.1949 I-0.0892 J-0.0875
G2 X33.0792 Y48.8896 Z-0.1983 I0.0031 J0.0031
G3 Y48.8907 Z-0.1994 I-0.125 J0.0006
G2 X33.0805 Y48.8938 Z-0.2029 I0.0045 J0.0
G3 X33.1164 Y48.9815 Z-0.3 I-0.0891 J0.0876
G1 Y49.1231 Z-0.4417
G3 X33.0805 Y49.2108 Z-0.5388 I-0.125 J0.0
G2 X33.0792 Y49.2139 Z-0.5423 I0.0031 J0.0031
G3 Y49.2149 Z-0.5432 I-0.125 J0.0005
G2 X33.0806 Y49.2182 Z-0.5469 I0.0047 J0.0
G3 X33.0812 Y49.2189 Z-0.5479 I-0.0892 J0.0876
G2 X33.0832 Y49.2197 Z-0.55 I0.0019 J-0.0021
G3 X33.0833 I0.0008 J0.125
G2 X33.088 Y49.2177 I0.0 J-0.0067
G3 X33.1761 Y49.1815 I0.088 J0.0888
G1 X33.4507
G1 X33.6163
G1 X33.8952
G1 X34.3354
G3 X34.4246 Y49.2189 I0.0 J0.125
G2 X34.4265 Y49.2197 I0.0019 J-0.0018
G3 X34.4267 I0.0009 J0.125
G2 X34.4311 Y49.218 I0.0 J-0.0068
G3 X34.4318 Y49.2173 I0.089 J0.0878
G2 X34.4326 Y49.2153 I-0.0019 J-0.0019
G3 Y49.2152 I0.125 J-0.0009
G2 X34.4307 Y49.2105 I-0.0068 J0.0
G3 X34.3951 Y49.1231 I0.0894 J-0.0873
G1 Y48.9815
G3 X34.4318 Y48.893 I0.125 J0.0
G2 X34.4326 Y48.891 I-0.002 J-0.002
G3 Y48.8909 I0.125 J-0.0009
G2 X34.4309 Y48.8864 I-0.0069 J0.0
G2 X34.4279 Y48.8853 I-0.0029 J0.0035
G3 X34.427 I-0.0005 J-0.125
G2 X34.4237 Y48.8866 I0.0 J0.0046
G3 X34.3354 Y48.9231 I-0.0883 J-0.0885
G1 X33.8952
G1 X33.6163
G1 X33.4507
G1 X33.1761
G3 X33.0878 Y48.8866 I0.0 J-0.125
G2 X33.0845 Y48.8853 I-0.0032 J0.0032
G3 X33.0835 I-0.0005 J-0.125
G2 X33.0806 Y48.8864 I0.0 J0.0044
G3 X33.0805 Y48.8865 I-0.0892 J-0.0875
G2 X33.0792 Y48.8896 I0.0031 J0.0031
G3 Y48.8907 I-0.125 J0.0006
G2 X33.0805 Y48.8938 I0.0045 J0.0
G3 X33.1164 Y48.9815 I-0.0891 J0.0876
G1 Y49.1231
G3 X33.0805 Y49.2108 I-0.125 J0.0
G2 X33.0792 Y49.2139 I0.0031 J0.0031
G3 Y49.2149 I-0.125 J0.0005
G2 X33.0806 Y49.2182 I0.0047 J0.0
G3 X33.0812 Y49.2189 I-0.0892 J0.0876
G2 X33.0832 Y49.2197 I0.0019 J-0.0021
G0 Z1.5
G0 X30.6827 Y39.3396
G1 F10.0 Z0.0
G1 F30.0 X31.1299 Z-0.4472
G3 X31.2176 Y39.3755 Z-0.5445 I0.0 J0.125
G2 X31.222 Y39.3774 Z-0.5493 I0.0047 J-0.0047
G2 X31.2227 Y39.3773 Z-0.55 I-0.0002 J-0.005
G2 X31.2268 Y39.3724 I-0.0009 J-0.005
G2 X31.2247 Y39.3683 I-0.0051 J0.0
G3 X31.1744 Y39.268 I0.0746 J-0.1003
G1 Y39.1521
G3 X31.2252 Y39.0515 I0.125 J0.0
G2 X31.2268 Y39.0483 I-0.0024 J-0.0032
G3 Y39.0476 I0.125 J-0.0003
G2 X31.2223 Y39.043 I-0.0045 J0.0
G3 X31.221 I-0.0007 J-0.125
G2 X31.2179 Y39.0443 I0.0 J0.0044
G3 X31.1296 Y39.0809 I-0.0883 J-0.0884
G1 X30.4692
G3 X30.381 Y39.0445 I0.0 J-0.125
G2 X30.3775 Y39.043 I-0.0034 J0.0035
G3 X30.377 I-0.0004 J-0.125
G2 X30.3719 Y39.048 I0.0 J0.0051
G2 X30.3739 Y39.0517 I0.0049 J-0.0001
G3 X30.4244 Y39.1521 I-0.0745 J0.1004
G1 Y39.268
G3 X30.3734 Y39.3687 I-0.125 J0.0
G2 X30.3719 Y39.3717 I0.0022 J0.003
G3 Y39.3724 I-0.125 J0.0005
G2 X30.377 Y39.3774 I0.0051 J0.0
G3 X30.3781 I0.0001 J0.125
G2 X30.3799 Y39.3767 I0.0 J-0.0025
G3 X30.4688 Y39.3396 I0.0889 J0.0879
G1 X31.1299
G3 X31.2176 Y39.3755 I0.0 J0.125
G2 X31.222 Y39.3774 I0.0047 J-0.0047
G2 X31.2227 Y39.3773 I-0.0002 J-0.005
G0 Z1.5
G0 X27.6578 Y39.3396
G1 F10.0 Z0.0
G1 F30.0 X28.0987 Z-0.4409
G3 X28.1863 Y39.3754 Z-0.538 I0.0 J0.125
G2 X28.1909 Y39.3774 Z-0.5431 I0.0048 J-0.0049
G2 X28.1952 Y39.3729 Z-0.55 I-0.0002 J-0.0045
G3 Y39.3723 I0.125 J-0.0007
G2 X28.1933 Y39.3685 I-0.0047 J0.0
G3 X28.1431 Y39.2684 I0.0748 J-0.1001
G1 Y39.1521
G3 X28.194 Y39.0514 I0.125 J0.0
G2 X28.1952 Y39.049 I-0.0018 J-0.0024
G3 Y39.0475 I0.125 J-0.0011
G2 X28.1907 Y39.043 I-0.0045 J0.0
G3 X28.1898 I-0.0004 J-0.125
G2 X28.1867 Y39.0443 I0.0 J0.0043
G3 X28.0983 Y39.0809 I-0.0884 J-0.0884
G1 X27.4376
G3 X27.3493 Y39.0444 I0.0 J-0.125
G2 X27.346 Y39.043 I-0.0033 J0.0033
G3 X27.3452 I-0.0005 J-0.125
G2 X27.3407 Y39.0476 I0.0 J0.0045
G3 Y39.0478 I-0.125 J0.0004
G2 X27.3427 Y39.0517 I0.0049 J0.0
G3 X27.3931 Y39.1521 I-0.0746 J0.1003
G1 Y39.268
G3 X27.3422 Y39.3687 I-0.125 J0.0
G2 X27.3407 Y39.3717 I0.0022 J0.0029
G3 Y39.3724 I-0.125 J0.0005
G2 X27.3457 Y39.3774 I0.0051 J0.0
G3 X27.3465 I-0.0002 J0.125
G2 X27.3483 Y39.3767 I0.0 J-0.0025
G3 X27.4372 Y39.3396 I0.0889 J0.0879
G1 X28.0987
G3 X28.1863 Y39.3754 I0.0 J0.125
G2 X28.1909 Y39.3774 I0.0048 J-0.0049
G2 X28.1952 Y39.3729 I-0.0002 J-0.0045
G0 Z1.5
G0 X35.5212 Y39.0809
G1 F10.0 Z0.0
G1 F30.0 X35.4386 Z-0.0826
G3 X35.3503 Y39.0444 Z-0.1807 I0.0 J-0.125
G2 X35.347 Y39.043 Z-0.1843 I-0.0033 J0.0033
G3 X35.3462 Z-0.1851 I-0.0005 J-0.125
G2 X35.3417 Y39.0475 Z-0.1922 I0.0 J0.0045
G3 Y39.0478 Z-0.1924 I-0.125 J0.0004
G2 X35.3437 Y39.0517 Z-0.197 I0.0049 J0.0
G3 X35.3941 Y39.1521 Z-0.3135 I-0.0746 J0.1003
G1 Y39.268 Z-0.4295
G3 X35.3432 Y39.3687 Z-0.5465 I-0.125 J0.0
G2 X35.3417 Y39.3717 Z-0.55 I0.0022 J0.003
G3 Y39.3723 I-0.125 J0.0005
G2 X35.3468 Y39.3774 I0.0051 J0.0
G3 X35.3474 I-0.0002 J0.125
G2 X35.3495 Y39.3766 I0.0 J-0.0029
G3 X35.4382 Y39.3396 I0.0888 J0.088
G1 X36.0997
G3 X36.1873 Y39.3754 I0.0 J0.125
G2 X36.1919 Y39.3774 I0.0049 J-0.0049
G2 X36.1962 Y39.3729 I-0.0002 J-0.0045
G3 Y39.3723 I0.125 J-0.0007
G2 X36.1943 Y39.3685 I-0.0048 J0.0
G3 X36.1441 Y39.2684 I0.0748 J-0.1001
G1 Y39.1521
G3 X36.195 Y39.0514 I0.125 J0.0
G2 X36.1962 Y39.049 I-0.0017 J-0.0024
G3 Y39.0475 I0.125 J-0.0011
G2 X36.1917 Y39.043 I-0.0045 J0.0
G3 X36.1908 I-0.0004 J-0.125
G2 X36.1877 Y39.0443 I0.0 J0.0044
G3 X36.0993 Y39.0809 I-0.0883 J-0.0884
G1 X35.4386
G3 X35.3503 Y39.0444 I0.0 J-0.125
G2 X35.347 Y39.043 I-0.0033 J0.0033
G3 X35.3462 I-0.0005 J-0.125
G2 X35.3417 Y39.0475 I0.0 J0.0045
G3 Y39.0478 I-0.125 J0.0004
G2 X35.3437 Y39.0517 I0.0049 J0.0
G3 X35.3941 Y39.1521 I-0.0746 J0.1003
G1 Y39.268
G3 X35.3432 Y39.3687 I-0.125 J0.0
G2 X35.3417 Y39.3717 I0.0022 J0.003
G0 Z1.5
G0 X38.5527 Y39.0809
G1 F10.0 Z0.0
G1 F30.0 X38.4702 Z-0.0826
G3 X38.3818 Y39.0443 Z-0.1807 I0.0 J-0.125
G2 X38.3787 Y39.043 Z-0.1841 I-0.0031 J0.0031
G3 X38.378 Z-0.1848 I-0.0005 J-0.125
G2 X38.373 Y39.0479 Z-0.1926 I0.0 J0.0051
G2 X38.3749 Y39.0517 Z-0.1971 I0.0049 J-0.0002
G3 X38.4254 Y39.1521 Z-0.3135 I-0.0746 J0.1003
G1 Y39.268 Z-0.4295
G3 X38.3744 Y39.3687 Z-0.5466 I-0.125 J0.0
G2 X38.3729 Y39.3717 Z-0.55 I0.0022 J0.0029
G3 Y39.3724 I-0.125 J0.0005
G2 X38.378 Y39.3774 I0.0051 J0.0
G3 X38.379 I0.0001 J0.125
G2 X38.381 Y39.3766 I0.0 J-0.0029
G3 X38.4698 Y39.3396 I0.0888 J0.088
G1 X39.1309
G3 X39.2185 Y39.3754 I0.0 J0.125
G2 X39.2231 Y39.3774 I0.005 J-0.0051
G2 X39.2278 Y39.3723 I-0.0003 J-0.0051
G2 X39.2258 Y39.3684 I-0.0049 J0.0
G3 X39.1754 Y39.268 I0.0746 J-0.1003
G1 Y39.1521
G3 X39.2262 Y39.0515 I0.125 J0.0
G2 X39.2278 Y39.0482 I-0.0024 J-0.0033
G3 Y39.0475 I0.125 J-0.0003
G2 X39.2233 Y39.043 I-0.0045 J0.0
G3 X39.222 I-0.0007 J-0.125
G2 X39.2189 Y39.0443 I0.0 J0.0043
G3 X39.1306 Y39.0809 I-0.0884 J-0.0884
G1 X38.4702
G3 X38.3818 Y39.0443 I0.0 J-0.125
G2 X38.3787 Y39.043 I-0.0031 J0.0031
G3 X38.378 I-0.0005 J-0.125
G2 X38.373 Y39.0479 I0.0 J0.0051
G2 X38.3749 Y39.0517 I0.0049 J-0.0002
G3 X38.4254 Y39.1521 I-0.0746 J0.1003
G1 Y39.268
G3 X38.3744 Y39.3687 I-0.125 J0.0
G2 X38.3729 Y39.3717 I0.0022 J0.0029
G0 Z1.5
G0 X37.6929 Y15.6119
G1 F10.0 Z0.0
G1 F30.0 X38.2429 Z-0.55
G2 X38.2552 Y15.6034 I-0.0023 J-0.0166
G3 X38.2573 Y15.5998 I0.1093 J0.0607
G2 X38.2757 Y15.5322 I-0.1106 J-0.0664
G3 Y15.531 I0.125 J-0.0012
G1 Y13.7441
G3 Y13.743 I0.125 J0.0
G2 X38.2573 Y13.6751 I-0.1299 J-0.0012
G3 X38.255 Y13.6711 I0.1072 J-0.0642
G2 X38.2431 Y13.6629 I-0.014 J0.0077
G1 X34.7881
G2 X34.7756 Y13.6716 I0.0025 J0.017
G3 X34.7734 Y13.6753 I-0.1093 J-0.0606
G2 X34.7552 Y13.7426 I0.1095 J0.0657
G3 X34.7553 Y13.7441 I-0.125 J0.0016
G1 Y15.531
G3 Y15.5315 I-0.125 J0.0
G2 X34.7739 Y15.6005 I0.1344 J0.0006
G3 X34.7756 Y15.6034 I-0.1076 J0.0635
G2 X34.7879 Y15.6119 I0.0147 J-0.0082
G1 X38.2429
G0 Z1.5
G0 X41.3417 Y15.1036
G1 F10.0 Z0.0
G1 F30.0 Y15.5521 Z-0.4485
G3 X41.3051 Y15.6405 Z-0.5466 I-0.125 J0.0
G2 X41.3039 Y15.6435 Z-0.55 I0.0031 J0.0031
G1 Y15.6436
G3 Y15.6449 I-0.125 J0.0006
G2 X41.3083 Y15.6494 I0.0045 J0.0
G3 X41.3091 I0.0004 J0.125
G2 X41.3123 Y15.6478 I0.0 J-0.0039
G3 X41.4129 Y15.5969 I0.1006 J0.0742
G1 X41.5289
G3 X41.6291 Y15.6473 I0.0 J0.125
G2 X41.6332 Y15.6494 I0.0041 J-0.003
G2 X41.6382 Y15.6446 I0.0 J-0.0051
G2 X41.6363 Y15.6401 I-0.0069 J0.0004
G3 X41.6004 Y15.5525 I0.0891 J-0.0876
G1 Y14.8914
G3 X41.6374 Y14.8025 I0.125 J0.0
G2 X41.6382 Y14.8006 I-0.0019 J-0.0019
G3 Y14.7995 I0.125 J-0.0009
G2 X41.6332 Y14.7945 I-0.005 J0.0
G3 X41.6324 I-0.0001 J-0.125
G2 X41.6296 Y14.7959 I0.0 J0.0035
G3 X41.5289 Y14.8469 I-0.1007 J-0.074
G1 X41.4129
G3 X41.3126 Y14.7965 I0.0 J-0.125
G2 X41.3087 Y14.7945 I-0.004 J0.003
G2 X41.3039 Y14.7996 I0.0002 J0.0051
G3 Y14.8001 I-0.125 J0.0001
G2 X41.3052 Y14.8035 I0.0047 J0.0
G3 X41.3417 Y14.8917 I-0.0885 J0.0883
G1 Y15.5521
G3 X41.3051 Y15.6405 I-0.125 J0.0
G2 X41.3039 Y15.6435 I0.0031 J0.0031
G0 Z1.5
G0 X41.3417 Y12.082
G1 F10.0 Z0.0
G1 F30.0 Y12.5209 Z-0.4389
G3 X41.3051 Y12.6092 Z-0.537 I-0.125 J0.0
G2 X41.3039 Y12.6123 Z-0.5405 I0.0031 J0.0031
G3 Y12.6133 Z-0.5414 I-0.125 J0.0006
G2 X41.3083 Y12.6178 Z-0.5484 I0.0045 J0.0
G3 X41.3099 Z-0.55 I0.0004 J0.125
G2 X41.3122 Y12.6166 I0.0 J-0.0029
G3 X41.4129 Y12.5657 I0.1007 J0.0741
G1 X41.5292
G3 X41.6293 Y12.6159 I0.0 J0.125
G2 X41.6331 Y12.6178 I0.0038 J-0.0028
G3 X41.6337 I-0.0001 J0.125
G2 X41.6382 Y12.6135 I0.0 J-0.0045
G2 X41.6362 Y12.6089 I-0.007 J0.0003
G3 X41.6004 Y12.5212 I0.0892 J-0.0876
G1 Y11.8598
G3 X41.6375 Y11.7709 I0.125 J0.0
G2 X41.6382 Y11.7691 I-0.0018 J-0.0018
G3 Y11.7683 I0.125 J-0.001
G2 X41.6332 Y11.7633 I-0.0051 J0.0
G3 X41.6325 Y11.7632 I-0.0001 J-0.125
G2 X41.6296 Y11.7647 I0.0 J0.0037
G3 X41.5289 Y11.8157 I-0.1007 J-0.0741
G1 X41.4129
G3 X41.3126 Y11.7653 I0.0 J-0.125
G2 X41.3085 Y11.7633 I-0.0041 J0.003
G3 X41.3084 I0.0002 J-0.125
G2 X41.3039 Y11.7678 I0.0 J0.0045
G3 Y11.7686 I-0.125 J0.0003
G2 X41.3052 Y11.7718 I0.0046 J0.0
G3 X41.3417 Y11.8601 I-0.0885 J0.0883
G1 Y12.5209
G3 X41.3051 Y12.6092 I-0.125 J0.0
G2 X41.3039 Y12.6123 I0.0031 J0.0031
G3 Y12.6133 I-0.125 J0.0006
G2 X41.3083 Y12.6178 I0.0045 J0.0
G3 X41.3099 I0.0004 J0.125
G0 Z1.5
G0 X41.3417 Y7.1118
G1 F10.0 Z0.0
G1 F30.0 Y7.5511 Z-0.4393
G3 X41.3051 Y7.6394 Z-0.5375 I-0.125 J0.0
G2 X41.3039 Y7.6426 Z-0.5409 I0.0031 J0.0031
G3 Y7.6438 Z-0.5422 I-0.125 J0.0006
G2 X41.3083 Y7.6483 Z-0.5492 I0.0045 J0.0
G3 X41.3091 Z-0.55 I0.0004 J0.125
G2 X41.3123 Y7.6467 I0.0 J-0.0039
G3 X41.4129 Y7.5959 I0.1006 J0.0742
G1 X41.5289
G3 X41.6291 Y7.6463 I0.0 J0.125
G2 X41.6332 Y7.6483 I0.0041 J-0.003
G2 X41.6382 Y7.6435 I0.0 J-0.0051
G2 X41.6363 Y7.6391 I-0.0068 J0.0003
G3 X41.6004 Y7.5515 I0.0891 J-0.0877
G1 Y6.8903
G3 X41.6374 Y6.8015 I0.125 J0.0
G2 X41.6382 Y6.7996 I-0.0019 J-0.0019
G3 Y6.7985 I0.125 J-0.0009
G2 X41.6332 Y6.7935 I-0.005 J0.0
G3 X41.6324 I-0.0002 J-0.125
G2 X41.6296 Y6.7949 I0.0 J0.0035
G3 X41.5289 Y6.8459 I-0.1007 J-0.074
G1 X41.4129
G3 X41.3126 Y6.7955 I0.0 J-0.125
G2 X41.3085 Y6.7935 I-0.004 J0.003
G3 X41.3084 I0.0002 J-0.125
G2 X41.3039 Y6.798 I0.0 J0.0045
G3 Y6.7991 I-0.125 J0.0007
G2 X41.3052 Y6.8024 I0.0046 J0.0
G3 X41.3417 Y6.8907 I-0.0885 J0.0883
G1 Y7.5511
G3 X41.3051 Y7.6394 I-0.125 J0.0
G2 X41.3039 Y7.6426 I0.0031 J0.0031
G3 Y7.6438 I-0.125 J0.0006
G2 X41.3083 Y7.6483 I0.0045 J0.0
G3 X41.3091 I0.0004 J0.125
G0 Z1.5
G0 X41.3417 Y4.081
G1 F10.0 Z0.0
G1 F30.0 Y4.5199 Z-0.4389
G3 X41.3051 Y4.6082 Z-0.537 I-0.125 J0.0
G2 X41.3039 Y4.6113 Z-0.5405 I0.0031 J0.0031
G3 Y4.6123 Z-0.5414 I-0.125 J0.0006
G2 X41.3083 Y4.6167 Z-0.5484 I0.0045 J0.0
G3 X41.3099 Z-0.55 I0.0004 J0.125
G2 X41.3122 Y4.6156 I0.0 J-0.0029
G3 X41.4129 Y4.5647 I0.1007 J0.0741
G1 X41.5292
G3 X41.6293 Y4.6148 I0.0 J0.125
G2 X41.6331 Y4.6167 I0.0038 J-0.0028
G3 X41.6337 I-0.0001 J0.125
G2 X41.6382 Y4.6125 I0.0 J-0.0045
G2 X41.6362 Y4.6078 I-0.0071 J0.0003
G3 X41.6004 Y4.5202 I0.0892 J-0.0876
G1 Y3.8588
G3 X41.6375 Y3.7699 I0.125 J0.0
G2 X41.6382 Y3.768 I-0.0018 J-0.0018
G3 Y3.7673 I0.125 J-0.0009
G2 X41.6332 Y3.7622 I-0.0051 J0.0
G3 X41.6325 I-0.0001 J-0.125
G2 X41.6296 Y3.7637 I0.0 J0.0036
G3 X41.5289 Y3.8147 I-0.1007 J-0.0741
G1 X41.4129
G3 X41.3126 Y3.7643 I0.0 J-0.125
G2 X41.3085 Y3.7622 I-0.0041 J0.003
G3 X41.3084 I0.0002 J-0.125
G2 X41.3039 Y3.7667 I0.0 J0.0045
G3 Y3.7676 I-0.125 J0.0004
G2 X41.3052 Y3.7708 I0.0046 J0.0
G3 X41.3417 Y3.8591 I-0.0885 J0.0883
G1 Y4.5199
G3 X41.3051 Y4.6082 I-0.125 J0.0
G2 X41.3039 Y4.6113 I0.0031 J0.0031
G3 Y4.6123 I-0.125 J0.0006
G2 X41.3083 Y4.6167 I0.0045 J0.0
G3 X41.3099 I0.0004 J0.125
G0 Z1.5
G0 X38.6862 Y1.5851
G1 F10.0 Z0.0
G1 F30.0 X39.1306 Z-0.4444
G3 X39.2189 Y1.6217 Z-0.5425 I0.0 J0.125
G2 X39.222 Y1.623 Z-0.546 I0.0031 J-0.0031
G3 X39.2233 Z-0.5473 I0.0006 J0.125
G2 X39.2259 Y1.6222 Z-0.55 I0.0 J-0.0045
G2 X39.2278 Y1.6185 I-0.0026 J-0.0037
G3 Y1.6178 I0.125 J-0.0004
G2 X39.2261 Y1.6145 I-0.0041 J0.0
G3 X39.1754 Y1.514 I0.0742 J-0.1006
G1 Y1.398
G3 X39.2258 Y1.2977 I0.125 J0.0
G2 X39.2278 Y1.2937 I-0.0029 J-0.004
G2 X39.2231 Y1.2886 I-0.0051 J0.0
G2 X39.2185 Y1.2907 I0.0005 J0.0072
G3 X39.1309 Y1.3265 I-0.0876 J-0.0892
G1 X38.4698
G3 X38.381 Y1.2895 I0.0 J-0.125
G2 X38.379 Y1.2886 I-0.002 J0.002
G3 X38.378 I-0.0008 J-0.125
G2 X38.3729 Y1.2937 I0.0 J0.0051
G3 Y1.2943 I-0.125 J0.0001
G2 X38.3744 Y1.2973 I0.0037 J0.0
G3 X38.4254 Y1.398 I-0.0741 J0.1007
G1 Y1.514
G3 X38.3749 Y1.6143 I-0.125 J0.0
G2 X38.373 Y1.6181 I0.0029 J0.004
G2 X38.378 Y1.623 I0.0051 J-0.0002
G3 X38.3787 I0.0001 J0.125
G2 X38.3818 Y1.6217 I0.0 J-0.0044
G3 X38.4702 Y1.5851 I0.0883 J0.0884
G1 X39.1306
G3 X39.2189 Y1.6217 I0.0 J0.125
G2 X39.222 Y1.623 I0.0031 J-0.0031
G3 X39.2233 I0.0006 J0.125
G2 X39.2259 Y1.6222 I0.0 J-0.0045
G0 Z1.5
G0 X35.6604 Y1.5851
G1 F10.0 Z0.0
G1 F30.0 X36.0993 Z-0.4389
G3 X36.1877 Y1.6217 Z-0.537 I0.0 J0.125
G2 X36.1908 Y1.623 Z-0.5405 I0.0031 J-0.0031
G3 X36.1917 Z-0.5414 I0.0006 J0.125
G2 X36.1962 Y1.6185 Z-0.5485 I0.0 J-0.0045
G3 Y1.617 Z-0.55 I0.125 J-0.0004
G2 X36.195 Y1.6146 I-0.0029 J0.0
G3 X36.1441 Y1.514 I0.0741 J-0.1007
G1 Y1.3976
G3 X36.1943 Y1.2975 I0.125 J0.0
G2 X36.1962 Y1.2937 I-0.0029 J-0.0038
G3 Y1.2931 I0.125 J0.0001
G2 X36.1919 Y1.2886 I-0.0045 J0.0
G2 X36.1873 Y1.2906 I0.0003 J0.0069
G3 X36.0997 Y1.3265 I-0.0876 J-0.0891
G1 X35.4382
G3 X35.3495 Y1.2895 I0.0 J-0.125
G2 X35.3474 Y1.2886 I-0.0021 J0.0021
G3 X35.3468 I-0.0008 J-0.125
G2 X35.3417 Y1.2937 I0.0 J0.0051
G3 Y1.2943 I-0.125 J0.0001
G2 X35.3432 Y1.2973 I0.0037 J0.0
G3 X35.3941 Y1.398 I-0.0741 J0.1007
G1 Y1.514
G3 X35.3437 Y1.6143 I-0.125 J0.0
G2 X35.3417 Y1.6183 I0.0029 J0.004
G3 Y1.6185 I-0.125 J-0.0001
G2 X35.3462 Y1.623 I0.0045 J0.0
G3 X35.347 I0.0004 J0.125
G2 X35.3503 Y1.6216 I0.0 J-0.0046
G3 X35.4386 Y1.5851 I0.0883 J0.0885
G1 X36.0993
G3 X36.1877 Y1.6217 I0.0 J0.125
G2 X36.1908 Y1.623 I0.0031 J-0.0031
G3 X36.1917 I0.0006 J0.125
G2 X36.1962 Y1.6185 I0.0 J-0.0045
G3 Y1.617 I0.125 J-0.0004
G0 Z1.5
G0 X30.6902 Y1.5851
G1 F10.0 Z0.0
G1 F30.0 X31.1296 Z-0.4394
G3 X31.2179 Y1.6217 Z-0.5375 I0.0 J0.125
G2 X31.221 Y1.623 Z-0.541 I0.0031 J-0.0031
G3 X31.2223 Z-0.5422 I0.0006 J0.125
G2 X31.2268 Y1.6185 Z-0.5493 I0.0 J-0.0045
G3 Y1.6178 Z-0.55 I0.125 J-0.0003
G2 X31.2252 Y1.6146 I-0.004 J0.0
G3 X31.1744 Y1.514 I0.0742 J-0.1006
G1 Y1.398
G3 X31.2247 Y1.2977 I0.125 J0.0
G2 X31.2268 Y1.2937 I-0.003 J-0.0041
G2 X31.222 Y1.2886 I-0.0051 J0.0
G2 X31.2176 Y1.2905 I0.0003 J0.0066
G3 X31.1299 Y1.3265 I-0.0877 J-0.0891
G1 X30.4688
G3 X30.3799 Y1.2893 I0.0 J-0.125
G2 X30.3781 Y1.2886 I-0.0018 J0.0017
G3 X30.377 I-0.001 J-0.125
G2 X30.3719 Y1.2937 I0.0 J0.0051
G3 Y1.2943 I-0.125 J0.0001
G2 X30.3734 Y1.2973 I0.0037 J0.0
G3 X30.4244 Y1.398 I-0.0741 J0.1007
G1 Y1.514
G3 X30.3739 Y1.6143 I-0.125 J0.0
G2 X30.3719 Y1.6181 I0.0029 J0.0039
G2 X30.377 Y1.623 I0.0051 J-0.0002
G3 X30.3775 I0.0001 J0.125
G2 X30.381 Y1.6216 I0.0 J-0.0049
G3 X30.4692 Y1.5851 I0.0882 J0.0886
G1 X31.1296
G3 X31.2179 Y1.6217 I0.0 J0.125
G2 X31.221 Y1.623 I0.0031 J-0.0031
G3 X31.2223 I0.0006 J0.125
G2 X31.2268 Y1.6185 I0.0 J-0.0045
G3 Y1.6178 I0.125 J-0.0003
G0 Z1.5
G0 X27.6594 Y1.5851
G1 F10.0 Z0.0
G1 F30.0 X28.0983 Z-0.439
G3 X28.1867 Y1.6217 Z-0.5371 I0.0 J0.125
G2 X28.1898 Y1.623 Z-0.5405 I0.0031 J-0.0031
G3 X28.1907 Z-0.5415 I0.0006 J0.125
G2 X28.1952 Y1.6185 Z-0.5485 I0.0 J-0.0045
G3 Y1.617 Z-0.55 I0.125 J-0.0004
G2 X28.194 Y1.6146 I-0.003 J0.0
G3 X28.1431 Y1.514 I0.0741 J-0.1007
G1 Y1.3976
G3 X28.1933 Y1.2975 I0.125 J0.0
G2 X28.1952 Y1.2937 I-0.0028 J-0.0038
G3 Y1.2931 I0.125 J0.0001
G2 X28.1909 Y1.2886 I-0.0045 J0.0
G2 X28.1863 Y1.2906 I0.0003 J0.0069
G3 X28.0987 Y1.3265 I-0.0876 J-0.0891
G1 X27.4372
G3 X27.3483 Y1.2894 I0.0 J-0.125
G2 X27.3465 Y1.2886 I-0.0018 J0.0018
G3 X27.3457 I-0.001 J-0.125
G2 X27.3407 Y1.2937 I0.0 J0.0051
G3 Y1.2943 I-0.125 J0.0001
G2 X27.3422 Y1.2973 I0.0037 J0.0
G3 X27.3931 Y1.398 I-0.0741 J0.1007
G1 Y1.514
G3 X27.3427 Y1.6143 I-0.125 J0.0
G2 X27.3407 Y1.6182 I0.0029 J0.004
G3 Y1.6185 I-0.125 J-0.0001
G2 X27.3452 Y1.623 I0.0045 J0.0
G3 X27.346 I0.0004 J0.125
G2 X27.3493 Y1.6216 I0.0 J-0.0046
G3 X27.4376 Y1.5851 I0.0883 J0.0885
G1 X28.0983
G3 X28.1867 Y1.6217 I0.0 J0.125
G2 X28.1898 Y1.623 I0.0031 J-0.0031
G3 X28.1907 I0.0006 J0.125
G2 X28.1952 Y1.6185 I0.0 J-0.0045
G3 Y1.617 I0.125 J-0.0004
G0 Z1.5
G0 X25.2334 Y4.3039
G1 F10.0 Z0.0
G1 F30.0 Y3.8588 Z-0.4451
G3 X25.2705 Y3.7699 Z-0.544 I0.125 J0.0
G2 X25.2712 Y3.768 Z-0.5461 I-0.0018 J-0.0019
G3 Y3.7673 Z-0.5468 I0.125 J-0.0009
G2 X25.2703 Y3.7643 Z-0.55 I-0.005 J0.0
G2 X25.2662 Y3.7622 I-0.0041 J0.003
G3 X25.2655 I-0.0001 J-0.125
G2 X25.2626 Y3.7637 I0.0 J0.0035
G3 X25.1619 Y3.8147 I-0.1007 J-0.074
G1 X25.0459
G3 X24.9456 Y3.7642 I0.0 J-0.125
G2 X24.9416 Y3.7622 I-0.004 J0.003
G3 X24.9414 I0.0001 J-0.125
G2 X24.9369 Y3.7667 I0.0 J0.0045
G3 Y3.7676 I-0.125 J0.0004
G2 X24.9382 Y3.7708 I0.0046 J0.0
G3 X24.9747 Y3.8591 I-0.0885 J0.0883
G1 Y4.5199
G3 X24.9381 Y4.6082 I-0.125 J0.0
G2 X24.9369 Y4.6113 I0.0031 J0.0031
G3 Y4.6123 I-0.125 J0.0006
G2 X24.9414 Y4.6167 I0.0045 J0.0
G3 X24.9428 I0.0004 J0.125
G2 X24.9453 Y4.6155 I0.0 J-0.003
G3 X25.0459 Y4.5647 I0.1006 J0.0741
G1 X25.1622
G3 X25.2623 Y4.6148 I0.0 J0.125
G2 X25.2662 Y4.6167 I0.0039 J-0.0029
G3 X25.2667 I-0.0002 J0.125
G2 X25.2712 Y4.6124 I0.0 J-0.0045
G2 X25.2692 Y4.6078 I-0.007 J0.0003
G3 X25.2334 Y4.5202 I0.0892 J-0.0876
G1 Y3.8588
G3 X25.2705 Y3.7699 I0.125 J0.0
G2 X25.2712 Y3.768 I-0.0018 J-0.0019
G3 Y3.7673 I0.125 J-0.0009
G2 X25.2703 Y3.7643 I-0.005 J0.0
G0 Z1.5
G0 X25.2334 Y7.3297
G1 F10.0 Z0.0
G1 F30.0 Y6.8903 Z-0.4393
G3 X25.2705 Y6.8015 Z-0.5381 I0.125 J0.0
G2 X25.2712 Y6.7996 Z-0.5403 I-0.0019 J-0.0019
G3 Y6.7985 Z-0.5413 I0.125 J-0.0009
G2 X25.2662 Y6.7935 Z-0.5493 I-0.005 J0.0
G3 X25.2655 Z-0.55 I-0.0002 J-0.125
G2 X25.2626 Y6.7949 I0.0 J0.0035
G3 X25.1619 Y6.8459 I-0.1007 J-0.074
G1 X25.0459
G3 X24.9456 Y6.7954 I0.0 J-0.125
G2 X24.9418 Y6.7935 I-0.0039 J0.0029
G2 X24.9369 Y6.7985 I0.0002 J0.0051
G3 Y6.7991 I-0.125 J0.0001
G2 X24.9382 Y6.8024 I0.0046 J0.0
G3 X24.9747 Y6.8907 I-0.0885 J0.0883
G1 Y7.5511
G3 X24.9382 Y7.6394 I-0.125 J0.0
G2 X24.9369 Y7.6426 I0.0031 J0.0031
G3 Y7.6438 I-0.125 J0.0006
G2 X24.9414 Y7.6483 I0.0045 J0.0
G3 X24.942 I0.0004 J0.125
G2 X24.9453 Y7.6467 I0.0 J-0.0041
G3 X25.0459 Y7.5959 I0.1006 J0.0742
G1 X25.1619
G3 X25.2622 Y7.6463 I0.0 J0.125
G2 X25.2662 Y7.6483 I0.0041 J-0.0031
G2 X25.2712 Y7.6435 I0.0 J-0.0051
G2 X25.2693 Y7.6391 I-0.0068 J0.0004
G3 X25.2334 Y7.5515 I0.0891 J-0.0877
G1 Y6.8903
G3 X25.2705 Y6.8015 I0.125 J0.0
G2 X25.2712 Y6.7996 I-0.0019 J-0.0019
G3 Y6.7985 I0.125 J-0.0009
G2 X25.2662 Y6.7935 I-0.005 J0.0
G3 X25.2655 I-0.0002 J-0.125
G0 Z1.5
G0 X25.2334 Y12.2994
G1 F10.0 Z0.0
G1 F30.0 Y11.8598 Z-0.4397
G3 X25.2705 Y11.7709 Z-0.5385 I0.125 J0.0
G2 X25.2712 Y11.7691 Z-0.5406 I-0.0018 J-0.0018
G3 Y11.7683 Z-0.5413 I0.125 J-0.001
G2 X25.2662 Y11.7633 Z-0.5493 I-0.005 J0.0
G3 X25.2655 Y11.7632 Z-0.55 I-0.0001 J-0.125
G1 X25.2654
G2 X25.2626 Y11.7647 I0.0 J0.0035
G3 X25.1619 Y11.8157 I-0.1007 J-0.074
G1 X25.0459
G3 X24.9456 Y11.7652 I0.0 J-0.125
G2 X24.9416 Y11.7633 I-0.004 J0.0029
G3 X24.9414 I0.0001 J-0.125
G2 X24.9369 Y11.7677 I0.0 J0.0045
G3 Y11.7686 I-0.125 J0.0004
G2 X24.9382 Y11.7718 I0.0046 J0.0
G3 X24.9747 Y11.8601 I-0.0885 J0.0883
G1 Y12.5209
G3 X24.9382 Y12.6092 I-0.125 J0.0
G2 X24.9369 Y12.6123 I0.0031 J0.0031
G3 Y12.6133 I-0.125 J0.0006
G2 X24.9414 Y12.6178 I0.0045 J0.0
G3 X24.9428 I0.0004 J0.125
G2 X24.9453 Y12.6165 I0.0 J-0.003
G3 X25.0459 Y12.5657 I0.1006 J0.0741
G1 X25.1622
G3 X25.2623 Y12.6158 I0.0 J0.125
G2 X25.2662 Y12.6178 I0.0039 J-0.0029
G3 X25.2667 I-0.0002 J0.125
G2 X25.2712 Y12.6134 I0.0 J-0.0045
G2 X25.2693 Y12.6089 I-0.0069 J0.0003
G3 X25.2334 Y12.5212 I0.0891 J-0.0876
G1 Y11.8598
G3 X25.2705 Y11.7709 I0.125 J0.0
G2 X25.2712 Y11.7691 I-0.0018 J-0.0018
G3 Y11.7683 I0.125 J-0.001
