( Made using CamBam - http://www.cambam.co.uk )
( CNCWorkstation1.0.sheet1 4/9/2013 23:17:55 )
( T4 : 0.25 )
( T7 : 0.25 )
G20 G90 G64 G40
G0 Z0.25
( T7 : 0.25 )
T7 M6
( Engrave1 )
G17
M3 S1000
G0 X28.3376 Y83.9941
G1 F60.0 Z-0.1
G1 X28.115
G1 X27.8383
G1 X26.964
G1 X26.5886
G1 X26.4633
G3 X26.089 Y83.6198 I-0.0007 J-0.3736
G1 Y76.1198
G3 X26.4633 Y75.7455 I0.3735 J-0.0008
G1 X27.6747
G1 X27.8383
G1 X28.115
G1 X28.3376
G0 Z0.25
G0 X28.411 Y74.9297
G1 Z-0.1
G1 X28.1884
G1 X27.9117
G1 X27.0374
G1 X26.662
G1 X26.5367
G3 X26.1624 Y74.5554 I-0.0007 J-0.3736
G1 Y67.0554
G3 X26.5367 Y66.6811 I0.3735 J-0.0008
G1 X27.7481
G1 X27.9117
G1 X28.1884
G1 X28.411
G0 Z0.25
G0 X28.4106 Y68.1735
G1 Z-0.1
G1 X27.9975
G1 X27.5617
G1 X27.3252
G2 X26.9124 Y68.5863 I-0.001 J0.4119
G1 Y73.0245
G2 X27.3252 Y73.4374 I0.4118 J0.001
G1 X27.5617
G1 X27.9975
G1 X28.4106
G0 Z0.25
G0 X28.0187 Y72.7923
G1 Z-0.1
G1 X28.4319
G1 X28.8677
G1 X29.1042
G3 X29.517 Y73.2051 I0.001 J0.4118
G1 Y77.6433
G3 X29.1042 Y78.0561 I-0.4119 J0.001
G1 X28.8677
G1 X28.4319
G1 X28.0187
G0 Z0.25
G0 X28.3372 Y77.2379
G1 Z-0.1
G1 X27.924
G1 X27.4883
G1 X27.2518
G2 X26.839 Y77.6507 I-0.001 J0.4119
G1 Y82.0889
G2 X27.2518 Y82.5018 I0.4118 J0.001
G1 X27.4883
G1 X27.924
G1 X28.3372
G0 Z0.25
G0 X28.0998 Y81.8935
G1 Z-0.1
G1 X28.513
G1 X28.9487
G1 X29.1852
G3 X29.598 Y82.3064 I0.001 J0.4118
G1 Y86.7445
G3 X29.1852 Y87.1574 I-0.4119 J0.001
G1 X28.9487
G1 X28.513
G1 X28.0998
G0 Z0.25
G0 X28.4183 Y86.3391
G1 Z-0.1
G1 X28.0051
G1 X27.5693
G1 X27.3329
G2 X26.92 Y86.752 I-0.001 J0.4119
G1 Y91.1902
G2 X27.3329 Y91.603 I0.4118 J0.001
G1 X27.5693
G1 X28.0051
G1 X28.4183
G0 Z0.25
G0 X28.4186 Y93.0954
G1 Z-0.1
G1 X28.196
G1 X27.9193
G1 X27.045
G1 X26.6697
G1 X26.5443
G3 X26.17 Y92.7211 I-0.0007 J-0.3736
G1 Y85.2211
G3 X26.5443 Y84.8468 I0.3735 J-0.0008
G1 X27.7558
G1 X27.9193
G1 X28.196
G1 X28.4186
G0 Z0.25
G0 X28.0994 Y88.6497
G1 Z-0.1
G1 X28.322
G1 X28.5988
G1 X28.7623
G1 X29.9738
G2 X30.3481 Y88.2754 I0.0008 J-0.3735
G1 Y80.7755
G2 X29.9738 Y80.4011 I-0.3736 J-0.0007
G1 X29.8484
G1 X29.4731
G1 X28.5988
G1 X28.322
G1 X28.0994
G0 Z0.25
G0 X28.0184 Y79.5485
G1 Z-0.1
G1 X28.241
G1 X28.5177
G1 X28.6813
G1 X29.8927
G2 X30.267 Y79.1742 I0.0008 J-0.3735
G1 Y71.6742
G2 X29.8927 Y71.2999 I-0.3736 J-0.0007
G1 X29.7674
G1 X29.392
G1 X28.5177
G1 X28.241
G1 X28.0184
G0 Z0.25
G0 X27.2667 Y62.3745
G1 Z-0.1
G1 Y62.5971
G1 Y62.8738
G1 Y63.7481
G1 Y64.1235
G1 Y64.2488
G3 X26.8924 Y64.6231 I-0.3736 J0.0007
G1 X19.3924
G3 X19.0182 Y64.2488 I-0.0008 J-0.3735
G1 Y63.0373
G1 Y62.8738
G1 Y62.5971
G1 Y62.3745
G0 Z0.25
G0 X20.5105 Y62.3748
G1 Z-0.1
G1 Y62.788
G1 Y63.2238
G1 Y63.4602
G2 X20.9234 Y63.8731 I0.4119 J0.001
G1 X25.3615
G2 X25.7744 Y63.4602 I0.001 J-0.4118
G1 Y63.2238
G1 Y62.788
G1 Y62.3748
G0 Z0.25
G0 X27.9929 Y61.9258
G1 Z-0.1
G1 Y62.1483
G1 Y62.4251
G1 Y62.5886
G1 Y63.8001
G2 X28.3672 Y64.1744 I0.3735 J0.0008
G1 X35.8672
G2 X36.2415 Y63.8001 I0.0007 J-0.3736
G1 Y63.6747
G1 Y63.2994
G1 Y62.4251
G1 Y62.1483
G1 Y61.9258
G0 Z0.25
G0 X34.7491 Y61.9261
G1 Z-0.1
G1 Y62.3393
G1 Y62.7751
G1 Y63.0115
G3 X34.3363 Y63.4244 I-0.4118 J0.001
G1 X29.8981
G3 X29.4853 Y63.0115 I-0.001 J-0.4119
G1 Y62.7751
G1 Y62.3393
G1 Y61.9261
G0 Z0.25
G0 X18.1682 Y64.0773
G1 Z-0.1
G1 X18.1683 Y63.8547
G1 X18.1684 Y63.578
G1 Y63.4145
G1 X18.1689 Y62.203
G2 X17.7948 Y61.8286 I-0.3735 J-0.0009
G1 X10.2948 Y61.8256
G2 X9.9203 Y62.1997 I-0.0009 J0.3736
G1 Y62.3251
G1 X9.9201 Y62.7004
G1 X9.9198 Y63.5747
G1 X9.9197 Y63.8515
G1 X9.9196 Y64.074
G0 Z0.25
G0 X11.4119 Y64.0743
G1 Z-0.1
G1 X11.4121 Y63.6611
G1 X11.4123 Y63.2253
G1 X11.4124 Y62.9889
G3 X11.8254 Y62.5762 I0.4118 J-0.0009
G1 X16.2636 Y62.578
G3 X16.6763 Y62.991 I0.0008 J0.4119
G1 X16.6762 Y63.2274
G1 X16.676 Y63.6632
G1 X16.6758 Y64.0764
G0 Z0.25
G0 X9.1065 Y62.2705
G1 Z-0.1
G1 Y62.4931
G1 Y62.7698
G1 Y63.6441
G1 Y64.0195
G1 Y64.1448
G3 X8.7322 Y64.5191 I-0.3736 J0.0007
G1 X1.2322
G3 X0.8579 Y64.1448 I-0.0008 J-0.3735
G1 Y62.9334
G1 Y62.7698
G1 Y62.4931
G1 Y62.2705
G0 Z0.25
G0 X2.3503 Y62.2709
G1 Z-0.1
G1 Y62.684
G1 Y63.1198
G1 Y63.3563
G2 X2.7631 Y63.7691 I0.4119 J0.001
G1 X7.2013
G2 X7.6141 Y63.3563 I0.001 J-0.4118
G1 Y63.1198
G1 Y62.684
G1 Y62.2709
( Drill1 )
G0 Z0.5
( T4 : 0.25 )
T4 M6
M3 S1000
G0 X3.7004 Y80.1669
G0 Z0.5
G0 X3.7074 Y80.1669
G1 F10.0 Z0.0
G2 F50.0 X3.6969 Y80.1608 Z-0.3333 I-0.007 J0.0
G2 Y80.173 Z-0.6667 I0.0035 J0.0061
G2 X3.7074 Y80.1669 Z-1.0 I0.0035 J-0.0061
G2 X3.6969 Y80.1608 I-0.007 J0.0
G2 Y80.173 I0.0035 J0.0061
G2 X3.7074 Y80.1669 I0.0035 J-0.0061
G0 Z0.5
G0 Y82.1666
G1 F10.0 Z0.0
G2 F50.0 X3.6969 Y82.1605 Z-0.3333 I-0.007 J0.0
G2 Y82.1726 Z-0.6667 I0.0035 J0.0061
G2 X3.7074 Y82.1666 Z-1.0 I0.0035 J-0.0061
G2 X3.6969 Y82.1605 I-0.007 J0.0
G2 Y82.1726 I0.0035 J0.0061
G2 X3.7074 Y82.1666 I0.0035 J-0.0061
G0 Z0.5
G0 X5.7074
G1 F10.0 Z0.0
G2 F50.0 X5.6969 Y82.1605 Z-0.3333 I-0.007 J0.0
G2 Y82.1726 Z-0.6667 I0.0035 J0.0061
G2 X5.7074 Y82.1666 Z-1.0 I0.0035 J-0.0061
G2 X5.6969 Y82.1605 I-0.007 J0.0
G2 Y82.1726 I0.0035 J0.0061
G2 X5.7074 Y82.1666 I0.0035 J-0.0061
G0 Z0.5
G0 Y80.1669
G1 F10.0 Z0.0
G2 F50.0 X5.6969 Y80.1608 Z-0.3333 I-0.007 J0.0
G2 Y80.173 Z-0.6667 I0.0035 J0.0061
G2 X5.7074 Y80.1669 Z-1.0 I0.0035 J-0.0061
G2 X5.6969 Y80.1608 I-0.007 J0.0
G2 Y80.173 I0.0035 J0.0061
G2 X5.7074 Y80.1669 I0.0035 J-0.0061
G0 Z0.5
G0 Y78.1666
G1 F10.0 Z0.0
G2 F50.0 X5.6969 Y78.1605 Z-0.3333 I-0.007 J0.0
G2 Y78.1726 Z-0.6667 I0.0035 J0.0061
G2 X5.7074 Y78.1666 Z-1.0 I0.0035 J-0.0061
G2 X5.6969 Y78.1605 I-0.007 J0.0
G2 Y78.1726 I0.0035 J0.0061
G2 X5.7074 Y78.1666 I0.0035 J-0.0061
G0 Z0.5
G0 X3.7074
G1 F10.0 Z0.0
G2 F50.0 X3.6969 Y78.1605 Z-0.3333 I-0.007 J0.0
G2 Y78.1726 Z-0.6667 I0.0035 J0.0061
G2 X3.7074 Y78.1666 Z-1.0 I0.0035 J-0.0061
G2 X3.6969 Y78.1605 I-0.007 J0.0
G2 Y78.1726 I0.0035 J0.0061
G2 X3.7074 Y78.1666 I0.0035 J-0.0061
G0 Z0.5
G0 X2.6493 Y73.1667
G1 F10.0 Z0.0
G2 F50.0 X2.6324 Y73.1569 Z-0.3333 I-0.0113 J0.0
G2 Y73.1765 Z-0.6667 I0.0056 J0.0098
G2 X2.6493 Y73.1667 Z-1.0 I0.0056 J-0.0098
G2 X2.6324 Y73.1569 I-0.0113 J0.0
G2 Y73.1765 I0.0056 J0.0098
G2 X2.6493 Y73.1667 I0.0056 J-0.0098
G0 Z0.5
G0 X11.9601 Y78.1666
G1 F10.0 Z0.0
G2 F50.0 X11.9496 Y78.1605 Z-0.3333 I-0.007 J0.0
G2 Y78.1726 Z-0.6667 I0.0035 J0.0061
G2 X11.9601 Y78.1666 Z-1.0 I0.0035 J-0.0061
G2 X11.9496 Y78.1605 I-0.007 J0.0
G2 Y78.1726 I0.0035 J0.0061
G2 X11.9601 Y78.1666 I0.0035 J-0.0061
G0 Z0.5
G0 X13.9601
G1 F10.0 Z0.0
G2 F50.0 X13.9496 Y78.1605 Z-0.3333 I-0.007 J0.0
G2 Y78.1726 Z-0.6667 I0.0035 J0.0061
G2 X13.9601 Y78.1666 Z-1.0 I0.0035 J-0.0061
G2 X13.9496 Y78.1605 I-0.007 J0.0
G2 Y78.1726 I0.0035 J0.0061
G2 X13.9601 Y78.1666 I0.0035 J-0.0061
G0 Z0.5
G0 Y80.1669
G1 F10.0 Z0.0
G2 F50.0 X13.9496 Y80.1608 Z-0.3333 I-0.007 J0.0
G2 Y80.173 Z-0.6667 I0.0035 J0.0061
G2 X13.9601 Y80.1669 Z-1.0 I0.0035 J-0.0061
G2 X13.9496 Y80.1608 I-0.007 J0.0
G2 Y80.173 I0.0035 J0.0061
G2 X13.9601 Y80.1669 I0.0035 J-0.0061
G0 Z0.5
G0 Y82.1666
G1 F10.0 Z0.0
G2 F50.0 X13.9496 Y82.1605 Z-0.3333 I-0.007 J0.0
G2 Y82.1726 Z-0.6667 I0.0035 J0.0061
G2 X13.9601 Y82.1666 Z-1.0 I0.0035 J-0.0061
G2 X13.9496 Y82.1605 I-0.007 J0.0
G2 Y82.1726 I0.0035 J0.0061
G2 X13.9601 Y82.1666 I0.0035 J-0.0061
G0 Z0.5
G0 X11.9601
G1 F10.0 Z0.0
G2 F50.0 X11.9496 Y82.1605 Z-0.3333 I-0.007 J0.0
G2 Y82.1726 Z-0.6667 I0.0035 J0.0061
G2 X11.9601 Y82.1666 Z-1.0 I0.0035 J-0.0061
G2 X11.9496 Y82.1605 I-0.007 J0.0
G2 Y82.1726 I0.0035 J0.0061
G2 X11.9601 Y82.1666 I0.0035 J-0.0061
G0 Z0.5
G0 Y80.1669
G1 F10.0 Z0.0
G2 F50.0 X11.9496 Y80.1608 Z-0.3333 I-0.007 J0.0
G2 Y80.173 Z-0.6667 I0.0035 J0.0061
G2 X11.9601 Y80.1669 Z-1.0 I0.0035 J-0.0061
G2 X11.9496 Y80.1608 I-0.007 J0.0
G2 Y80.173 I0.0035 J0.0061
G2 X11.9601 Y80.1669 I0.0035 J-0.0061
G0 Z0.5
G0 X15.0284 Y73.1667
G1 F10.0 Z0.0
G2 F50.0 X15.0115 Y73.1569 Z-0.3333 I-0.0113 J0.0
G2 Y73.1765 Z-0.6667 I0.0056 J0.0098
G2 X15.0284 Y73.1667 Z-1.0 I0.0056 J-0.0098
G2 X15.0115 Y73.1569 I-0.0113 J0.0
G2 Y73.1765 I0.0056 J0.0098
G2 X15.0284 Y73.1667 I0.0056 J-0.0098
G0 Z0.5
G0 Y87.1682
G1 F10.0 Z0.0
G2 F50.0 X15.0115 Y87.1584 Z-0.3333 I-0.0112 J0.0
G2 Y87.1779 Z-0.6667 I0.0056 J0.0097
G2 X15.0284 Y87.1682 Z-1.0 I0.0056 J-0.0097
G2 X15.0115 Y87.1584 I-0.0112 J0.0
G2 Y87.1779 I0.0056 J0.0097
G2 X15.0284 Y87.1682 I0.0056 J-0.0097
G0 Z0.5
G0 X2.6492
G1 F10.0 Z0.0
G2 F50.0 X2.6324 Y87.1584 Z-0.3333 I-0.0112 J0.0
G2 Y87.1779 Z-0.6667 I0.0056 J0.0097
G2 X2.6492 Y87.1682 Z-1.0 I0.0056 J-0.0097
G2 X2.6324 Y87.1584 I-0.0112 J0.0
G2 Y87.1779 I0.0056 J0.0097
G2 X2.6492 Y87.1682 I0.0056 J-0.0097
G0 Z0.5
G0 X20.4381 Y59.951
G1 F10.0 Z0.0
G2 F50.0 X20.4307 Y59.9467 Z-0.3333 I-0.0049 J0.0
G2 Y59.9553 Z-0.6667 I0.0025 J0.0043
G2 X20.4381 Y59.951 Z-1.0 I0.0025 J-0.0043
G2 X20.4307 Y59.9467 I-0.0049 J0.0
G2 Y59.9553 I0.0025 J0.0043
G2 X20.4381 Y59.951 I0.0025 J-0.0043
G0 Z0.5
G0 X21.3742
G1 F10.0 Z0.0
G2 F50.0 X21.3668 Y59.9467 Z-0.3333 I-0.0049 J0.0
G2 Y59.9553 Z-0.6667 I0.0025 J0.0043
G2 X21.3742 Y59.951 Z-1.0 I0.0025 J-0.0043
G2 X21.3668 Y59.9467 I-0.0049 J0.0
G2 Y59.9553 I0.0025 J0.0043
G2 X21.3742 Y59.951 I0.0025 J-0.0043
G0 Z0.5
G0 Y57.8246
G1 F10.0 Z0.0
G2 F50.0 X21.3668 Y57.8203 Z-0.3333 I-0.0049 J0.0
G2 Y57.8289 Z-0.6667 I0.0025 J0.0043
G2 X21.3742 Y57.8246 Z-1.0 I0.0025 J-0.0043
G2 X21.3668 Y57.8203 I-0.0049 J0.0
G2 Y57.8289 I0.0025 J0.0043
G2 X21.3742 Y57.8246 I0.0025 J-0.0043
G0 Z0.5
G0 X20.4381
G1 F10.0 Z0.0
G2 F50.0 X20.4307 Y57.8203 Z-0.3333 I-0.0049 J0.0
G2 Y57.8289 Z-0.6667 I0.0025 J0.0043
G2 X20.4381 Y57.8246 Z-1.0 I0.0025 J-0.0043
G2 X20.4307 Y57.8203 I-0.0049 J0.0
G2 Y57.8289 I0.0025 J0.0043
G2 X20.4381 Y57.8246 I0.0025 J-0.0043
G0 Z0.5
G0 X34.5611 Y57.7046
G1 F10.0 Z0.0
G2 F50.0 X34.5535 Y57.7003 Z-0.3333 I-0.005 J0.0
G2 Y57.709 Z-0.6667 I0.0025 J0.0044
G2 X34.5611 Y57.7046 Z-1.0 I0.0025 J-0.0044
G2 X34.5535 Y57.7003 I-0.005 J0.0
G2 Y57.709 I0.0025 J0.0044
G2 X34.5611 Y57.7046 I0.0025 J-0.0044
G0 Z0.5
G0 X35.4972
G1 F10.0 Z0.0
G2 F50.0 X35.4897 Y57.7003 Z-0.3333 I-0.005 J0.0
G2 Y57.709 Z-0.6667 I0.0025 J0.0044
G2 X35.4972 Y57.7046 Z-1.0 I0.0025 J-0.0044
G2 X35.4897 Y57.7003 I-0.005 J0.0
G2 Y57.709 I0.0025 J0.0044
G2 X35.4972 Y57.7046 I0.0025 J-0.0044
G0 Z0.5
G0 Y59.831
G1 F10.0 Z0.0
G2 F50.0 X35.4897 Y59.8266 Z-0.3333 I-0.005 J0.0
G2 Y59.8354 Z-0.6667 I0.0025 J0.0044
G2 X35.4972 Y59.831 Z-1.0 I0.0025 J-0.0044
G2 X35.4897 Y59.8266 I-0.005 J0.0
G2 Y59.8354 I0.0025 J0.0044
G2 X35.4972 Y59.831 I0.0025 J-0.0044
G0 Z0.5
G0 X34.5611
G1 F10.0 Z0.0
G2 F50.0 X34.5535 Y59.8266 Z-0.3333 I-0.005 J0.0
G2 Y59.8354 Z-0.6667 I0.0025 J0.0044
G2 X34.5611 Y59.831 Z-1.0 I0.0025 J-0.0044
G2 X34.5535 Y59.8266 I-0.005 J0.0
G2 Y59.8354 I0.0025 J0.0044
G2 X34.5611 Y59.831 I0.0025 J-0.0044
G0 Z0.5
G0 Y34.3623
G1 F10.0 Z0.0
G2 F50.0 X34.5535 Y34.3579 Z-0.3333 I-0.005 J0.0
G2 Y34.3667 Z-0.6667 I0.0025 J0.0044
G2 X34.5611 Y34.3623 Z-1.0 I0.0025 J-0.0044
G2 X34.5535 Y34.3579 I-0.005 J0.0
G2 Y34.3667 I0.0025 J0.0044
G2 X34.5611 Y34.3623 I0.0025 J-0.0044
G0 Z0.5
G0 X35.4972
G1 F10.0 Z0.0
G2 F50.0 X35.4897 Y34.3579 Z-0.3333 I-0.005 J0.0
G2 Y34.3667 Z-0.6667 I0.0025 J0.0044
G2 X35.4972 Y34.3623 Z-1.0 I0.0025 J-0.0044
G2 X35.4897 Y34.3579 I-0.005 J0.0
G2 Y34.3667 I0.0025 J0.0044
G2 X35.4972 Y34.3623 I0.0025 J-0.0044
G0 Z0.5
G0 Y32.2359
G1 F10.0 Z0.0
G2 F50.0 X35.4897 Y32.2316 Z-0.3333 I-0.005 J0.0
G2 Y32.2403 Z-0.6667 I0.0025 J0.0044
G2 X35.4972 Y32.2359 Z-1.0 I0.0025 J-0.0044
G2 X35.4897 Y32.2316 I-0.005 J0.0
G2 Y32.2403 I0.0025 J0.0044
G2 X35.4972 Y32.2359 I0.0025 J-0.0044
G0 Z0.5
G0 X34.5611
G1 F10.0 Z0.0
G2 F50.0 X34.5535 Y32.2316 Z-0.3333 I-0.005 J0.0
G2 Y32.2403 Z-0.6667 I0.0025 J0.0044
G2 X34.5611 Y32.2359 Z-1.0 I0.0025 J-0.0044
G2 X34.5535 Y32.2316 I-0.005 J0.0
G2 Y32.2403 I0.0025 J0.0044
G2 X34.5611 Y32.2359 I0.0025 J-0.0044
G0 Z0.5
G0 X21.3743 Y32.4123
G1 F10.0 Z0.0
G2 F50.0 X21.3668 Y32.408 Z-0.3333 I-0.005 J0.0
G2 Y32.4167 Z-0.6667 I0.0025 J0.0044
G2 X21.3743 Y32.4123 Z-1.0 I0.0025 J-0.0044
G2 X21.3668 Y32.408 I-0.005 J0.0
G2 Y32.4167 I0.0025 J0.0044
G2 X21.3743 Y32.4123 I0.0025 J-0.0044
G0 Z0.5
G0 X20.4382
G1 F10.0 Z0.0
G2 F50.0 X20.4307 Y32.408 Z-0.3333 I-0.005 J0.0
G2 Y32.4167 Z-0.6667 I0.0025 J0.0044
G2 X20.4382 Y32.4123 Z-1.0 I0.0025 J-0.0044
G2 X20.4307 Y32.408 I-0.005 J0.0
G2 Y32.4167 I0.0025 J0.0044
G2 X20.4382 Y32.4123 I0.0025 J-0.0044
G0 Z0.5
G0 Y34.5387
G1 F10.0 Z0.0
G2 F50.0 X20.4307 Y34.5343 Z-0.3333 I-0.005 J0.0
G2 Y34.5431 Z-0.6667 I0.0025 J0.0044
G2 X20.4382 Y34.5387 Z-1.0 I0.0025 J-0.0044
G2 X20.4307 Y34.5343 I-0.005 J0.0
G2 Y34.5431 I0.0025 J0.0044
G2 X20.4382 Y34.5387 I0.0025 J-0.0044
G0 Z0.5
G0 X21.3743
G1 F10.0 Z0.0
G2 F50.0 X21.3668 Y34.5343 Z-0.3333 I-0.005 J0.0
G2 Y34.5431 Z-0.6667 I0.0025 J0.0044
G2 X21.3743 Y34.5387 Z-1.0 I0.0025 J-0.0044
G2 X21.3668 Y34.5343 I-0.005 J0.0
G2 Y34.5431 I0.0025 J0.0044
G2 X21.3743 Y34.5387 I0.0025 J-0.0044
( Slots )
S1000
G0 Z1.5
G0 X15.1541 Y88.4091
G1 F10.0 Z0.0
G2 F30.0 X15.1538 Y88.3578 Z-0.0514 I-21.1391 J0.0915
G3 X15.1878 Y88.2712 Z-0.1466 I0.125 J-0.0008
G2 X15.1914 Y88.2588 Z-0.1601 I-0.0103 J-0.0097
G3 X15.191 Y88.2566 Z-0.1623 I0.1225 J-0.0248
G2 X15.1876 Y88.2528 Z-0.1677 I-0.0049 J0.0009
G3 X15.1801 Y88.2502 Z-0.1755 I0.0368 J-0.1195
G2 X15.1768 Y88.2499 Z-0.1789 I-0.0023 J0.0062
G3 X15.0337 Y88.3022 Z-0.3367 I-0.1246 J-0.1188
G3 X15.0302 Y88.3018 Z-0.3403 I0.0134 J-0.1243
G2 X15.018 Y88.301 Z-0.3525 I-0.0115 J0.084
G3 X14.8875 Y88.2734 Z-0.4899 I-0.034 J-0.1613
G3 X14.8814 Y88.2687 Z-0.4975 I0.0732 J-0.1013
G1 X14.8587 Y88.2501 Z-0.5269
G2 X14.8536 Y88.2504 Z-0.5322 I-0.0021 J0.0062
G3 X14.8464 Y88.2537 Z-0.54 I-0.0561 J-0.1117
G2 X14.8437 Y88.2575 Z-0.5449 I0.0017 J0.0041
G3 X14.8434 Y88.261 Z-0.5485 I-0.1246 J-0.0096
G3 Y88.2626 Z-0.55 I-0.125 J0.0011
G2 X14.8459 Y88.2689 I0.0093 J0.0
G3 X14.8788 Y88.3509 I-0.092 J0.0846
G1 X14.8805 Y88.4332
G3 Y88.4348 I-0.125 J0.0025
G1 X14.8816 Y88.5788
G3 Y88.5799 I-0.125 J0.001
G1 X14.8815 Y88.688
G3 Y88.6886 I-0.125 J-0.0001
G2 X14.8813 Y89.0112 I30.3198 J0.1871
G3 X14.8468 Y89.0979 I-0.125 J0.0006
G2 X14.8442 Y89.1109 I0.0091 J0.0086
G3 X14.8448 Y89.1128 I-0.1174 J0.0429
G2 X14.8493 Y89.1166 I0.0054 J-0.0019
G3 X14.8562 Y89.1179 I-0.0206 J0.1233
G2 X14.8633 Y89.1157 I0.0016 J-0.0072
G3 X14.8989 Y89.0884 I0.0926 J0.0839
G3 X15.0298 Y89.0659 I0.1013 J0.1974
G2 X15.0612 Y89.0664 I0.0181 J-0.1506
G3 X15.1706 Y89.1138 I0.011 J0.1245
G2 X15.1831 Y89.1181 I0.0095 J-0.0074
G3 X15.1859 Y89.1174 I0.0308 J0.1211
G2 X15.1891 Y89.1142 I-0.001 J-0.0043
G3 X15.1916 Y89.1058 I0.121 J0.0314
G2 X15.1904 Y89.1004 I-0.0051 J-0.0017
G3 X15.1563 Y89.0171 I0.0908 J-0.0859
G1 X15.1546 Y88.9349
G3 Y88.9333 I0.125 J-0.0025
G1 X15.1535 Y88.7894
G3 Y88.7883 I0.125 J-0.001
G1 X15.1536 Y88.6804
G3 Y88.6794 I0.125 J0.0001
G2 X15.1538 Y88.3578 I-21.1385 J-0.1788
G3 X15.1878 Y88.2712 I0.125 J-0.0008
G2 X15.1914 Y88.2588 I-0.0103 J-0.0097
G3 X15.191 Y88.2566 I0.1225 J-0.0248
G2 X15.1876 Y88.2528 I-0.0049 J0.0009
G3 X15.1801 Y88.2502 I0.0368 J-0.1195
G2 X15.1768 Y88.2499 I-0.0023 J0.0062
G3 X15.0337 Y88.3022 I-0.1246 J-0.1188
G3 X15.0302 Y88.3018 I0.0134 J-0.1243
G2 X15.018 Y88.301 I-0.0115 J0.084
G3 X14.8875 Y88.2734 I-0.034 J-0.1613
G3 X14.8814 Y88.2687 I0.0732 J-0.1013
G1 X14.8587 Y88.2501
G2 X14.8536 Y88.2504 I-0.0021 J0.0062
G3 X14.8464 Y88.2537 I-0.0561 J-0.1117
G2 X14.8437 Y88.2575 I0.0017 J0.0041
G3 X14.8434 Y88.261 I-0.1246 J-0.0096
G3 Y88.2626 I-0.125 J0.0011
G0 Z1.5
G0 X14.8816 Y85.557
G1 F10.0 Z0.0
G1 F30.0 X14.8815 Y85.6565 Z-0.0996
G3 Y85.6583 Z-0.1014 I-0.125 J-0.0001
G2 X14.8813 Y85.9785 Z-0.4215 I11.1913 J0.1696
G3 X14.8465 Y86.0667 Z-0.5187 I-0.125 J0.0017
G2 X14.8439 Y86.078 Z-0.5309 I0.0082 J0.0079
G3 X14.8452 Y86.0823 Z-0.5355 I-0.1192 J0.0376
G2 X14.8479 Y86.0848 Z-0.5394 I0.0034 J-0.0009
G3 X14.8568 Y86.0868 Z-0.5485 I-0.0226 J0.1229
G2 X14.8583 Y86.087 Z-0.55 I0.0015 J-0.0058
G2 X14.8628 Y86.085 I0.0 J-0.006
G3 X14.899 Y86.0571 I0.0932 J0.0833
G3 X15.0298 Y86.0347 I0.1012 J0.1978
G2 X15.0612 Y86.0352 I0.0181 J-0.1491
G3 X15.1706 Y86.0826 I0.0111 J0.1245
G2 X15.1824 Y86.0869 I0.0094 J-0.0074
G3 X15.1844 Y86.0865 I0.0252 J0.1224
G2 X15.1891 Y86.0823 I-0.0011 J-0.006
G3 X15.1916 Y86.0747 I0.12 J0.035
G2 X15.1903 Y86.0687 I-0.0055 J-0.002
G3 X15.1563 Y85.9855 I0.091 J-0.0857
G1 X15.1546 Y85.9033
G3 Y85.9017 I0.125 J-0.0026
G1 X15.1535 Y85.7579
G3 Y85.7568 I0.125 J-0.001
G1 X15.1536 Y85.649
G3 Y85.6484 I0.125 J0.0001
G2 X15.1538 Y85.3261 I-36.9075 J-0.193
G3 X15.1876 Y85.2402 I0.125 J-0.0004
G2 X15.1912 Y85.2266 I-0.0107 J-0.0101
G3 X15.1907 Y85.2245 I0.1213 J-0.0301
G2 X15.1873 Y85.221 I-0.0047 J0.0011
G3 X15.1807 Y85.2189 I0.0339 J-0.1203
G2 X15.1764 Y85.2186 I-0.0026 J0.0075
G3 X15.0377 Y85.2714 I-0.1247 J-0.1192
G2 X15.0147 Y85.2706 I-0.0245 J0.381
G3 X14.8874 Y85.2419 I-0.0305 J-0.161
G3 X14.8579 Y85.2183 I0.2253 J-0.3131
G2 X14.8534 Y85.219 I-0.0011 J0.0074
G3 X14.847 Y85.222 I-0.0558 J-0.1118
G2 X14.8437 Y85.2266 I0.0021 J0.0049
G3 X14.8434 Y85.2298 I-0.1246 J-0.0099
G3 Y85.2312 I-0.125 J0.0011
G2 X14.8459 Y85.2377 I0.0095 J0.0
G3 X14.8788 Y85.3197 I-0.0921 J0.0845
G1 X14.8805 Y85.4019
G3 Y85.4035 I-0.125 J0.0025
G1 X14.8816 Y85.5475
G3 Y85.5485 I-0.125 J0.001
G1 X14.8815 Y85.6565
G3 Y85.6583 I-0.125 J-0.0001
G2 X14.8813 Y85.9785 I11.1913 J0.1696
G3 X14.8465 Y86.0667 I-0.125 J0.0017
G2 X14.8439 Y86.078 I0.0082 J0.0079
G3 X14.8452 Y86.0823 I-0.1192 J0.0376
G2 X14.8479 Y86.0848 I0.0034 J-0.0009
G3 X14.8568 Y86.0868 I-0.0226 J0.1229
G2 X14.8583 Y86.087 I0.0015 J-0.0058
G0 Z1.5
G0 X14.8816 Y74.5864
G1 F10.0 Z0.0
G1 F30.0 X14.8815 Y74.6866 Z-0.1002
G3 Y74.6873 Z-0.1009 I-0.125 J-0.0001
G2 X14.8813 Y75.0099 Z-0.4235 I30.3198 J0.1871
G3 X14.8466 Y75.0968 Z-0.5195 I-0.125 J0.0006
G2 X14.844 Y75.1092 Z-0.5328 I0.0086 J0.0082
G3 X14.8449 Y75.1115 Z-0.5353 I-0.1173 J0.0433
G2 X14.8492 Y75.1152 Z-0.5412 I0.0053 J-0.0018
G3 X14.8562 Y75.1166 Z-0.5484 I-0.0205 J0.1233
G2 X14.8579 Y75.1167 Z-0.55 I0.0016 J-0.0072
G2 X14.8633 Y75.1143 I0.0 J-0.0074
G3 X14.8988 Y75.0871 I0.0926 J0.0839
G3 X15.0298 Y75.0646 I0.1013 J0.1972
G2 X15.0613 Y75.0651 I0.0181 J-0.1509
G3 X15.1706 Y75.1125 I0.011 J0.1245
G2 X15.1831 Y75.1167 I0.0095 J-0.0074
G3 X15.1859 Y75.116 I0.0308 J0.1211
G2 X15.1891 Y75.1129 I-0.001 J-0.0043
G3 X15.1916 Y75.1045 I0.121 J0.0314
G2 X15.1904 Y75.0991 I-0.0051 J-0.0017
G3 X15.1563 Y75.0157 I0.0908 J-0.0859
G1 X15.1546 Y74.9335
G3 Y74.9319 I0.125 J-0.0025
G1 X15.1535 Y74.7881
G3 Y74.787 I0.125 J-0.001
G1 X15.1536 Y74.679
G3 Y74.6781 I0.125 J0.0001
G2 X15.1538 Y74.3564 I-21.1385 J-0.1788
G3 X15.1878 Y74.2699 I0.125 J-0.0008
G2 X15.1914 Y74.2574 I-0.0103 J-0.0097
G3 X15.191 Y74.2553 I0.1225 J-0.0248
G2 X15.1876 Y74.2514 I-0.0049 J0.0009
G3 X15.1801 Y74.2489 I0.0368 J-0.1195
G2 X15.1768 Y74.2485 I-0.0023 J0.0062
G3 X15.0337 Y74.3009 I-0.1246 J-0.1188
G3 X15.0302 Y74.3005 I0.0134 J-0.1243
G2 X15.018 Y74.2997 I-0.0115 J0.084
G3 X14.89 Y74.2738 I-0.034 J-0.1613
G3 X14.8571 Y74.2484 I0.1725 J-0.257
G2 X14.8535 Y74.2491 I-0.0006 J0.0066
G3 X14.8465 Y74.2524 I-0.0561 J-0.1117
G2 X14.8437 Y74.2561 I0.0018 J0.0041
G3 X14.8434 Y74.2597 I-0.1246 J-0.0096
G3 Y74.2613 I-0.125 J0.0011
G2 X14.8458 Y74.2674 I0.009 J0.0
G3 X14.8788 Y74.3495 I-0.092 J0.0847
G1 X14.8805 Y74.4319
G3 Y74.4334 I-0.125 J0.0025
G1 X14.8816 Y74.5775
G3 Y74.5786 I-0.125 J0.001
G1 X14.8815 Y74.6866
G3 Y74.6873 I-0.125 J-0.0001
G2 X14.8813 Y75.0099 I30.3198 J0.1871
G3 X14.8466 Y75.0968 I-0.125 J0.0006
G2 X14.844 Y75.1092 I0.0086 J0.0082
G3 X14.8449 Y75.1115 I-0.1173 J0.0433
G2 X14.8492 Y75.1152 I0.0053 J-0.0018
G3 X14.8562 Y75.1166 I-0.0205 J0.1233
G2 X14.8579 Y75.1167 I0.0016 J-0.0072
G0 Z1.5
G0 X14.8816 Y71.5555
G1 F10.0 Z0.0
G1 F30.0 X14.8815 Y71.6552 Z-0.0997
G3 Y71.6555 Z-0.1 I-0.125 J-0.0001
G2 X14.8813 Y71.9786 Z-0.4231 I67.0563 J0.2186
G3 X14.8469 Y72.065 Z-0.5183 I-0.125 J0.0002
G2 X14.8442 Y72.0779 Z-0.5323 I0.0091 J0.0087
G3 X14.8451 Y72.0807 Z-0.5352 I-0.1174 J0.0429
G2 X14.8489 Y72.0839 Z-0.5404 I0.0046 J-0.0015
G3 X14.857 Y72.0855 Z-0.5486 I-0.0203 J0.1233
G2 X14.8583 Y72.0856 Z-0.55 I0.0014 J-0.0058
G2 X14.8628 Y72.0837 I0.0 J-0.006
G3 X14.899 Y72.0557 I0.0931 J0.0834
G3 X15.0298 Y72.0333 I0.1012 J0.1978
G2 X15.0612 Y72.0338 I0.0181 J-0.1491
G3 X15.1707 Y72.0814 I0.0111 J0.1245
G2 X15.1822 Y72.0856 I0.0091 J-0.0071
G3 X15.1844 Y72.0852 I0.0254 J0.1224
G2 X15.1891 Y72.0809 I-0.0011 J-0.006
G3 X15.1916 Y72.0734 I0.12 J0.035
G2 X15.1903 Y72.0674 I-0.0055 J-0.002
G3 X15.1563 Y71.9842 I0.091 J-0.0857
G1 X15.1546 Y71.902
G3 Y71.9004 I0.125 J-0.0026
G1 X15.1535 Y71.7566
G3 Y71.7555 I0.125 J-0.001
G1 X15.1536 Y71.6476
G3 Y71.6471 I0.125 J0.0001
G2 X15.1538 Y71.3248 I-36.7888 J-0.1929
G3 X15.1876 Y71.2388 I0.125 J-0.0004
G2 X15.1912 Y71.2252 I-0.0107 J-0.0101
G3 X15.1907 Y71.2232 I0.1213 J-0.0301
G2 X15.1873 Y71.2196 I-0.0047 J0.0011
G3 X15.1807 Y71.2175 I0.0339 J-0.1203
G2 X15.1764 Y71.2173 I-0.0026 J0.0075
G3 X15.0377 Y71.27 I-0.1247 J-0.1192
G2 X15.0147 Y71.2692 I-0.0245 J0.381
G3 X14.8874 Y71.2405 I-0.0305 J-0.161
G3 X14.8579 Y71.217 I0.2253 J-0.3131
G2 X14.8534 Y71.2177 I-0.0011 J0.0074
G3 X14.847 Y71.2207 I-0.0558 J-0.1118
G2 X14.8437 Y71.2252 I0.0021 J0.0049
G3 X14.8434 Y71.2284 I-0.1246 J-0.0099
G3 Y71.2299 I-0.125 J0.0011
G2 X14.8459 Y71.2363 I0.0095 J0.0
G3 X14.8788 Y71.3183 I-0.0921 J0.0845
G1 X14.8805 Y71.4006
G3 Y71.4021 I-0.125 J0.0025
G1 X14.8816 Y71.5461
G3 Y71.5472 I-0.125 J0.001
G1 X14.8815 Y71.6552
G3 Y71.6555 I-0.125 J-0.0001
G2 X14.8813 Y71.9786 I67.0563 J0.2186
G3 X14.8469 Y72.065 I-0.125 J0.0002
G2 X14.8442 Y72.0779 I0.0091 J0.0087
G3 X14.8451 Y72.0807 I-0.1174 J0.0429
G2 X14.8489 Y72.0839 I0.0046 J-0.0015
G3 X14.857 Y72.0855 I-0.0203 J0.1233
G2 X14.8583 Y72.0856 I0.0014 J-0.0058
G0 Z1.5
G0 X2.5021 Y71.929
G1 F10.0 Z0.0
G2 F30.0 Y71.9786 Z-0.0496 I67.247 J-0.0549
G3 X2.4677 Y72.065 Z-0.1449 I-0.125 J0.0002
G2 X2.465 Y72.0779 Z-0.1588 I0.0091 J0.0087
G3 X2.466 Y72.0807 Z-0.1617 I-0.1174 J0.0429
G2 X2.4698 Y72.0839 Z-0.1669 I0.0046 J-0.0015
G3 X2.4778 Y72.0855 Z-0.1752 I-0.0203 J0.1233
G2 X2.4836 Y72.0837 Z-0.1815 I0.0014 J-0.0058
G3 X2.5197 Y72.0558 Z-0.2274 I0.0931 J0.0834
G3 X2.6507 Y72.0333 Z-0.3623 I0.1013 J0.1974
G2 X2.6821 Y72.0338 Z-0.3938 I0.0181 J-0.1498
G3 X2.7916 Y72.0814 Z-0.5182 I0.011 J0.1245
G2 X2.8031 Y72.0856 Z-0.5312 I0.0091 J-0.0071
G3 X2.8052 Y72.0852 Z-0.5333 I0.0254 J0.1224
G2 X2.81 Y72.0809 Z-0.5401 I-0.0011 J-0.006
G3 X2.8124 Y72.0734 Z-0.548 I0.12 J0.035
G2 X2.8128 Y72.0714 Z-0.55 I-0.0055 J-0.002
G2 X2.8112 Y72.0674 I-0.0058 J0.0
G3 X2.7772 Y71.9842 I0.091 J-0.0857
G1 X2.7755 Y71.902
G3 Y71.9004 I0.125 J-0.0026
G1 X2.7743 Y71.7566
G3 Y71.7555 I0.125 J-0.001
G1 X2.7744 Y71.6476
G3 Y71.6471 I0.125 J0.0001
G2 X2.7747 Y71.3248 I-36.8036 J-0.1929
G3 X2.8085 Y71.2388 I0.125 J-0.0004
G2 X2.812 Y71.2252 I-0.0107 J-0.0101
G3 X2.8116 Y71.2232 I0.1213 J-0.0301
G2 X2.8082 Y71.2196 I-0.0047 J0.0011
G3 X2.8015 Y71.2175 I0.0339 J-0.1203
G2 X2.7973 Y71.2173 I-0.0026 J0.0075
G3 X2.6586 Y71.27 I-0.1247 J-0.1192
G2 X2.6356 Y71.2692 I-0.0245 J0.3796
G3 X2.5083 Y71.2405 I-0.0305 J-0.1609
G3 X2.4788 Y71.217 I0.2253 J-0.3131
G2 X2.4743 Y71.2177 I-0.0011 J0.0074
G3 X2.4678 Y71.2207 I-0.0558 J-0.1118
G2 X2.4646 Y71.2252 I0.0021 J0.0049
G3 X2.4643 Y71.2284 I-0.1246 J-0.0099
G3 Y71.2299 I-0.125 J0.0011
G2 X2.4668 Y71.2363 I0.0095 J0.0
G3 X2.4997 Y71.3183 I-0.0921 J0.0845
G1 X2.5013 Y71.4006
G3 X2.5014 Y71.4021 I-0.125 J0.0025
G1 X2.5025 Y71.5461
G3 Y71.5472 I-0.125 J0.001
G1 X2.5024 Y71.6552
G3 Y71.6555 I-0.125 J-0.0001
G2 X2.5021 Y71.9786 I67.2467 J0.2186
G3 X2.4677 Y72.065 I-0.125 J0.0002
G2 X2.465 Y72.0779 I0.0091 J0.0087
G3 X2.466 Y72.0807 I-0.1174 J0.0429
G2 X2.4698 Y72.0839 I0.0046 J-0.0015
G3 X2.4778 Y72.0855 I-0.0203 J0.1233
G2 X2.4836 Y72.0837 I0.0014 J-0.0058
G3 X2.5197 Y72.0558 I0.0931 J0.0834
G3 X2.6507 Y72.0333 I0.1013 J0.1974
G2 X2.6821 Y72.0338 I0.0181 J-0.1498
G3 X2.7916 Y72.0814 I0.011 J0.1245
G2 X2.8031 Y72.0856 I0.0091 J-0.0071
G3 X2.8052 Y72.0852 I0.0254 J0.1224
G2 X2.81 Y72.0809 I-0.0011 J-0.006
G3 X2.8124 Y72.0734 I0.12 J0.035
G2 X2.8128 Y72.0714 I-0.0055 J-0.002
G0 Z1.5
G0 X2.7743 Y74.7799
G1 F10.0 Z0.0
G1 F30.0 X2.7744 Y74.679 Z-0.1009
G3 Y74.6781 Z-0.1018 I0.125 J0.0001
G2 X2.7747 Y74.3564 Z-0.4235 I-21.1413 J-0.1788
G3 X2.8087 Y74.2699 Z-0.5188 I0.125 J-0.0008
G2 X2.8122 Y74.2574 Z-0.5322 I-0.0103 J-0.0097
G3 X2.8118 Y74.2553 Z-0.5344 I0.1225 J-0.0248
G2 X2.8084 Y74.2514 Z-0.5398 I-0.0049 J0.0009
G3 X2.801 Y74.2489 Z-0.5477 I0.0368 J-0.1195
G2 X2.7987 Y74.2485 Z-0.55 I-0.0023 J0.0062
G2 X2.7977 I0.0 J0.0066
G3 X2.6546 Y74.3009 I-0.1246 J-0.1188
G3 X2.6511 Y74.3005 I0.0134 J-0.1243
G2 X2.6389 Y74.2997 I-0.0115 J0.084
G3 X2.5108 Y74.2738 I-0.034 J-0.1613
G3 X2.478 Y74.2484 I0.173 J-0.2575
G2 X2.4744 Y74.2491 I-0.0006 J0.0066
G3 X2.4673 Y74.2524 I-0.0561 J-0.1117
G2 X2.4646 Y74.2561 I0.0018 J0.0041
G3 X2.4643 Y74.2597 I-0.1246 J-0.0096
G3 Y74.2613 I-0.125 J0.0011
G2 X2.4667 Y74.2674 I0.009 J0.0
G3 X2.4997 Y74.3495 I-0.092 J0.0847
G1 X2.5013 Y74.4319
G3 X2.5014 Y74.4334 I-0.125 J0.0025
G1 X2.5025 Y74.5775
G3 Y74.5786 I-0.125 J0.001
G1 X2.5024 Y74.6866
G3 Y74.6873 I-0.125 J-0.0001
G2 X2.5021 Y75.0099 I30.3374 J0.187
G3 X2.4675 Y75.0968 I-0.125 J0.0006
G2 X2.4649 Y75.1092 I0.0086 J0.0082
G3 X2.4657 Y75.1115 I-0.1173 J0.0433
G2 X2.4701 Y75.1152 I0.0052 J-0.0018
G3 X2.4771 Y75.1166 I-0.0205 J0.1233
G2 X2.4842 Y75.1143 I0.0016 J-0.0072
G3 X2.5196 Y75.0871 I0.0926 J0.0839
G3 X2.6507 Y75.0646 I0.1013 J0.1972
G2 X2.6821 Y75.0651 I0.018 J-0.1501
G3 X2.7915 Y75.1125 I0.011 J0.1245
G2 X2.8039 Y75.1167 I0.0095 J-0.0074
G3 X2.8067 Y75.116 I0.0309 J0.1211
G2 X2.81 Y75.1129 I-0.001 J-0.0043
G3 X2.8125 Y75.1045 I0.121 J0.0314
G2 X2.8113 Y75.0991 I-0.0051 J-0.0017
G3 X2.7772 Y75.0157 I0.0908 J-0.0859
G1 X2.7755 Y74.9335
G3 Y74.9319 I0.125 J-0.0025
G1 X2.7743 Y74.7881
G3 Y74.787 I0.125 J-0.001
G1 X2.7744 Y74.679
G3 Y74.6781 I0.125 J0.0001
G2 X2.7747 Y74.3564 I-21.1413 J-0.1788
G3 X2.8087 Y74.2699 I0.125 J-0.0008
G2 X2.8122 Y74.2574 I-0.0103 J-0.0097
G3 X2.8118 Y74.2553 I0.1225 J-0.0248
G2 X2.8084 Y74.2514 I-0.0049 J0.0009
G3 X2.801 Y74.2489 I0.0368 J-0.1195
G2 X2.7987 Y74.2485 I-0.0023 J0.0062
G0 Z1.5
G0 X2.7743 Y85.75
G1 F10.0 Z0.0
G1 F30.0 X2.7744 Y85.649 Z-0.101
G3 Y85.6484 Z-0.1016 I0.125 J0.0001
G2 X2.7747 Y85.3261 Z-0.4239 I-36.9225 J-0.193
G3 X2.8085 Y85.2402 Z-0.5185 I0.125 J-0.0004
G2 X2.812 Y85.2266 Z-0.5331 I-0.0107 J-0.0101
G3 X2.8116 Y85.2245 Z-0.5352 I0.1213 J-0.0301
G2 X2.8082 Y85.221 Z-0.5404 I-0.0047 J0.0011
G3 X2.8015 Y85.2189 Z-0.5474 I0.0339 J-0.1203
G2 X2.7989 Y85.2185 Z-0.55 I-0.0026 J0.0075
G2 X2.7973 Y85.2186 I0.0 J0.0079
G3 X2.6586 Y85.2714 I-0.1247 J-0.1192
G2 X2.6356 Y85.2706 I-0.0245 J0.3796
G3 X2.5083 Y85.2419 I-0.0305 J-0.1609
G3 X2.4788 Y85.2183 I0.2253 J-0.3131
G2 X2.4743 Y85.219 I-0.0011 J0.0074
G3 X2.4678 Y85.222 I-0.0558 J-0.1118
G2 X2.4646 Y85.2266 I0.0021 J0.0049
G3 X2.4643 Y85.2298 I-0.1246 J-0.0099
G3 Y85.2312 I-0.125 J0.0011
G2 X2.4668 Y85.2377 I0.0095 J0.0
G3 X2.4997 Y85.3197 I-0.0921 J0.0845
G1 X2.5013 Y85.4019
G3 X2.5014 Y85.4035 I-0.125 J0.0025
G1 X2.5025 Y85.5475
G3 Y85.5485 I-0.125 J0.001
G1 X2.5024 Y85.6565
G3 Y85.6583 I-0.125 J-0.0001
G2 X2.5021 Y85.9785 I11.1922 J0.1696
G3 X2.4674 Y86.0667 I-0.125 J0.0017
G2 X2.4647 Y86.078 I0.0082 J0.0079
G3 X2.466 Y86.0823 I-0.1192 J0.0376
G2 X2.4688 Y86.0849 I0.0034 J-0.0009
G3 X2.4777 Y86.0868 I-0.0227 J0.1229
G2 X2.4836 Y86.085 I0.0015 J-0.0058
G3 X2.5197 Y86.0572 I0.0932 J0.0833
G3 X2.6507 Y86.0347 I0.1013 J0.1974
G2 X2.6821 Y86.0352 I0.0181 J-0.1498
G3 X2.7915 Y86.0826 I0.011 J0.1245
G2 X2.8033 Y86.0869 I0.0094 J-0.0074
G3 X2.8052 Y86.0865 I0.0252 J0.1224
G2 X2.81 Y86.0822 I-0.0011 J-0.006
G3 X2.8124 Y86.0747 I0.12 J0.035
G2 X2.8112 Y86.0687 I-0.0055 J-0.002
G3 X2.7772 Y85.9855 I0.091 J-0.0857
G1 X2.7755 Y85.9033
G3 Y85.9017 I0.125 J-0.0026
G1 X2.7743 Y85.7579
G3 Y85.7568 I0.125 J-0.001
G1 X2.7744 Y85.649
G3 Y85.6484 I0.125 J0.0001
G2 X2.7747 Y85.3261 I-36.9225 J-0.193
G3 X2.8085 Y85.2402 I0.125 J-0.0004
G2 X2.812 Y85.2266 I-0.0107 J-0.0101
G3 X2.8116 Y85.2245 I0.1213 J-0.0301
G2 X2.8082 Y85.221 I-0.0047 J0.0011
G3 X2.8015 Y85.2189 I0.0339 J-0.1203
G2 X2.7989 Y85.2185 I-0.0026 J0.0075
G0 Z1.5
G0 X2.7743 Y88.7812
G1 F10.0 Z0.0
G1 F30.0 X2.7744 Y88.6804 Z-0.1008
G3 Y88.6794 Z-0.1018 I0.125 J0.0001
G2 X2.7747 Y88.3578 Z-0.4235 I-21.1413 J-0.1788
G3 X2.8087 Y88.2712 Z-0.5187 I0.125 J-0.0008
G2 X2.8122 Y88.2588 Z-0.5322 I-0.0103 J-0.0097
G3 X2.8118 Y88.2566 Z-0.5344 I0.1225 J-0.0248
G2 X2.8084 Y88.2528 Z-0.5398 I-0.0049 J0.0009
G3 X2.801 Y88.2502 Z-0.5476 I0.0368 J-0.1195
G2 X2.7987 Y88.2498 Z-0.55 I-0.0023 J0.0062
G2 X2.7977 Y88.2499 I0.0 J0.0066
G3 X2.6546 Y88.3022 I-0.1246 J-0.1188
G3 X2.6511 Y88.3018 I0.0134 J-0.1243
G2 X2.6389 Y88.301 I-0.0115 J0.084
G3 X2.5083 Y88.2734 I-0.034 J-0.1613
G3 X2.5023 Y88.2687 I0.0732 J-0.1013
G1 X2.4795 Y88.2501
G2 X2.4744 Y88.2504 I-0.0021 J0.0062
G3 X2.4673 Y88.2537 I-0.0561 J-0.1117
G2 X2.4646 Y88.2575 I0.0017 J0.0041
G3 X2.4643 Y88.261 I-0.1246 J-0.0096
G3 Y88.2626 I-0.125 J0.0011
G2 X2.4667 Y88.2688 I0.0093 J0.0
G3 X2.4997 Y88.3509 I-0.092 J0.0846
G1 X2.5013 Y88.4332
G3 X2.5014 Y88.4348 I-0.125 J0.0025
G1 X2.5025 Y88.5788
G3 Y88.5799 I-0.125 J0.001
G1 X2.5024 Y88.688
G3 Y88.6886 I-0.125 J-0.0001
G2 X2.5021 Y89.0112 I30.3374 J0.187
G3 X2.4677 Y89.0979 I-0.125 J0.0006
G2 X2.465 Y89.1108 I0.0091 J0.0086
G3 X2.4657 Y89.1128 I-0.1174 J0.0429
G2 X2.4702 Y89.1166 I0.0054 J-0.0019
G3 X2.4771 Y89.1179 I-0.0206 J0.1233
G2 X2.4842 Y89.1157 I0.0016 J-0.0072
G3 X2.5197 Y89.0884 I0.0926 J0.0839
G3 X2.6507 Y89.0659 I0.1013 J0.1974
G2 X2.6821 Y89.0664 I0.0181 J-0.1499
G3 X2.7915 Y89.1138 I0.011 J0.1245
G2 X2.8039 Y89.1181 I0.0095 J-0.0074
G3 X2.8067 Y89.1174 I0.0309 J0.1211
G2 X2.81 Y89.1142 I-0.001 J-0.0043
G3 X2.8125 Y89.1058 I0.121 J0.0314
G2 X2.8113 Y89.1004 I-0.0051 J-0.0017
G3 X2.7772 Y89.0171 I0.0908 J-0.0859
G1 X2.7755 Y88.9349
G3 Y88.9333 I0.125 J-0.0025
G1 X2.7743 Y88.7894
G3 Y88.7883 I0.125 J-0.001
G1 X2.7744 Y88.6804
G3 Y88.6794 I0.125 J0.0001
G2 X2.7747 Y88.3578 I-21.1413 J-0.1788
G3 X2.8087 Y88.2712 I0.125 J-0.0008
G2 X2.8122 Y88.2588 I-0.0103 J-0.0097
G3 X2.8118 Y88.2566 I0.1225 J-0.0248
G2 X2.8084 Y88.2528 I-0.0049 J0.0009
G3 X2.801 Y88.2502 I0.0368 J-0.1195
G2 X2.7987 Y88.2498 I-0.0023 J0.0062
G0 Z1.5
G0 X1.4832 Y57.3285
G1 F10.0 Z0.0
G1 F30.0 Y57.4105 Z-0.082
G3 X1.4461 Y57.4994 Z-0.1809 I-0.125 J0.0
G2 X1.4454 Y57.5012 Z-0.1829 I0.0018 J0.0018
G3 Y57.5023 Z-0.184 I-0.125 J0.001
G2 X1.4505 Y57.5074 Z-0.192 I0.0051 J0.0
G3 X1.451 Z-0.1925 I0.0001 J0.125
G2 X1.4541 Y57.5058 Z-0.1961 I0.0 J-0.0038
G3 X1.5548 Y57.455 Z-0.3131 I0.1007 J0.0741
G1 X1.6707 Z-0.4291
G3 X1.7711 Y57.5055 Z-0.5456 I0.0 J0.125
G2 X1.7748 Y57.5074 Z-0.5499 I0.0038 J-0.0028
G1 X1.7749 Z-0.55
G2 X1.7798 Y57.5023 I-0.0002 J-0.0051
G3 Y57.5017 I0.125 J-0.0001
G2 X1.7785 Y57.4985 I-0.0045 J0.0
G3 X1.7419 Y57.4102 I0.0884 J-0.0883
G1 Y56.7497
G3 X1.7785 Y56.6614 I0.125 J0.0
G2 X1.7798 Y56.6583 I-0.003 J-0.003
G3 Y56.6571 I0.125 J-0.0006
G2 X1.7752 Y56.6525 I-0.0045 J0.0
G3 X1.7747 I-0.0003 J-0.125
G2 X1.7713 Y56.6542 I0.0 J0.0042
G3 X1.6707 Y56.705 I-0.1005 J-0.0743
G1 X1.5548
G3 X1.4544 Y56.6545 I0.0 J-0.125
G2 X1.4505 Y56.6525 I-0.0039 J0.0029
G1 X1.4504
G2 X1.4454 Y56.6574 I0.0 J0.0051
G2 X1.4473 Y56.6617 I0.0066 J-0.0003
G3 X1.4832 Y56.7494 I-0.0891 J0.0877
G1 Y57.4105
G3 X1.4461 Y57.4994 I-0.125 J0.0
G2 X1.4454 Y57.5012 I0.0018 J0.0018
G3 Y57.5023 I-0.125 J0.001
G2 X1.4505 Y57.5074 I0.0051 J0.0
G3 X1.451 I0.0001 J0.125
G2 X1.4541 Y57.5058 I0.0 J-0.0038
G3 X1.5548 Y57.455 I0.1007 J0.0741
G1 X1.6707
G3 X1.7711 Y57.5055 I0.0 J0.125
G2 X1.7748 Y57.5074 I0.0038 J-0.0028
G1 X1.7749
G0 Z1.5
G0 X1.4832 Y50.0781
G1 F10.0 Z0.0
G1 F30.0 Y50.1602 Z-0.0821
G3 X1.4464 Y50.2488 Z-0.1806 I-0.125 J0.0
G2 X1.4454 Y50.2512 Z-0.1832 I0.0023 J0.0024
G3 Y50.2519 Z-0.184 I-0.125 J0.0006
G2 X1.4505 Y50.257 Z-0.192 I0.0051 J0.0
G3 X1.4511 Z-0.1926 I0.0001 J0.125
G2 X1.4541 Y50.2555 Z-0.1961 I0.0 J-0.0037
G3 X1.5548 Y50.2046 Z-0.3131 I0.1007 J0.0741
G1 X1.6707 Z-0.4291
G3 X1.771 Y50.255 Z-0.5455 I0.0 J0.125
G2 X1.7749 Y50.257 Z-0.55 I0.004 J-0.003
G2 X1.7798 Y50.252 I-0.0002 J-0.005
G3 Y50.2512 I0.125 J-0.0002
G2 X1.7785 Y50.2482 I-0.0042 J0.0
G3 X1.7419 Y50.1598 I0.0884 J-0.0884
G1 Y49.4994
G3 X1.7786 Y49.4109 I0.125 J0.0
G2 X1.7798 Y49.4082 I-0.0027 J-0.0027
G3 Y49.4067 I0.125 J-0.0008
G2 X1.7753 Y49.4022 I-0.0045 J0.0
G3 X1.7747 I-0.0004 J-0.125
G2 X1.7713 Y49.4039 I0.0 J0.0042
G3 X1.6707 Y49.4546 I-0.1005 J-0.0743
G1 X1.5548
G3 X1.4544 Y49.4041 I0.0 J-0.125
G2 X1.4505 Y49.4022 I-0.0039 J0.0029
G2 X1.4454 Y49.4069 I0.0 J0.0051
G2 X1.4475 Y49.4116 I0.0074 J-0.0005
G3 X1.4832 Y49.4991 I-0.0893 J0.0875
G1 Y50.1602
G3 X1.4464 Y50.2488 I-0.125 J0.0
G2 X1.4454 Y50.2512 I0.0023 J0.0024
G3 Y50.2519 I-0.125 J0.0006
G2 X1.4505 Y50.257 I0.0051 J0.0
G3 X1.4511 I0.0001 J0.125
G2 X1.4541 Y50.2555 I0.0 J-0.0037
G3 X1.5548 Y50.2046 I0.1007 J0.0741
G1 X1.6707
G3 X1.771 Y50.255 I0.0 J0.125
G2 X1.7749 Y50.257 I0.004 J-0.003
G0 Z1.5
G0 X1.4832 Y42.8281
G1 F10.0 Z0.0
G1 F30.0 Y42.9102 Z-0.0821
G3 X1.4463 Y42.9989 Z-0.1807 I-0.125 J0.0
G2 X1.4454 Y43.0011 Z-0.1832 I0.0022 J0.0022
G3 Y43.002 Z-0.184 I-0.125 J0.0007
G2 X1.4505 Y43.0071 Z-0.192 I0.0051 J0.0
G3 X1.4511 Z-0.1926 I0.0001 J0.125
G2 X1.4541 Y43.0055 Z-0.1961 I0.0 J-0.0037
G3 X1.5548 Y42.9546 Z-0.3131 I0.1007 J0.0741
G1 X1.6707 Z-0.4291
G3 X1.7711 Y43.0051 Z-0.5456 I0.0 J0.125
G2 X1.7748 Y43.0071 Z-0.55 I0.0039 J-0.0029
G2 X1.7798 Y43.002 I-0.0001 J-0.005
G3 Y43.0012 I0.125 J-0.0002
G2 X1.7785 Y42.9982 I-0.0042 J0.0
G3 X1.7419 Y42.9098 I0.0884 J-0.0884
G1 Y42.2494
G3 X1.7786 Y42.161 I0.125 J0.0
G2 X1.7798 Y42.1581 I-0.0029 J-0.0029
G3 Y42.1567 I0.125 J-0.0007
G2 X1.7752 Y42.1522 I-0.0045 J0.0
G3 X1.7747 I-0.0003 J-0.125
G2 X1.7713 Y42.1539 I0.0 J0.0042
G3 X1.6707 Y42.2046 I-0.1005 J-0.0743
G1 X1.5548
G3 X1.4544 Y42.1541 I0.0 J-0.125
G2 X1.4505 Y42.1522 I-0.0039 J0.0029
G2 X1.4454 Y42.1569 I0.0 J0.0051
G2 X1.4475 Y42.1616 I0.0074 J-0.0005
G3 X1.4832 Y42.2491 I-0.0893 J0.0875
G1 Y42.9102
G3 X1.4463 Y42.9989 I-0.125 J0.0
G2 X1.4454 Y43.0011 I0.0022 J0.0022
G3 Y43.002 I-0.125 J0.0007
G2 X1.4505 Y43.0071 I0.0051 J0.0
G3 X1.4511 I0.0001 J0.125
G2 X1.4541 Y43.0055 I0.0 J-0.0037
G3 X1.5548 Y42.9546 I0.1007 J0.0741
G1 X1.6707
G3 X1.7711 Y43.0051 I0.0 J0.125
G2 X1.7748 Y43.0071 I0.0039 J-0.0029
G0 Z1.5
G0 X1.4832 Y35.5781
G1 F10.0 Z0.0
G1 F30.0 Y35.6602 Z-0.0821
G3 X1.4463 Y35.7489 Z-0.1807 I-0.125 J0.0
G2 X1.4454 Y35.7511 Z-0.1832 I0.0022 J0.0022
G3 Y35.752 Z-0.184 I-0.125 J0.0007
G2 X1.4505 Y35.7571 Z-0.192 I0.0051 J0.0
G3 X1.4511 Z-0.1926 I0.0001 J0.125
G2 X1.4541 Y35.7555 Z-0.1961 I0.0 J-0.0037
G3 X1.5548 Y35.7047 Z-0.3132 I0.1007 J0.0741
G1 X1.6707 Z-0.4291
G3 X1.7711 Y35.7552 Z-0.5457 I0.0 J0.125
G2 X1.7748 Y35.7571 Z-0.55 I0.0038 J-0.0028
G2 X1.7798 Y35.752 I-0.0001 J-0.005
G3 Y35.7516 I0.125 J-0.0002
G2 X1.7783 Y35.748 I-0.005 J0.0
G3 X1.7419 Y35.6599 I0.0886 J-0.0882
G1 Y34.9994
G3 X1.7786 Y34.9109 I0.125 J0.0
G2 X1.7798 Y34.9082 I-0.0027 J-0.0027
G3 Y34.9068 I0.125 J-0.0008
G2 X1.7752 Y34.9022 I-0.0045 J0.0
G3 X1.7747 I-0.0003 J-0.125
G2 X1.7713 Y34.9039 I0.0 J0.0042
G3 X1.6707 Y34.9547 I-0.1005 J-0.0743
G1 X1.5548
G3 X1.4544 Y34.9042 I0.0 J-0.125
G2 X1.4505 Y34.9022 I-0.0039 J0.0029
G1 X1.4504
G2 X1.4454 Y34.907 I0.0 J0.0051
G2 X1.4473 Y34.9115 I0.0069 J-0.0004
G3 X1.4832 Y34.9991 I-0.0891 J0.0876
G1 Y35.6602
G3 X1.4463 Y35.7489 I-0.125 J0.0
G2 X1.4454 Y35.7511 I0.0022 J0.0022
G3 Y35.752 I-0.125 J0.0007
G2 X1.4505 Y35.7571 I0.0051 J0.0
G3 X1.4511 I0.0001 J0.125
G2 X1.4541 Y35.7555 I0.0 J-0.0037
G3 X1.5548 Y35.7047 I0.1007 J0.0741
G1 X1.6707
G3 X1.7711 Y35.7552 I0.0 J0.125
G2 X1.7748 Y35.7571 I0.0038 J-0.0028
G0 Z1.5
G0 X19.6945 Y35.1291
G1 F10.0 Z0.0
G1 F30.0 Y35.5771 Z-0.448
G3 X19.6574 Y35.6659 Z-0.5468 I-0.125 J0.0
G2 X19.6566 Y35.6678 Z-0.5489 I0.0019 J0.0019
G3 Y35.6689 Z-0.55 I-0.125 J0.0009
G2 X19.6617 Y35.6739 I0.005 J0.0
G3 X19.6624 I0.0002 J0.125
G2 X19.6652 Y35.6725 I0.0 J-0.0035
G3 X19.766 Y35.6215 I0.1007 J0.074
G1 X19.882
G3 X19.9823 Y35.672 I0.0 J0.125
G2 X19.9861 Y35.6739 I0.0039 J-0.0029
G2 X19.991 Y35.6689 I-0.0002 J-0.0051
G3 Y35.6682 I0.125 J-0.0001
G2 X19.9897 Y35.6651 I-0.0043 J0.0
G3 X19.9531 Y35.5767 I0.0884 J-0.0883
G1 Y34.9163
G3 X19.9897 Y34.8279 I0.125 J0.0
G2 X19.991 Y34.8249 I-0.0031 J-0.0031
G3 Y34.8241 I0.125 J-0.0006
G2 X19.986 Y34.8191 I-0.005 J0.0
G3 X19.9858 I0.0002 J-0.125
G2 X19.9825 Y34.8207 I0.0 J0.0041
G3 X19.882 Y34.8715 I-0.1006 J-0.0742
G1 X19.766
G3 X19.6657 Y34.8211 I0.0 J-0.125
G2 X19.6617 Y34.8191 I-0.004 J0.003
G2 X19.6566 Y34.8239 I0.0 J0.0051
G2 X19.6586 Y34.8283 I0.0069 J-0.0004
G3 X19.6945 Y34.916 I-0.0891 J0.0876
G1 Y35.5771
G3 X19.6574 Y35.6659 I-0.125 J0.0
G2 X19.6566 Y35.6678 I0.0019 J0.0019
G3 Y35.6689 I-0.125 J0.0009
G0 Z1.5
G0 X19.9531 Y42.2486
G1 F10.0 Z0.0
G1 F30.0 Y42.1666 Z-0.0819
G3 X19.9897 Y42.0783 Z-0.18 I0.125 J0.0
G2 X19.991 Y42.0751 Z-0.1835 I-0.0032 J-0.0032
G3 Y42.0744 Z-0.1842 I0.125 J-0.0005
G2 X19.986 Y42.0694 Z-0.1921 I-0.005 J0.0
G3 X19.9858 Z-0.1922 I0.0002 J-0.125
G2 X19.9825 Y42.0711 Z-0.1961 I0.0 J0.0041
G3 X19.882 Y42.1218 Z-0.3129 I-0.1006 J-0.0742
G1 X19.766 Z-0.4289
G3 X19.6657 Y42.0715 Z-0.5453 I0.0 J-0.125
G2 X19.6617 Y42.0694 Z-0.55 I-0.0041 J0.0031
G2 X19.6566 Y42.0743 I0.0001 J0.0051
G2 X19.6585 Y42.0786 I0.0066 J-0.0003
G3 X19.6945 Y42.1663 I-0.0891 J0.0877
G1 Y42.8274
G3 X19.6574 Y42.9162 I-0.125 J0.0
G2 X19.6566 Y42.9182 I0.0019 J0.0019
G3 Y42.9192 I-0.125 J0.0009
G2 X19.6617 Y42.9243 I0.005 J0.0
G3 X19.6624 I0.0002 J0.125
G2 X19.6653 Y42.9228 I0.0 J-0.0035
G3 X19.766 Y42.8718 I0.1007 J0.074
G1 X19.882
G3 X19.9823 Y42.9223 I0.0 J0.125
G2 X19.9861 Y42.9243 I0.0039 J-0.0029
G2 X19.991 Y42.9192 I-0.0002 J-0.0051
G3 Y42.9186 I0.125 J-0.0001
G2 X19.9896 Y42.9153 I-0.0046 J0.0
G3 X19.9531 Y42.827 I0.0885 J-0.0883
G1 Y42.1666
G3 X19.9897 Y42.0783 I0.125 J0.0
G2 X19.991 Y42.0751 I-0.0032 J-0.0032
G3 Y42.0744 I0.125 J-0.0005
G2 X19.986 Y42.0694 I-0.005 J0.0
G3 X19.9858 I0.0002 J-0.125
G2 X19.9825 Y42.0711 I0.0 J0.0041
G3 X19.882 Y42.1218 I-0.1006 J-0.0742
G1 X19.766
G3 X19.6657 Y42.0715 I0.0 J-0.125
G2 X19.6617 Y42.0694 I-0.0041 J0.0031
G0 Z1.5
G0 X19.9531 Y49.4983
G1 F10.0 Z0.0
G1 F30.0 Y49.4166 Z-0.0817
G3 X19.9897 Y49.3283 Z-0.1797 I0.125 J0.0
G2 X19.991 Y49.3251 Z-0.1833 I-0.0032 J-0.0032
G3 Y49.3239 Z-0.1845 I0.125 J-0.0005
G2 X19.9865 Y49.3194 Z-0.1916 I-0.0045 J0.0
G3 X19.9859 Z-0.1922 I-0.0004 J-0.125
G2 X19.9825 Y49.3211 Z-0.1961 I0.0 J0.0041
G3 X19.882 Y49.3718 Z-0.3129 I-0.1006 J-0.0742
G1 X19.766 Z-0.4289
G3 X19.6657 Y49.3215 Z-0.5453 I0.0 J-0.125
G2 X19.6617 Y49.3194 Z-0.55 I-0.0041 J0.0031
G2 X19.6566 Y49.3242 I0.0001 J0.0051
G2 X19.6585 Y49.3286 I0.0066 J-0.0003
G3 X19.6945 Y49.4163 I-0.0891 J0.0877
G1 Y50.0774
G3 X19.6574 Y50.1662 I-0.125 J0.0
G2 X19.6566 Y50.1681 I0.0019 J0.0019
G3 Y50.1692 I-0.125 J0.0009
G2 X19.6617 Y50.1743 I0.005 J0.0
G3 X19.6624 I0.0002 J0.125
G2 X19.6653 Y50.1728 I0.0 J-0.0035
G3 X19.766 Y50.1218 I0.1007 J0.074
G1 X19.882
G3 X19.9823 Y50.1723 I0.0 J0.125
G2 X19.9861 Y50.1743 I0.004 J-0.0029
G2 X19.991 Y50.1692 I-0.0002 J-0.0051
G3 Y50.1686 I0.125 J-0.0001
G2 X19.9896 Y50.1653 I-0.0046 J0.0
G3 X19.9531 Y50.077 I0.0885 J-0.0883
G1 Y49.4166
G3 X19.9897 Y49.3283 I0.125 J0.0
G2 X19.991 Y49.3251 I-0.0032 J-0.0032
G3 Y49.3239 I0.125 J-0.0005
G2 X19.9865 Y49.3194 I-0.0045 J0.0
G3 X19.9859 I-0.0004 J-0.125
G2 X19.9825 Y49.3211 I0.0 J0.0041
G3 X19.882 Y49.3718 I-0.1006 J-0.0742
G1 X19.766
G3 X19.6657 Y49.3215 I0.0 J-0.125
G2 X19.6617 Y49.3194 I-0.0041 J0.0031
G0 Z1.5
G0 X19.9531 Y56.7483
G1 F10.0 Z0.0
G1 F30.0 Y56.6666 Z-0.0817
G3 X19.9897 Y56.5783 Z-0.1797 I0.125 J0.0
G2 X19.991 Y56.5751 Z-0.1833 I-0.0032 J-0.0032
G3 Y56.5739 Z-0.1845 I0.125 J-0.0005
G2 X19.9865 Y56.5694 Z-0.1916 I-0.0045 J0.0
G3 X19.9858 Z-0.1922 I-0.0004 J-0.125
G2 X19.9825 Y56.571 Z-0.1961 I0.0 J0.0041
G3 X19.882 Y56.6218 Z-0.3129 I-0.1006 J-0.0742
G1 X19.766 Z-0.4289
G3 X19.6657 Y56.5714 Z-0.5453 I0.0 J-0.125
G2 X19.6617 Y56.5694 Z-0.55 I-0.0041 J0.0031
G2 X19.6566 Y56.5742 I0.0001 J0.0051
G2 X19.6585 Y56.5785 I0.0066 J-0.0003
G3 X19.6945 Y56.6663 I-0.0891 J0.0877
G1 Y57.3274
G3 X19.6574 Y57.4162 I-0.125 J0.0
G2 X19.6566 Y57.418 I0.0018 J0.0018
G3 Y57.4192 I-0.125 J0.001
G2 X19.6617 Y57.4242 I0.005 J0.0
G3 X19.6624 I0.0002 J0.125
G2 X19.6653 Y57.4228 I0.0 J-0.0035
G3 X19.766 Y57.3718 I0.1007 J0.074
G1 X19.882
G3 X19.9823 Y57.4223 I0.0 J0.125
G2 X19.9861 Y57.4242 I0.0039 J-0.0029
G2 X19.991 Y57.4192 I-0.0002 J-0.0051
G3 Y57.4186 I0.125 J-0.0001
G2 X19.9896 Y57.4153 I-0.0046 J0.0
G3 X19.9531 Y57.327 I0.0885 J-0.0883
G1 Y56.6666
G3 X19.9897 Y56.5783 I0.125 J0.0
G2 X19.991 Y56.5751 I-0.0032 J-0.0032
G3 Y56.5739 I0.125 J-0.0005
G2 X19.9865 Y56.5694 I-0.0045 J0.0
G3 X19.9858 I-0.0004 J-0.125
G2 X19.9825 Y56.571 I0.0 J0.0041
G3 X19.882 Y56.6218 I-0.1006 J-0.0742
G1 X19.766
G3 X19.6657 Y56.5714 I0.0 J-0.125
G2 X19.6617 Y56.5694 I-0.0041 J0.0031
G0 Z1.5
G0 X40.23 Y51.7663
G1 F10.0 Z0.0
G1 F30.0 Y52.3147 Z-0.5484
G1 Y52.315 Z-0.5487
G3 Y52.3154 Z-0.5491 I-0.125 J0.0
G2 X40.2301 Y52.3163 Z-0.55 I0.0045 J0.0
G2 X40.2345 Y52.3199 I0.0044 J-0.0009
G3 X40.235 I0.0004 J0.125
G2 X40.2401 Y52.3149 I0.0 J-0.005
G1 Y52.3147
G3 X40.3651 Y52.1897 I0.125 J0.0
G1 X40.8581
G3 X40.9831 Y52.3147 I0.0 J0.125
G1 Y52.3149
G2 X40.9882 Y52.3199 I0.005 J0.0
G3 X40.9887 I0.0002 J0.125
G2 X40.9932 Y52.3154 I0.0 J-0.0045
G3 Y52.315 I0.125 J-0.0004
G1 Y52.3147
G1 Y51.3147
G3 Y51.314 I0.125 J0.0
G2 X40.9887 Y51.3095 I-0.0045 J0.0
G3 X40.9882 I-0.0004 J-0.125
G2 X40.9831 Y51.3145 I0.0 J0.0051
G3 X40.8581 Y51.4397 I-0.125 J0.0001
G1 X40.3651
G3 X40.2401 Y51.3146 I0.0 J-0.125
G2 X40.235 Y51.3095 I-0.0051 J0.0
G2 X40.23 Y51.3145 I0.0 J0.0051
G3 Y51.3147 I-0.125 J0.0001
G1 Y52.3147
G1 Y52.315
G3 Y52.3154 I-0.125 J0.0
G2 X40.2301 Y52.3163 I0.0045 J0.0
G0 Z1.5
G0 X45.4413 Y51.5789
G1 F10.0 Z0.0
G1 F30.0 Y52.1281 Z-0.5491
G1 Y52.1284 Z-0.5494
G3 Y52.1288 Z-0.5498 I-0.125 J0.0
G2 Y52.1289 Z-0.55 I0.0045 J0.0
G2 X45.4457 Y52.1332 I0.0045 J-0.0002
G3 X45.4463 I0.0004 J0.125
G2 X45.4513 Y52.1283 I0.0 J-0.005
G1 Y52.1281
G3 X45.5763 Y52.0031 I0.125 J0.0
G1 X46.0694
G3 X46.1944 Y52.1281 I0.0 J0.125
G1 Y52.1282
G2 X46.1995 Y52.1332 I0.0051 J0.0
G3 X46.2 I0.0001 J0.125
G2 X46.2045 Y52.1288 I0.0 J-0.0045
G3 Y52.1284 I0.125 J-0.0004
G1 Y52.1281
G1 Y51.1281
G3 Y51.1274 I0.125 J0.0
G2 X46.2 Y51.1229 I-0.0045 J0.0
G3 X46.1994 I-0.0004 J-0.125
G2 X46.1944 Y51.1279 I0.0 J0.0051
G3 X46.0694 Y51.2531 I-0.125 J0.0001
G1 X45.5763
G3 X45.4513 Y51.1279 I0.0 J-0.125
G2 X45.4463 Y51.1229 I-0.0051 J0.0
G2 X45.4413 Y51.1279 I0.0 J0.0051
G3 Y51.1281 I-0.125 J0.0001
G1 Y52.1281
G1 Y52.1284
G3 Y52.1288 I-0.125 J0.0
G2 Y52.1289 I0.0045 J0.0
G0 Z1.5
G0 Y44.8351
G1 F10.0 Z0.0
G1 F30.0 Y45.3774 Z-0.5423
G1 Y45.3777 Z-0.5426
G3 Y45.3781 Z-0.543 I-0.125 J0.0
G2 X45.4457 Y45.3826 Z-0.55 I0.0045 J0.0
G1 X45.4458
G3 X45.4463 I0.0004 J0.125
G2 X45.4513 Y45.3776 I0.0 J-0.005
G1 Y45.3774
G3 X45.5763 Y45.2524 I0.125 J0.0
G1 X46.0694
G3 X46.1944 Y45.3774 I0.0 J0.125
G1 Y45.3777
G3 Y45.378 I-0.125 J0.0
G2 X46.1989 Y45.3826 I0.0045 J0.0
G3 X46.2 I0.0007 J0.125
G2 X46.2045 Y45.3781 I0.0 J-0.0045
G3 Y45.3777 I0.125 J-0.0004
G1 Y45.3774
G1 Y44.3774
G3 Y44.3767 I0.125 J0.0
G2 X46.2 Y44.3722 I-0.0045 J0.0
G3 X46.1995 I-0.0004 J-0.125
G2 X46.1944 Y44.3772 I0.0 J0.0051
G3 X46.0694 Y44.5024 I-0.125 J0.0001
G1 X45.5763
G3 X45.4513 Y44.3772 I0.0 J-0.125
G2 X45.4463 Y44.3722 I-0.0051 J0.0
G3 X45.4458 I-0.0001 J-0.125
G2 X45.4413 Y44.3767 I0.0 J0.0045
G3 Y44.3774 I-0.125 J0.0007
G1 Y45.3774
G1 Y45.3777
G3 Y45.3781 I-0.125 J0.0
G2 X45.4457 Y45.3826 I0.0045 J0.0
G0 Z1.5
G0 X40.7023 Y45.439
G1 F10.0 Z0.0
G1 F30.0 X40.8581 Z-0.1559
G3 X40.9831 Y45.564 Z-0.3522 I0.0 J0.125
G1 Y45.5642 Z-0.3524
G2 X40.9882 Y45.5692 Z-0.3603 I0.0051 J0.0
G3 X40.9887 Z-0.3608 I0.0001 J0.125
G2 X40.9932 Y45.5647 Z-0.3678 I0.0 J-0.0045
G3 Y45.5643 Z-0.3682 I0.125 J-0.0004
G1 Y45.564 Z-0.3686
G1 Y45.3826 Z-0.55
G1 Y44.564
G3 Y44.5633 I0.125 J0.0
G2 X40.9887 Y44.5588 I-0.0045 J0.0
G3 X40.9882 I-0.0004 J-0.125
G2 X40.9831 Y44.5639 I0.0 J0.0051
G3 X40.8581 Y44.689 I-0.125 J0.0001
G1 X40.3651
G3 X40.2401 Y44.5639 I0.0 J-0.125
G2 X40.235 Y44.5588 I-0.0051 J0.0
G2 X40.23 Y44.5639 I0.0 J0.0051
G3 Y44.564 I-0.125 J0.0001
G1 Y45.564
G1 Y45.5643
G3 Y45.5647 I-0.125 J0.0
G2 X40.2345 Y45.5692 I0.0045 J0.0
G3 X40.235 I0.0003 J0.125
G2 X40.2401 Y45.5642 I0.0 J-0.005
G1 Y45.564
G3 X40.3651 Y45.439 I0.125 J0.0
G1 X40.8581
G3 X40.9831 Y45.564 I0.0 J0.125
G1 Y45.5642
G2 X40.9882 Y45.5692 I0.0051 J0.0
G3 X40.9887 I0.0001 J0.125
G2 X40.9932 Y45.5647 I0.0 J-0.0045
G3 Y45.5643 I0.125 J-0.0004
G1 Y45.564
G1 Y45.3826
G0 Z1.5
G0 X40.5855 Y19.6629
G1 F10.0 Z0.0
G1 F30.0 X40.9311 Z-0.3456
G3 X41.0561 Y19.7879 Z-0.5419 I0.0 J0.125
G1 Y19.7881 Z-0.5421
G2 X41.0611 Y19.7931 Z-0.55 I0.0051 J0.0
G1 X41.0612
G3 X41.0616 I0.0001 J0.125
G2 X41.0661 Y19.7886 I0.0 J-0.0045
G3 Y19.7883 I0.125 J-0.0004
G1 Y19.7879
G1 Y18.7879
G3 Y18.7872 I0.125 J0.0
G2 X41.0617 Y18.7827 I-0.0045 J0.0
G3 X41.0611 I-0.0004 J-0.125
G2 X41.0561 Y18.7878 I0.0 J0.0051
G3 X40.9311 Y18.9129 I-0.125 J0.0001
G1 X40.438
G3 X40.313 Y18.7878 I0.0 J-0.125
G2 X40.308 Y18.7827 I-0.0051 J0.0
G2 X40.303 Y18.7878 I0.0 J0.0051
G3 Y18.7879 I-0.125 J0.0001
G1 Y19.7879
G1 Y19.7883
G3 Y19.7886 I-0.125 J0.0
G2 X40.3074 Y19.7931 I0.0045 J0.0
G3 X40.308 I0.0004 J0.125
G2 X40.313 Y19.7881 I0.0 J-0.005
G1 Y19.7879
G3 X40.438 Y19.6629 I0.125 J0.0
G1 X40.9311
G3 X41.0561 Y19.7879 I0.0 J0.125
G1 Y19.7881
G2 X41.0611 Y19.7931 I0.0051 J0.0
G0 Z1.5
G0 X45.4413 Y19.2431
G1 F10.0 Z0.0
G1 F30.0 Y19.7931 Z-0.55
G1 Y19.9314
G1 Y19.9317
G3 Y19.9321 I-0.125 J0.0
G2 X45.4457 Y19.9366 I0.0045 J0.0
G3 X45.4463 I0.0004 J0.125
G2 X45.4513 Y19.9316 I0.0 J-0.005
G1 Y19.9314
G3 X45.5763 Y19.8064 I0.125 J0.0
G1 X46.0694
G3 X46.1944 Y19.9314 I0.0 J0.125
G1 Y19.9316
G2 X46.1995 Y19.9366 I0.0051 J0.0
G3 X46.2 I0.0001 J0.125
G2 X46.2045 Y19.9321 I0.0 J-0.0045
G3 Y19.9317 I0.125 J-0.0004
G1 Y19.9314
G1 Y18.9314
G3 Y18.9307 I0.125 J0.0
G2 X46.2 Y18.9262 I-0.0045 J0.0
G3 X46.1994 I-0.0004 J-0.125
G2 X46.1944 Y18.9313 I0.0 J0.0051
G3 X46.0694 Y19.0564 I-0.125 J0.0001
G1 X45.5763
G3 X45.4513 Y18.9313 I0.0 J-0.125
G2 X45.4463 Y18.9262 I-0.0051 J0.0
G2 X45.4413 Y18.9313 I0.0 J0.0051
G3 Y18.9314 I-0.125 J0.0001
G1 Y19.7931
G0 Z1.5
G0 Y12.6385
G1 F10.0 Z0.0
G1 F30.0 Y13.1807 Z-0.5423
G1 Y13.1811 Z-0.5426
G3 Y13.1814 Z-0.543 I-0.125 J0.0
G2 X45.4457 Y13.1859 Z-0.55 I0.0045 J0.0
G1 X45.4458
G3 X45.4463 I0.0004 J0.125
G2 X45.4513 Y13.1809 I0.0 J-0.005
G1 Y13.1807
G3 X45.5763 Y13.0557 I0.125 J0.0
G1 X46.0694
G3 X46.1944 Y13.1807 I0.0 J0.125
G1 Y13.1811
G3 Y13.1814 I-0.125 J0.0
G2 X46.1989 Y13.1859 I0.0045 J0.0
G3 X46.2 I0.0007 J0.125
G2 X46.2045 Y13.1815 I0.0 J-0.0045
G3 Y13.1811 I0.125 J-0.0004
G1 Y13.1807
G1 Y12.1807
G3 Y12.18 I0.125 J0.0
G2 X46.2 Y12.1755 I-0.0045 J0.0
G3 X46.1995 I-0.0004 J-0.125
G2 X46.1944 Y12.1806 I0.0 J0.0051
G3 X46.0694 Y12.3057 I-0.125 J0.0001
G1 X45.5763
G3 X45.4513 Y12.1806 I0.0 J-0.125
G2 X45.4463 Y12.1755 I-0.0051 J0.0
G3 X45.4458 I-0.0001 J-0.125
G2 X45.4413 Y12.1801 I0.0 J0.0045
G3 Y12.1807 I-0.125 J0.0007
G1 Y13.1807
G1 Y13.1811
G3 Y13.1814 I-0.125 J0.0
G2 X45.4457 Y13.1859 I0.0045 J0.0
G0 Z1.5
G0 X40.5931 Y12.9122
G1 F10.0 Z0.0
G1 F30.0 X40.9311 Z-0.3379
G3 X41.0561 Y13.0372 Z-0.5343 I0.0 J0.125
G1 Y13.0376 Z-0.5346
G3 Y13.0379 Z-0.5349 I-0.125 J0.0
G2 X41.0606 Y13.0424 Z-0.5421 I0.0045 J0.0
G3 X41.0616 Z-0.5431 I0.0007 J0.125
G2 X41.0661 Y13.0381 Z-0.55 I0.0 J-0.0045
G2 Y13.0379 I-0.0045 J-0.0002
G3 Y13.0376 I0.125 J-0.0004
G1 Y13.0372
G1 Y12.0372
G3 Y12.0371 I0.125 J0.0
G2 X41.0611 Y12.032 I-0.005 J0.0
G2 X41.0561 Y12.0371 I0.0 J0.0051
G3 X40.9311 Y12.1622 I-0.125 J0.0001
G1 X40.438
G3 X40.313 Y12.0371 I0.0 J-0.125
G2 X40.308 Y12.032 I-0.0051 J0.0
G2 X40.303 Y12.0371 I0.0 J0.0051
G3 Y12.0372 I-0.125 J0.0001
G1 Y13.0372
G1 Y13.0376
G3 Y13.0379 I-0.125 J0.0
G2 X40.3075 Y13.0424 I0.0045 J0.0
G3 X40.308 I0.0004 J0.125
G2 X40.313 Y13.0374 I0.0 J-0.005
G1 Y13.0372
G3 X40.438 Y12.9122 I0.125 J0.0
G1 X40.9311
G3 X41.0561 Y13.0372 I0.0 J0.125
G1 Y13.0376
G3 Y13.0379 I-0.125 J0.0
G2 X41.0606 Y13.0424 I0.0045 J0.0
G3 X41.0616 I0.0007 J0.125
G2 X41.0661 Y13.0381 I0.0 J-0.0045
( Pocket1 )
S1000
G0 Z0.5
G0 X44.1343 Y59.6128
G1 F10.0 Z0.725
G1 F50.0 Y59.2197 Z0.3319
G1 X44.1058 Z0.3035
G1 Y59.7697 Z-0.2465
G1 X44.1343 Z-0.275
G1 Y59.2197
G1 X44.1058
G1 Y59.7697
G1 X44.1343
G1 F10.0 X44.2343
G1 F50.0 Y59.1753
G3 X44.2695 Y59.0883 I0.125 J0.0
G2 X44.2715 Y59.0838 I-0.0049 J-0.0048
G2 X44.267 Y59.0794 I-0.0045 J0.0002
G3 X44.2654 I-0.0007 J-0.125
G2 X44.2632 Y59.0804 I0.0 J0.0029
G3 X44.1722 Y59.1197 I-0.091 J-0.0856
G1 X44.068
G3 X43.9777 Y59.0811 I0.0 J-0.125
G2 X43.9737 Y59.0794 I-0.004 J0.0038
G3 X43.9735 I0.0002 J-0.125
G2 X43.969 Y59.0839 I0.0 J0.0045
G3 Y59.0847 I-0.125 J0.0004
G2 X43.9704 Y59.088 I0.0047 J0.0
G3 X44.0058 Y59.1753 I-0.0895 J0.0872
G1 Y59.8138
G3 X43.9704 Y59.901 I-0.125 J0.0
G2 X43.969 Y59.9043 I0.0034 J0.0033
G3 Y59.9054 I-0.125 J0.0004
G2 X43.9736 Y59.91 I0.0045 J0.0
G3 X43.9748 I0.0003 J0.125
G2 X43.9769 Y59.9091 I0.0 J-0.0029
G3 X44.068 Y59.8697 I0.0911 J0.0856
G1 X44.1722
G3 X44.2621 Y59.9079 I0.0 J0.125
G2 X44.2667 Y59.91 I0.0049 J-0.0048
G2 X44.2715 Y59.9049 I-0.0003 J-0.0051
G3 Y59.9038 I0.125 J-0.0001
G2 X44.2708 Y59.902 I-0.0025 J0.0
G3 X44.2343 Y59.8138 I0.0886 J-0.0882
G1 Y59.7697
G0 Z0.5
G0 X45.4565 Y62.4548
G1 F10.0 Z0.725
G1 F50.0 X45.8479 Z0.3337
G1 Y62.3961 Z0.275
G1 X45.2979 Z-0.275
G1 Y62.4548
G1 X45.8479
G1 Y62.3961
G1 X45.2979
G1 F10.0 X45.1979
G1 F50.0 Y62.4836
G3 X45.1471 Y62.5842 I-0.125 J0.0
G2 X45.1454 Y62.5875 I0.0024 J0.0033
G3 Y62.5881 I-0.125 J0.0003
G2 X45.15 Y62.5926 I0.0045 J0.0
G3 X45.1509 I0.0003 J0.125
G2 X45.154 Y62.5913 I0.0 J-0.0044
G3 X45.2423 Y62.5548 I0.0884 J0.0884
G1 X45.9031
G3 X45.9913 Y62.5912 I0.0 J0.125
G2 X45.9947 Y62.5926 I0.0034 J-0.0034
G3 X45.9955 I0.0004 J0.125
G2 X45.9999 Y62.5882 I0.0 J-0.0045
G2 X45.9975 Y62.5833 I-0.0061 J0.0001
G3 X45.9479 Y62.4836 I0.0754 J-0.0997
G1 Y62.3673
G3 X45.9987 Y62.2667 I0.125 J0.0
G2 X45.9999 Y62.2642 I-0.0018 J-0.0025
G3 Y62.2633 I0.125 J-0.0007
G2 X45.9949 Y62.2582 I-0.0051 J0.0
G3 X45.9942 I0.0002 J-0.125
G2 X45.9923 Y62.259 I0.0 J0.0027
G3 X45.9034 Y62.2961 I-0.0888 J-0.0879
G1 X45.242
G3 X45.1542 Y62.2601 I0.0 J-0.125
G2 X45.1498 Y62.2582 I-0.0046 J0.0047
G2 X45.1454 Y62.2628 I0.0001 J0.0045
G3 Y62.2632 I-0.125 J0.0007
G2 X45.1475 Y62.2674 I0.0051 J0.0
G3 X45.1979 Y62.3676 I-0.0746 J0.1003
G1 Y62.3961
G0 Z0.5
G0 X40.4196 Y62.5827
G1 F10.0 Z0.725
G1 F50.0 X40.0869 Z0.3923
G1 Y62.6414 Z0.3337
G1 X40.6369 Z-0.2163
G1 Y62.5827 Z-0.275
G1 X40.0869
G1 Y62.6414
G1 X40.6369
G1 Y62.5827
G1 F10.0 Y62.4827
G1 F50.0 X40.031
G3 X39.9435 Y62.4469 I0.0 J-0.125
G2 X39.9388 Y62.4449 I-0.005 J0.0051
G2 X39.9345 Y62.4494 I0.0002 J0.0045
G3 Y62.4499 I-0.125 J0.0007
G2 X39.9366 Y62.454 I0.0052 J0.0
G3 X39.9869 Y62.5542 I-0.0747 J0.1003
G1 Y62.6702
G3 X39.9362 Y62.7708 I-0.125 J0.0
G2 X39.9345 Y62.7741 I0.0024 J0.0033
G3 Y62.7747 I-0.125 J0.0003
G2 X39.939 Y62.7792 I0.0045 J0.0
G3 X39.9399 I0.0004 J0.125
G2 X39.943 Y62.778 I0.0 J-0.0043
G3 X40.0314 Y62.7414 I0.0884 J0.0884
G1 X40.6921
G3 X40.7804 Y62.7779 I0.0 J0.125
G2 X40.7838 Y62.7792 I0.0033 J-0.0034
G3 X40.7845 I0.0004 J0.125
G2 X40.789 Y62.7748 I0.0 J-0.0045
G2 X40.7866 Y62.77 I-0.0061 J0.0001
G3 X40.7369 Y62.6702 I0.0753 J-0.0997
G1 Y62.5539
G3 X40.7877 Y62.4533 I0.125 J0.0
G2 X40.789 Y62.4507 I-0.0019 J-0.0025
G3 Y62.45 I0.125 J-0.0007
G2 X40.7839 Y62.4449 I-0.0051 J0.0
G3 X40.7832 I0.0002 J-0.125
G2 X40.7813 Y62.4457 I0.0 J0.0027
G3 X40.6925 Y62.4827 I-0.0888 J-0.088
G1 X40.6369
G0 Z0.5
G0 X38.4258 Y59.7994
G1 F10.0 Z0.725
G1 F50.0 Y59.4063 Z0.3319
G1 X38.3974 Z0.3035
G1 Y59.9563 Z-0.2465
G1 X38.4258 Z-0.275
G1 Y59.4063
G1 X38.3974
G1 Y59.9563
G1 X38.4258
G1 F10.0 Y60.0563
G1 F50.0 X38.4637
G3 X38.5536 Y60.0945 I0.0 J0.125
G2 X38.5582 Y60.0966 I0.0049 J-0.0048
G2 X38.563 Y60.0915 I-0.0003 J-0.0051
G3 Y60.0903 I0.125 J-0.0001
G2 X38.5623 Y60.0887 I-0.0023 J0.0
G3 X38.5258 Y60.0004 I0.0885 J-0.0883
G1 Y59.3619
G3 X38.561 Y59.2749 I0.125 J0.0
G2 X38.563 Y59.2704 I-0.005 J-0.0048
G2 X38.5585 Y59.266 I-0.0045 J0.0002
G3 X38.5569 I-0.0007 J-0.125
G2 X38.5547 Y59.267 I0.0 J0.0029
G3 X38.4637 Y59.3063 I-0.0911 J-0.0856
G1 X38.3595
G3 X38.2693 Y59.2679 I0.0 J-0.125
G2 X38.2651 Y59.2661 I-0.0043 J0.0041
G1 X38.265
G2 X38.2605 Y59.2705 I0.0 J0.0045
G3 Y59.2714 I-0.125 J0.0004
G2 X38.2619 Y59.2746 I0.0046 J0.0
G3 X38.2974 Y59.3619 I-0.0895 J0.0873
G1 Y60.0004
G3 X38.2619 Y60.0876 I-0.125 J0.0
G2 X38.2605 Y60.091 I0.0034 J0.0033
G3 Y60.0915 I-0.125 J0.0004
G2 X38.2656 Y60.0966 I0.0051 J0.0
G3 X38.2664 I-0.0002 J0.125
G2 X38.2684 Y60.0958 I0.0 J-0.0027
G3 X38.3595 Y60.0563 I0.0911 J0.0856
G1 X38.4258
G0 Z0.5
G0 Y56.7682
G1 F10.0 Z0.725
G1 F50.0 Y56.3751 Z0.3319
G1 X38.3974 Z0.3035
G1 Y56.9251 Z-0.2465
G1 X38.4258 Z-0.275
G1 Y56.3751
G1 X38.3974
G1 Y56.9251
G1 X38.4258
G1 F10.0 Y57.0251
G1 F50.0 X38.4637
G3 X38.5536 Y57.0633 I0.0 J0.125
G2 X38.5582 Y57.0654 I0.0049 J-0.0048
G2 X38.563 Y57.0603 I-0.0003 J-0.0051
G3 Y57.0592 I0.125 J-0.0001
G2 X38.5622 Y57.0574 I-0.0026 J0.0
G3 X38.5258 Y56.9692 I0.0886 J-0.0882
G1 Y56.3306
G3 X38.561 Y56.2438 I0.125 J0.0
G2 X38.563 Y56.2391 I-0.0052 J-0.005
G2 X38.5585 Y56.2348 I-0.0045 J0.0002
G3 X38.5569 I-0.0007 J-0.125
G2 X38.5547 Y56.2357 I0.0 J0.0029
G3 X38.4637 Y56.2751 I-0.0911 J-0.0856
G1 X38.3595
G3 X38.2693 Y56.2366 I0.0 J-0.125
G2 X38.2651 Y56.2348 I-0.0043 J0.0041
G1 X38.265
G2 X38.2605 Y56.2393 I0.0 J0.0045
G3 Y56.2402 I-0.125 J0.0004
G2 X38.2618 Y56.2433 I0.0044 J0.0
G3 X38.2974 Y56.3306 I-0.0894 J0.0873
G1 Y56.9692
G3 X38.2618 Y57.0565 I-0.125 J0.0
G2 X38.2605 Y57.0596 I0.0032 J0.0031
G3 Y57.0603 I-0.125 J0.0005
G2 X38.2656 Y57.0654 I0.0051 J0.0
G3 X38.2664 I-0.0002 J0.125
G2 X38.2684 Y57.0645 I0.0 J-0.0027
G3 X38.3595 Y57.0251 I0.0911 J0.0856
G1 X38.4258
G0 Z0.5
G0 X44.1343 Y56.61
G1 F10.0 Z0.725
G1 F50.0 Y56.1885 Z0.3035
G1 X44.1058 Z0.275
G1 Y56.7385 Z-0.275
G1 X44.1343
G1 Y56.1885
G1 X44.1058
G1 Y56.7385
G1 F10.0 Y56.8385
G1 F50.0 X44.1722
G3 X44.2621 Y56.8767 I0.0 J0.125
G2 X44.2667 Y56.8787 I0.0049 J-0.0048
G2 X44.2715 Y56.8737 I-0.0003 J-0.0051
G3 Y56.8726 I0.125 J-0.0001
G2 X44.2707 Y56.8707 I-0.0027 J0.0
G3 X44.2343 Y56.7826 I0.0886 J-0.0881
G1 Y56.144
G3 X44.2695 Y56.0571 I0.125 J0.0
G2 X44.2715 Y56.0525 I-0.0052 J-0.005
G2 X44.267 Y56.0482 I-0.0045 J0.0002
G3 X44.2654 I-0.0007 J-0.125
G2 X44.2632 Y56.0491 I0.0 J0.0029
G3 X44.1722 Y56.0885 I-0.0911 J-0.0856
G1 X44.068
G3 X43.9777 Y56.0499 I0.0 J-0.125
G2 X43.9737 Y56.0482 I-0.004 J0.0038
G3 X43.9735 I0.0002 J-0.125
G2 X43.969 Y56.0527 I0.0 J0.0045
G3 Y56.0536 I-0.125 J0.0004
G2 X43.9703 Y56.0567 I0.0045 J0.0
G3 X44.0058 Y56.144 I-0.0895 J0.0873
G1 Y56.7826
G3 X43.9703 Y56.8699 I-0.125 J0.0
G2 X43.969 Y56.873 I0.0032 J0.0031
G3 Y56.8742 I-0.125 J0.0006
G2 X43.9736 Y56.8787 I0.0045 J0.0
G3 X43.9748 I0.0003 J0.125
G2 X43.9769 Y56.8778 I0.0 J-0.0029
G3 X44.068 Y56.8385 I0.0911 J0.0856
G1 X44.1058
G0 Z0.5
G0 X44.1343 Y49.9149
G1 F10.0 Z0.725
G1 F50.0 Y49.4933 Z0.3035
G1 X44.1058 Z0.275
G1 Y50.0433 Z-0.275
G1 X44.1343
G1 Y49.4933
G1 X44.1058
G1 Y50.0433
G1 F10.0 X44.0058
G1 F50.0 Y50.0874
G3 X43.9703 Y50.1747 I-0.125 J0.0
G2 X43.969 Y50.1779 I0.0032 J0.0031
G3 Y50.1785 I-0.125 J0.0006
G2 X43.9741 Y50.1836 I0.0051 J0.0
G3 X43.9748 I-0.0002 J0.125
G2 X43.9769 Y50.1827 I0.0 J-0.0029
G3 X44.068 Y50.1433 I0.0911 J0.0856
G1 X44.1722
G3 X44.2621 Y50.1815 I0.0 J0.125
G2 X44.2667 Y50.1836 I0.0049 J-0.0048
G2 X44.2715 Y50.1785 I-0.0003 J-0.0051
G3 Y50.1775 I0.125 J-0.0001
G2 X44.2707 Y50.1756 I-0.0027 J0.0
G3 X44.2343 Y50.0874 I0.0886 J-0.0881
G1 Y49.4489
G3 X44.2695 Y49.3619 I0.125 J0.0
G2 X44.2715 Y49.3574 I-0.005 J-0.0048
G2 X44.267 Y49.3531 I-0.0045 J0.0002
G3 X44.2654 I-0.0007 J-0.125
G2 X44.2632 Y49.354 I0.0 J0.0029
G3 X44.1722 Y49.3933 I-0.0911 J-0.0856
G1 X44.068
G3 X43.9777 Y49.3548 I0.0 J-0.125
G2 X43.9737 Y49.3531 I-0.004 J0.0038
G3 X43.9735 I0.0002 J-0.125
G2 X43.969 Y49.3575 I0.0 J0.0045
G3 Y49.3584 I-0.125 J0.0004
G2 X43.9704 Y49.3616 I0.0046 J0.0
G3 X44.0058 Y49.4489 I-0.0895 J0.0872
G1 Y50.0433
G0 Z0.5
G0 X44.1343 Y46.8836
G1 F10.0 Z0.725
G1 F50.0 Y46.4621 Z0.3035
G1 X44.1058 Z0.275
G1 Y47.0121 Z-0.275
G1 X44.1343
G1 Y46.4621
G1 X44.1058
G1 Y47.0121
G1 F10.0 Y47.1121
G1 F50.0 X44.1722
G3 X44.2621 Y47.1503 I0.0 J0.125
G2 X44.2667 Y47.1524 I0.0049 J-0.0048
G2 X44.2715 Y47.1473 I-0.0003 J-0.0051
G3 Y47.1463 I0.125 J-0.0001
G2 X44.2706 Y47.1443 I-0.0029 J0.0
G3 X44.2343 Y47.0562 I0.0887 J-0.0881
G1 Y46.4177
G3 X44.2695 Y46.3308 I0.125 J0.0
G2 X44.2715 Y46.3261 I-0.0052 J-0.005
G2 X44.267 Y46.3218 I-0.0045 J0.0002
G3 X44.2654 I-0.0007 J-0.125
G2 X44.2632 Y46.3227 I0.0 J0.0029
G3 X44.1722 Y46.3621 I-0.091 J-0.0856
G1 X44.068
G3 X43.9777 Y46.3235 I0.0 J-0.125
G2 X43.9737 Y46.3218 I-0.004 J0.0038
G3 X43.9735 I0.0002 J-0.125
G2 X43.969 Y46.3263 I0.0 J0.0045
G3 Y46.3272 I-0.125 J0.0004
G2 X43.9703 Y46.3304 I0.0045 J0.0
G3 X44.0058 Y46.4177 I-0.0895 J0.0873
G1 Y47.0562
G3 X43.9703 Y47.1435 I-0.125 J0.0
G2 X43.969 Y47.1466 I0.0032 J0.0031
G3 Y47.1478 I-0.125 J0.0005
G2 X43.9736 Y47.1524 I0.0045 J0.0
G3 X43.9748 I0.0003 J0.125
G2 X43.9769 Y47.1515 I0.0 J-0.0029
G3 X44.068 Y47.1121 I0.0911 J0.0856
G1 X44.1058
G0 Z0.5
G0 X38.4258 Y46.9552
G1 F10.0 Z0.725
G1 F50.0 Y46.6487 Z0.4186
G1 X38.3974 Z0.3901
G1 Y47.1987 Z-0.1599
G1 X38.4258 Z-0.1884
G1 Y47.1121 Z-0.275
G1 Y46.6487
G1 X38.3974
G1 Y47.1987
G1 X38.4258
G1 Y47.1121
G1 F10.0 X38.5258
G1 F50.0 Y46.6043
G3 X38.5609 Y46.5174 I0.125 J0.0
G2 X38.563 Y46.5127 I-0.0052 J-0.005
G2 X38.5585 Y46.5084 I-0.0045 J0.0002
G3 X38.5569 I-0.0007 J-0.125
G2 X38.5547 Y46.5094 I0.0 J0.0029
G3 X38.4637 Y46.5487 I-0.0911 J-0.0856
G1 X38.3595
G3 X38.2693 Y46.5103 I0.0 J-0.125
G2 X38.2651 Y46.5084 I-0.0043 J0.0041
G1 X38.265
G2 X38.2605 Y46.5129 I0.0 J0.0045
G3 Y46.5139 I-0.125 J0.0004
G2 X38.2618 Y46.517 I0.0044 J0.0
G3 X38.2974 Y46.6043 I-0.0894 J0.0873
G1 Y47.2428
G3 X38.2618 Y47.3301 I-0.125 J0.0
G2 X38.2605 Y47.3333 I0.0032 J0.0031
G3 Y47.3339 I-0.125 J0.0005
G2 X38.2656 Y47.339 I0.0051 J0.0
G3 X38.2664 I-0.0002 J0.125
G2 X38.2684 Y47.3381 I0.0 J-0.0027
G3 X38.3595 Y47.2987 I0.0911 J0.0856
G1 X38.4637
G3 X38.5536 Y47.3369 I0.0 J0.125
G2 X38.5582 Y47.339 I0.0049 J-0.0048
G2 X38.563 Y47.3339 I-0.0003 J-0.0051
G3 Y47.3329 I0.125 J-0.0001
G2 X38.5622 Y47.3309 I-0.0028 J0.0
G3 X38.5258 Y47.2428 I0.0887 J-0.0881
G1 Y47.1121
G0 Z0.5
G0 X38.3974 Y49.8084
G1 F10.0 Z0.725
G1 F50.0 Y50.23 Z0.3035
G1 X38.4258 Z0.275
G1 Y49.68 Z-0.275
G1 X38.3974
G1 Y50.23
G1 X38.4258
G1 Y49.68
G1 F10.0 X38.5258
G1 F50.0 Y49.6355
G3 X38.561 Y49.5486 I0.125 J0.0
G2 X38.563 Y49.544 I-0.005 J-0.0048
G2 X38.5585 Y49.5397 I-0.0045 J0.0002
G3 X38.5569 I-0.0007 J-0.125
G2 X38.5547 Y49.5406 I0.0 J0.0029
G3 X38.4637 Y49.58 I-0.0911 J-0.0856
G1 X38.3595
G3 X38.2693 Y49.5415 I0.0 J-0.125
G2 X38.2651 Y49.5397 I-0.0043 J0.0041
G1 X38.265
G2 X38.2605 Y49.5442 I0.0 J0.0045
G3 Y49.545 I-0.125 J0.0004
G2 X38.2619 Y49.5482 I0.0046 J0.0
G3 X38.2974 Y49.6355 I-0.0895 J0.0873
G1 Y50.2741
G3 X38.2618 Y50.3613 I-0.125 J0.0
G2 X38.2605 Y50.3645 I0.0032 J0.0032
G3 Y50.3652 I-0.125 J0.0005
G2 X38.2656 Y50.3702 I0.0051 J0.0
G3 X38.2664 I-0.0002 J0.125
G2 X38.2684 Y50.3694 I0.0 J-0.0027
G3 X38.3595 Y50.33 I0.0911 J0.0856
G1 X38.4637
G3 X38.5536 Y50.3681 I0.0 J0.125
G2 X38.5582 Y50.3702 I0.0049 J-0.0048
G2 X38.563 Y50.3651 I-0.0003 J-0.0051
G3 Y50.3641 I0.125 J-0.0001
G2 X38.5622 Y50.3622 I-0.0026 J0.0
G3 X38.5258 Y50.2741 I0.0886 J-0.0882
G1 Y49.68
G0 Z0.5
G0 X38.4258 Y40.3467
G1 F10.0 Z0.725
G1 F50.0 Y39.9536 Z0.3319
G1 X38.3974 Z0.3035
G1 Y40.5036 Z-0.2465
G1 X38.4258 Z-0.275
G1 Y39.9536
G1 X38.3974
G1 Y40.5036
G1 X38.4258
G1 F10.0 Y40.6036
G1 F50.0 X38.4637
G3 X38.5536 Y40.6418 I0.0 J0.125
G2 X38.5582 Y40.6439 I0.0049 J-0.0047
G2 X38.563 Y40.6388 I-0.0003 J-0.0051
G3 Y40.6377 I0.125 J-0.0001
G2 X38.5622 Y40.6359 I-0.0025 J0.0
G3 X38.5258 Y40.5477 I0.0886 J-0.0882
G1 Y39.9091
G3 X38.561 Y39.8222 I0.125 J0.0
G2 X38.563 Y39.8176 I-0.005 J-0.0048
G2 X38.5585 Y39.8133 I-0.0045 J0.0002
G3 X38.5569 I-0.0007 J-0.125
G2 X38.5547 Y39.8142 I0.0 J0.0029
G3 X38.4637 Y39.8536 I-0.0911 J-0.0856
G1 X38.3595
G3 X38.2693 Y39.8151 I0.0 J-0.125
G2 X38.2651 Y39.8133 I-0.0043 J0.0041
G1 X38.265
G2 X38.2605 Y39.8178 I0.0 J0.0045
G3 Y39.8186 I-0.125 J0.0004
G2 X38.2619 Y39.8219 I0.0046 J0.0
G3 X38.2974 Y39.9091 I-0.0895 J0.0873
G1 Y40.5477
G3 X38.2619 Y40.6349 I-0.125 J0.0
G2 X38.2605 Y40.6383 I0.0034 J0.0033
G3 Y40.6388 I-0.125 J0.0004
G2 X38.2656 Y40.6439 I0.0051 J0.0
G3 X38.2663 I-0.0002 J0.125
G2 X38.2684 Y40.643 I0.0 J-0.0028
G3 X38.3595 Y40.6036 I0.0911 J0.0856
G1 X38.4258
G0 Z0.5
G0 Y37.3154
G1 F10.0 Z0.725
G1 F50.0 Y36.9224 Z0.3319
G1 X38.3974 Z0.3035
G1 Y37.4723 Z-0.2465
G1 X38.4258 Z-0.275
G1 Y36.9224
G1 X38.3974
G1 Y37.4723
G1 X38.4258
G1 F10.0 Y37.5723
G1 F50.0 X38.4637
G3 X38.5536 Y37.6105 I0.0 J0.125
G2 X38.5582 Y37.6126 I0.0049 J-0.0048
G2 X38.563 Y37.6075 I-0.0003 J-0.0051
G3 Y37.6065 I0.125 J-0.0001
G2 X38.5622 Y37.6046 I-0.0026 J0.0
G3 X38.5258 Y37.5164 I0.0886 J-0.0882
G1 Y36.8779
G3 X38.561 Y36.791 I0.125 J0.0
G2 X38.563 Y36.7863 I-0.0052 J-0.005
G2 X38.5585 Y36.7821 I-0.0045 J0.0002
G3 X38.5569 I-0.0007 J-0.125
G2 X38.5547 Y36.783 I0.0 J0.0029
G3 X38.4637 Y36.8224 I-0.0911 J-0.0856
G1 X38.3595
G3 X38.2693 Y36.7839 I0.0 J-0.125
G2 X38.2651 Y36.7821 I-0.0043 J0.0041
G1 X38.265
G2 X38.2605 Y36.7866 I0.0 J0.0045
G3 Y36.7875 I-0.125 J0.0004
G2 X38.2618 Y36.7906 I0.0044 J0.0
G3 X38.2974 Y36.8779 I-0.0894 J0.0873
G1 Y37.5164
G3 X38.2619 Y37.6037 I-0.125 J0.0
G2 X38.2605 Y37.607 I0.0034 J0.0033
G3 Y37.6075 I-0.125 J0.0004
G2 X38.2656 Y37.6126 I0.0051 J0.0
G3 X38.2664 I-0.0002 J0.125
G2 X38.2684 Y37.6118 I0.0 J-0.0027
G3 X38.3595 Y37.5723 I0.0911 J0.0856
G1 X38.4258
G0 Z0.5
G0 X40.3043 Y34.296
G1 F10.0 Z0.725
G1 F50.0 X40.6369 Z0.3924
G1 Y34.2373 Z0.3337
G1 X40.0869 Z-0.2163
G1 Y34.296 Z-0.275
G1 X40.6369
G1 Y34.2373
G1 X40.0869
G1 Y34.296
G1 F10.0 Y34.396
G1 F50.0 X40.6921
G3 X40.7804 Y34.4325 I0.0 J0.125
G2 X40.7837 Y34.4338 I0.0033 J-0.0033
G3 X40.7845 I0.0005 J0.125
G2 X40.789 Y34.4294 I0.0 J-0.0045
G2 X40.7865 Y34.4245 I-0.0063 J0.0001
G3 X40.7369 Y34.3248 I0.0754 J-0.0997
G1 Y34.2085
G3 X40.7877 Y34.1079 I0.125 J0.0
G2 X40.789 Y34.1053 I-0.0019 J-0.0025
G3 Y34.1045 I0.125 J-0.0007
G2 X40.7839 Y34.0994 I-0.0051 J0.0
G3 X40.7832 I0.0002 J-0.125
G2 X40.7813 Y34.1002 I0.0 J0.0026
G3 X40.6925 Y34.1373 I-0.0888 J-0.0879
G1 X40.031
G3 X39.9435 Y34.1015 I0.0 J-0.125
G2 X39.9388 Y34.0994 I-0.0051 J0.0052
G2 X39.9345 Y34.104 I0.0002 J0.0045
G3 Y34.1044 I-0.125 J0.0007
G2 X39.9366 Y34.1086 I0.0052 J0.0
G3 X39.9869 Y34.2088 I-0.0747 J0.1003
G1 Y34.3248
G3 X39.9362 Y34.4253 I-0.125 J0.0
G2 X39.9345 Y34.4287 I0.0025 J0.0034
G3 Y34.4293 I-0.125 J0.0003
G2 X39.939 Y34.4338 I0.0045 J0.0
G3 X39.9399 I0.0004 J0.125
G2 X39.943 Y34.4325 I0.0 J-0.0043
G3 X40.0314 Y34.396 I0.0884 J0.0884
G1 X40.0869
G0 Z0.5
G0 X40.3772 Y30.1146
G1 F10.0 Z0.725
G1 F50.0 X40.7099 Z0.3924
G1 Y30.056 Z0.3337
G1 X40.1599 Z-0.2163
G1 Y30.1146 Z-0.275
G1 X40.7099
G1 Y30.056
G1 X40.1599
G1 Y30.1146
G1 F10.0 Y30.2146
G1 F50.0 X40.7651
G3 X40.8533 Y30.2511 I0.0 J0.125
G2 X40.8567 Y30.2525 I0.0034 J-0.0034
G3 X40.8575 I0.0004 J0.125
G2 X40.862 Y30.248 I0.0 J-0.0045
G2 X40.8595 Y30.2432 I-0.0062 J0.0001
G3 X40.8099 Y30.1435 I0.0754 J-0.0997
G1 Y30.0271
G3 X40.8607 Y29.9265 I0.125 J0.0
G2 X40.862 Y29.924 I-0.0018 J-0.0025
G3 Y29.9232 I0.125 J-0.0007
G2 X40.8569 Y29.9181 I-0.0051 J0.0
G3 X40.8562 I0.0002 J-0.125
G2 X40.8543 Y29.9189 I0.0 J0.0027
G3 X40.7655 Y29.956 I-0.0888 J-0.088
G1 X40.104
G3 X40.0164 Y29.9201 I0.0 J-0.125
G2 X40.0117 Y29.9181 I-0.005 J0.0051
G2 X40.0075 Y29.9226 I0.0002 J0.0045
G3 Y29.9231 I-0.125 J0.0007
G2 X40.0095 Y29.9272 I0.0051 J0.0
G3 X40.0599 Y30.0275 I-0.0746 J0.1003
G1 Y30.1435
G3 X40.0091 Y30.244 I-0.125 J0.0
G2 X40.0075 Y30.2473 I0.0024 J0.0033
G3 Y30.248 I-0.125 J0.0003
G2 X40.012 Y30.2525 I0.0045 J0.0
G3 X40.0129 I0.0004 J0.125
G2 X40.016 Y30.2512 I0.0 J-0.0043
G3 X40.1043 Y30.2146 I0.0884 J0.0884
G1 X40.1599
G0 Z0.5
G0 X38.4988 Y27.2726
G1 F10.0 Z0.725
G1 F50.0 Y26.8796 Z0.332
G1 X38.4703 Z0.3035
G1 Y27.4296 Z-0.2465
G1 X38.4988 Z-0.275
G1 Y26.8796
G1 X38.4703
G1 Y27.4296
G1 X38.4988
G1 F10.0 X38.5988
G1 F50.0 Y26.8351
G3 X38.634 Y26.7481 I0.125 J0.0
G2 X38.6359 Y26.7436 I-0.0049 J-0.0048
G2 X38.6314 Y26.7393 I-0.0045 J0.0002
G3 X38.6299 I-0.0007 J-0.125
G2 X38.6276 Y26.7403 I0.0 J0.0032
G3 X38.5366 Y26.7796 I-0.091 J-0.0857
G1 X38.4325
G3 X38.3423 Y26.7411 I0.0 J-0.125
G2 X38.338 Y26.7393 I-0.0043 J0.0041
G2 X38.3335 Y26.7438 I0.0 J0.0045
G3 Y26.7446 I-0.125 J0.0004
G2 X38.3348 Y26.7479 I0.0047 J0.0
G3 X38.3703 Y26.8351 I-0.0895 J0.0872
G1 Y27.4737
G3 X38.3348 Y27.5609 I-0.125 J0.0
G2 X38.3335 Y27.5642 I0.0034 J0.0033
G3 Y27.5653 I-0.125 J0.0004
G2 X38.338 Y27.5698 I0.0045 J0.0
G3 X38.3394 Y27.5699 I0.0003 J0.125
G2 X38.3414 Y27.569 I0.0 J-0.0027
G3 X38.4325 Y27.5296 I0.0911 J0.0856
G1 X38.5366
G3 X38.6266 Y27.5678 I0.0 J0.125
G2 X38.6311 Y27.5698 I0.0048 J-0.0046
G2 X38.6359 Y27.5648 I-0.0002 J-0.005
G3 Y27.5637 I0.125 J-0.0002
G2 X38.6352 Y27.5619 I-0.0025 J0.0
G3 X38.5988 Y27.4737 I0.0886 J-0.0882
G1 Y27.4296
G0 Z0.5
G0 X38.4988 Y24.2414
G1 F10.0 Z0.725
G1 F50.0 Y23.8483 Z0.332
G1 X38.4703 Z0.3035
G1 Y24.3983 Z-0.2465
G1 X38.4988 Z-0.275
G1 Y23.8483
G1 X38.4703
G1 Y24.3983
G1 X38.4988
G1 F10.0 Y24.4983
G1 F50.0 X38.5366
G3 X38.6266 Y24.5366 I0.0 J0.125
G2 X38.6311 Y24.5386 I0.0047 J-0.0046
G2 X38.6359 Y24.5336 I-0.0002 J-0.005
G3 Y24.5325 I0.125 J-0.0002
G2 X38.6351 Y24.5305 I-0.0028 J0.0
G3 X38.5988 Y24.4424 I0.0887 J-0.0881
G1 Y23.8039
G3 X38.6339 Y23.717 I0.125 J0.0
G2 X38.6359 Y23.7124 I-0.0051 J-0.0049
G2 X38.6314 Y23.7081 I-0.0045 J0.0002
G3 X38.6299 I-0.0007 J-0.125
G2 X38.6276 Y23.709 I0.0 J0.0031
G3 X38.5366 Y23.7483 I-0.091 J-0.0857
G1 X38.4325
G3 X38.3423 Y23.7099 I0.0 J-0.125
G2 X38.338 Y23.7081 I-0.0043 J0.0041
G2 X38.3335 Y23.7125 I0.0 J0.0045
G3 Y23.7134 I-0.125 J0.0004
G2 X38.3348 Y23.7166 I0.0045 J0.0
G3 X38.3703 Y23.8039 I-0.0895 J0.0873
G1 Y24.4424
G3 X38.3348 Y24.5297 I-0.125 J0.0
G2 X38.3335 Y24.5328 I0.0032 J0.0031
G3 Y24.5335 I-0.125 J0.0006
G2 X38.3386 Y24.5386 I0.0051 J0.0
G3 X38.3394 I-0.0002 J0.125
G2 X38.3414 Y24.5378 I0.0 J-0.0027
G3 X38.4325 Y24.4983 I0.0911 J0.0856
G1 X38.4988
G0 Z0.5
G0 X44.1343 Y24.4568
G1 F10.0 Z0.725
G1 F50.0 Y23.9918 Z0.26
G1 X44.1058 Z0.2315
G1 Y24.4983 Z-0.275
G1 Y24.5418
G1 X44.1343
G1 Y23.9918
G1 X44.1058
G1 Y24.4983
G1 F10.0 X44.0058
G1 F50.0 Y24.5859
G3 X43.9703 Y24.6732 I-0.125 J0.0
G2 X43.969 Y24.6763 I0.0032 J0.0031
G3 Y24.6775 I-0.125 J0.0006
G2 X43.9736 Y24.6821 I0.0045 J0.0
G3 X43.9748 I0.0003 J0.125
G2 X43.9769 Y24.6812 I0.0 J-0.0029
G3 X44.068 Y24.6418 I0.0911 J0.0856
G1 X44.1722
G3 X44.2621 Y24.68 I0.0 J0.125
G2 X44.2667 Y24.6821 I0.0049 J-0.0048
G2 X44.2715 Y24.677 I-0.0003 J-0.0051
G3 Y24.676 I0.125 J-0.0001
G2 X44.2707 Y24.674 I-0.0027 J0.0
G3 X44.2343 Y24.5859 I0.0886 J-0.0881
G1 Y23.9474
G3 X44.2695 Y23.8605 I0.125 J0.0
G2 X44.2715 Y23.8558 I-0.0052 J-0.005
G2 X44.267 Y23.8515 I-0.0045 J0.0002
G3 X44.2654 I-0.0007 J-0.125
G2 X44.2632 Y23.8525 I0.0 J0.0029
G3 X44.1722 Y23.8918 I-0.0911 J-0.0856
G1 X44.068
G3 X43.9777 Y23.8532 I0.0 J-0.125
G2 X43.9737 Y23.8515 I-0.004 J0.0038
G3 X43.9735 I0.0002 J-0.125
G2 X43.969 Y23.856 I0.0 J0.0045
G3 Y23.8569 I-0.125 J0.0004
G2 X43.9703 Y23.8601 I0.0045 J0.0
G3 X44.0058 Y23.9474 I-0.0895 J0.0873
G1 Y24.4983
G0 Z0.5
G0 X44.1058 Y27.18
G1 F10.0 Z0.725
G1 F50.0 Y27.5731 Z0.3319
G1 X44.1343 Z0.3035
G1 Y27.0231 Z-0.2465
G1 X44.1058 Z-0.275
G1 Y27.5731
G1 X44.1343
G1 Y27.0231
G1 X44.1058
G1 F10.0 X44.0058
G1 F50.0 Y27.6172
G3 X43.9704 Y27.7044 I-0.125 J0.0
G2 X43.969 Y27.7077 I0.0034 J0.0033
G3 Y27.7088 I-0.125 J0.0004
G2 X43.9736 Y27.7133 I0.0045 J0.0
G3 X43.9748 I0.0003 J0.125
G2 X43.9769 Y27.7124 I0.0 J-0.0029
G3 X44.068 Y27.6731 I0.0911 J0.0856
G1 X44.1722
G3 X44.2621 Y27.7112 I0.0 J0.125
G2 X44.2667 Y27.7133 I0.0049 J-0.0048
G2 X44.2715 Y27.7083 I-0.0003 J-0.0051
G3 Y27.7071 I0.125 J-0.0001
G2 X44.2708 Y27.7054 I-0.0025 J0.0
G3 X44.2343 Y27.6172 I0.0886 J-0.0882
G1 Y26.9786
G3 X44.2695 Y26.8916 I0.125 J0.0
G2 X44.2715 Y26.8871 I-0.0049 J-0.0048
G2 X44.267 Y26.8828 I-0.0045 J0.0002
G3 X44.2654 I-0.0007 J-0.125
G2 X44.2632 Y26.8837 I0.0 J0.0029
G3 X44.1722 Y26.9231 I-0.0911 J-0.0856
G1 X44.068
G3 X43.9777 Y26.8845 I0.0 J-0.125
G2 X43.9737 Y26.8828 I-0.004 J0.0038
G3 X43.9735 I0.0002 J-0.125
G2 X43.969 Y26.8873 I0.0 J0.0045
G3 Y26.8881 I-0.125 J0.0004
G2 X43.9704 Y26.8914 I0.0047 J0.0
G3 X44.0058 Y26.9786 I-0.0895 J0.0872
G1 Y27.0231
G0 Z0.5
G0 X45.4565 Y30.2581
G1 F10.0 Z0.725
G1 F50.0 X45.8479 Z0.3337
G1 Y30.1994 Z0.275
G1 X45.2979 Z-0.275
G1 Y30.2581
G1 X45.8479
G1 Y30.1994
G1 X45.2979
G1 F10.0 Y30.0994
G1 F50.0 X45.242
G3 X45.1542 Y30.0635 I0.0 J-0.125
G2 X45.1498 Y30.0616 I-0.0046 J0.0047
G2 X45.1454 Y30.0661 I0.0001 J0.0045
G3 Y30.0666 I-0.125 J0.0007
G2 X45.1475 Y30.0707 I0.0051 J0.0
G3 X45.1979 Y30.171 I-0.0746 J0.1003
G1 Y30.2869
G3 X45.1471 Y30.3875 I-0.125 J0.0
G2 X45.1454 Y30.3908 I0.0024 J0.0033
G3 Y30.3915 I-0.125 J0.0003
G2 X45.15 Y30.396 I0.0045 J0.0
G3 X45.1509 I0.0003 J0.125
G2 X45.154 Y30.3947 I0.0 J-0.0043
G3 X45.2423 Y30.3581 I0.0884 J0.0884
G1 X45.9031
G3 X45.9913 Y30.3946 I0.0 J0.125
G2 X45.9947 Y30.396 I0.0034 J-0.0034
G3 X45.9955 I0.0004 J0.125
G2 X45.9999 Y30.3915 I0.0 J-0.0045
G2 X45.9975 Y30.3867 I-0.0061 J0.0001
G3 X45.9479 Y30.2869 I0.0754 J-0.0997
G1 Y30.1706
G3 X45.9987 Y30.07 I0.125 J0.0
G2 X45.9999 Y30.0675 I-0.0018 J-0.0025
G3 Y30.0667 I0.125 J-0.0007
G2 X45.9949 Y30.0616 I-0.0051 J0.0
G3 X45.9942 I0.0002 J-0.125
G2 X45.9922 Y30.0624 I0.0 J0.0027
G3 X45.9034 Y30.0994 I-0.0888 J-0.0879
G1 X45.2979
G0 Z0.5
G0 X45.4565 Y34.1093
G1 F10.0 Z0.725
G1 F50.0 X45.8479 Z0.3337
G1 Y34.0507 Z0.275
G1 X45.2979 Z-0.275
G1 Y34.1093
G1 X45.8479
G1 Y34.0507
G1 X45.2979
G1 F10.0 Y33.9507
G1 F50.0 X45.242
G3 X45.1542 Y33.9147 I0.0 J-0.125
G2 X45.1498 Y33.9128 I-0.0047 J0.0048
G2 X45.1454 Y33.9173 I0.0001 J0.0045
G3 Y33.9178 I-0.125 J0.0007
G2 X45.1475 Y33.9219 I0.0051 J0.0
G3 X45.1979 Y34.0222 I-0.0746 J0.1003
G1 Y34.1382
G3 X45.1472 Y34.2387 I-0.125 J0.0
G2 X45.1454 Y34.2421 I0.0025 J0.0034
G3 Y34.2427 I-0.125 J0.0002
G2 X45.1499 Y34.2472 I0.0045 J0.0
G3 X45.1508 I0.0004 J0.125
G2 X45.154 Y34.2459 I0.0 J-0.0044
G3 X45.2423 Y34.2093 I0.0883 J0.0884
G1 X45.9031
G3 X45.9913 Y34.2458 I0.0 J0.125
G2 X45.9946 Y34.2472 I0.0033 J-0.0033
G3 X45.9954 I0.0005 J0.125
G2 X45.9999 Y34.2428 I0.0 J-0.0045
G2 X45.9974 Y34.2378 I-0.0063 J0.0001
G3 X45.9479 Y34.1382 I0.0754 J-0.0997
G1 Y34.0218
G3 X45.9987 Y33.9212 I0.125 J0.0
G2 X45.9999 Y33.9187 I-0.0018 J-0.0025
G3 Y33.9179 I0.125 J-0.0007
G2 X45.9949 Y33.9128 I-0.0051 J0.0
G3 X45.9942 I0.0002 J-0.125
G2 X45.9923 Y33.9136 I0.0 J0.0026
G3 X45.9034 Y33.9507 I-0.0889 J-0.0879
G1 X45.2979
G0 Z0.5
G0 X44.1058 Y36.8642
G1 F10.0 Z0.725
G1 F50.0 Y37.2857 Z0.3035
G1 X44.1343 Z0.275
G1 Y36.7357 Z-0.275
G1 X44.1058
G1 Y37.2857
G1 X44.1343
G1 Y36.7357
G1 F10.0 X44.2343
G1 F50.0 Y36.6913
G3 X44.2695 Y36.6044 I0.125 J0.0
G2 X44.2715 Y36.5997 I-0.0052 J-0.005
G2 X44.267 Y36.5954 I-0.0045 J0.0002
G3 X44.2654 I-0.0007 J-0.125
G2 X44.2632 Y36.5964 I0.0 J0.0029
G3 X44.1722 Y36.6357 I-0.0911 J-0.0856
G1 X44.068
G3 X43.9777 Y36.5971 I0.0 J-0.125
G2 X43.9737 Y36.5955 I-0.004 J0.0038
G3 X43.9735 I0.0002 J-0.125
G2 X43.969 Y36.5999 I0.0 J0.0045
G3 Y36.6009 I-0.125 J0.0004
G2 X43.9703 Y36.604 I0.0045 J0.0
G3 X44.0058 Y36.6913 I-0.0895 J0.0873
G1 Y37.3298
G3 X43.9704 Y37.417 I-0.125 J0.0
G2 X43.969 Y37.4203 I0.0034 J0.0033
G3 Y37.4214 I-0.125 J0.0005
G2 X43.9736 Y37.426 I0.0045 J0.0
G3 X43.9748 I0.0003 J0.125
G2 X43.9769 Y37.4251 I0.0 J-0.0029
G3 X44.068 Y37.3857 I0.0911 J0.0856
G1 X44.1722
G3 X44.2621 Y37.4239 I0.0 J0.125
G2 X44.2667 Y37.426 I0.0049 J-0.0048
G2 X44.2715 Y37.4209 I-0.0003 J-0.0051
G3 Y37.4199 I0.125 J-0.0001
G2 X44.2707 Y37.418 I-0.0027 J0.0
G3 X44.2343 Y37.3298 I0.0886 J-0.0881
G1 Y36.7357
G0 Z0.5
G0 X44.1058 Y39.8954
G1 F10.0 Z0.725
G1 F50.0 Y40.317 Z0.3035
G1 X44.1343 Z0.275
G1 Y39.767 Z-0.275
G1 X44.1058
G1 Y40.317
G1 X44.1343
G1 Y39.767
G1 F10.0 Y39.667
G1 F50.0 X44.068
G3 X43.9777 Y39.6284 I0.0 J-0.125
G2 X43.9737 Y39.6267 I-0.004 J0.0038
G3 X43.9735 I0.0002 J-0.125
G2 X43.969 Y39.6312 I0.0 J0.0045
G3 Y39.632 I-0.125 J0.0004
G2 X43.9704 Y39.6353 I0.0047 J0.0
G3 X44.0058 Y39.7225 I-0.0895 J0.0872
G1 Y40.3611
G3 X43.9704 Y40.4483 I-0.125 J0.0
G2 X43.969 Y40.4516 I0.0034 J0.0033
G3 Y40.4527 I-0.125 J0.0004
G2 X43.9736 Y40.4572 I0.0045 J0.0
G3 X43.9748 I0.0003 J0.125
G2 X43.977 Y40.4563 I0.0 J-0.003
G3 X44.068 Y40.417 I0.091 J0.0857
G1 X44.1722
G3 X44.2621 Y40.4552 I0.0 J0.125
G2 X44.2667 Y40.4572 I0.0049 J-0.0047
G2 X44.2715 Y40.4522 I-0.0003 J-0.0051
G3 Y40.4511 I0.125 J-0.0001
G2 X44.2707 Y40.4492 I-0.0027 J0.0
G3 X44.2343 Y40.3611 I0.0886 J-0.0882
G1 Y39.7225
G3 X44.2695 Y39.6356 I0.125 J0.0
G2 X44.2715 Y39.631 I-0.005 J-0.0048
G2 X44.267 Y39.6267 I-0.0045 J0.0002
G3 X44.2654 I-0.0007 J-0.125
G2 X44.2632 Y39.6276 I0.0 J0.0029
G3 X44.1722 Y39.667 I-0.091 J-0.0856
G1 X44.1343
G0 Z0.5
G0 Y17.6897
G1 F10.0 Z0.725
G1 F50.0 Y17.2967 Z0.332
G1 X44.1058 Z0.3035
G1 Y17.8467 Z-0.2465
G1 X44.1343 Z-0.275
G1 Y17.2967
G1 X44.1058
G1 Y17.8467
G1 X44.1343
G1 F10.0 Y17.9467
G1 F50.0 X44.1722
G3 X44.2621 Y17.9849 I0.0 J0.125
G2 X44.2667 Y17.987 I0.0049 J-0.0048
G2 X44.2715 Y17.9819 I-0.0003 J-0.0051
G3 Y17.9809 I0.125 J-0.0001
G2 X44.2707 Y17.9789 I-0.0027 J0.0
G3 X44.2343 Y17.8908 I0.0886 J-0.0881
G1 Y17.2522
G3 X44.2695 Y17.1653 I0.125 J0.0
G2 X44.2715 Y17.1607 I-0.0049 J-0.0048
G2 X44.267 Y17.1564 I-0.0045 J0.0002
G3 X44.2654 I-0.0007 J-0.125
G2 X44.2632 Y17.1573 I0.0 J0.0029
G3 X44.1722 Y17.1967 I-0.0911 J-0.0856
G1 X44.068
G3 X43.9777 Y17.1581 I0.0 J-0.125
G2 X43.9737 Y17.1564 I-0.004 J0.0038
G3 X43.9735 I0.0002 J-0.125
G2 X43.969 Y17.1609 I0.0 J0.0045
G3 Y17.1617 I-0.125 J0.0004
G2 X43.9704 Y17.165 I0.0047 J0.0
G3 X44.0058 Y17.2522 I-0.0895 J0.0872
G1 Y17.8908
G3 X43.9703 Y17.9781 I-0.125 J0.0
G2 X43.969 Y17.9812 I0.0032 J0.0031
G3 Y17.9819 I-0.125 J0.0005
G2 X43.9741 Y17.987 I0.0051 J0.0
G3 X43.9748 I-0.0002 J0.125
G2 X43.9769 Y17.9861 I0.0 J-0.0029
G3 X44.068 Y17.9467 I0.0911 J0.0856
G1 X44.1343
G0 Z0.5
G0 Y14.6585
G1 F10.0 Z0.725
G1 F50.0 Y14.2655 Z0.332
G1 X44.1058 Z0.3035
G1 Y14.8155 Z-0.2465
G1 X44.1343 Z-0.275
G1 Y14.2655
G1 X44.1058
G1 Y14.8155
G1 X44.1343
G1 F10.0 Y14.9155
G1 F50.0 X44.1722
G3 X44.2621 Y14.9536 I0.0 J0.125
G2 X44.2667 Y14.9557 I0.0049 J-0.0048
G2 X44.2715 Y14.9507 I-0.0003 J-0.0051
G3 Y14.9497 I0.125 J-0.0001
G2 X44.2706 Y14.9476 I-0.0029 J0.0
G3 X44.2343 Y14.8596 I0.0887 J-0.0881
G1 Y14.221
G3 X44.2695 Y14.1341 I0.125 J0.0
G2 X44.2715 Y14.1294 I-0.0052 J-0.005
G2 X44.267 Y14.1252 I-0.0045 J0.0002
G3 X44.2654 I-0.0007 J-0.125
G2 X44.2632 Y14.1261 I0.0 J0.0029
G3 X44.1722 Y14.1655 I-0.0911 J-0.0856
G1 X44.068
G3 X43.9777 Y14.1269 I0.0 J-0.125
G2 X43.9737 Y14.1252 I-0.004 J0.0038
G3 X43.9735 I0.0002 J-0.125
G2 X43.969 Y14.1296 I0.0 J0.0045
G3 Y14.1306 I-0.125 J0.0004
G2 X43.9703 Y14.1337 I0.0045 J0.0
G3 X44.0058 Y14.221 I-0.0895 J0.0873
G1 Y14.8596
G3 X43.9703 Y14.9469 I-0.125 J0.0
G2 X43.969 Y14.95 I0.0032 J0.0031
G3 Y14.9512 I-0.125 J0.0006
G2 X43.9736 Y14.9557 I0.0045 J0.0
G3 X43.9748 I0.0003 J0.125
G2 X43.9769 Y14.9548 I0.0 J-0.0029
G3 X44.068 Y14.9155 I0.0911 J0.0856
G1 X44.1343
G0 Z0.5
G0 X38.4988 Y14.515
G1 F10.0 Z0.725
G1 F50.0 Y14.122 Z0.332
G1 X38.4703 Z0.3035
G1 Y14.672 Z-0.2465
G1 X38.4988 Z-0.275
G1 Y14.122
G1 X38.4703
G1 Y14.672
G1 X38.4988
G1 F10.0 X38.5988
G1 F50.0 Y14.0775
G3 X38.6339 Y13.9906 I0.125 J0.0
G2 X38.6359 Y13.986 I-0.0051 J-0.0049
G2 X38.6314 Y13.9817 I-0.0045 J0.0002
G3 X38.6299 I-0.0007 J-0.125
G2 X38.6276 Y13.9827 I0.0 J0.0032
G3 X38.5366 Y14.022 I-0.091 J-0.0857
G1 X38.4325
G3 X38.3423 Y13.9835 I0.0 J-0.125
G2 X38.338 Y13.9817 I-0.0043 J0.0041
G2 X38.3335 Y13.9862 I0.0 J0.0045
G3 Y13.9871 I-0.125 J0.0004
G2 X38.3348 Y13.9902 I0.0045 J0.0
G3 X38.3703 Y14.0775 I-0.0895 J0.0873
G1 Y14.7161
G3 X38.3348 Y14.8034 I-0.125 J0.0
G2 X38.3335 Y14.8065 I0.0032 J0.0031
G3 Y14.8072 I-0.125 J0.0005
G2 X38.3386 Y14.8122 I0.0051 J0.0
G3 X38.3394 I-0.0002 J0.125
G2 X38.3413 Y14.8114 I0.0 J-0.0027
G3 X38.4325 Y14.772 I0.0911 J0.0856
G1 X38.5366
G3 X38.6266 Y14.8102 I0.0 J0.125
G2 X38.6311 Y14.8122 I0.0048 J-0.0046
G2 X38.6359 Y14.8072 I-0.0002 J-0.005
G3 Y14.8062 I0.125 J-0.0002
G2 X38.6351 Y14.8041 I-0.003 J0.0
G3 X38.5988 Y14.7161 I0.0887 J-0.0881
G1 Y14.672
G0 Z0.5
G0 X38.4703 Y17.2817
G1 F10.0 Z0.725
G1 F50.0 Y17.7032 Z0.3035
G1 X38.4988 Z0.275
G1 Y17.1532 Z-0.275
G1 X38.4703
G1 Y17.7032
G1 X38.4988
G1 Y17.1532
G1 F10.0 Y17.0532
G1 F50.0 X38.4325
G3 X38.3423 Y17.0148 I0.0 J-0.125
G2 X38.338 Y17.0129 I-0.0043 J0.0041
G2 X38.3335 Y17.0174 I0.0 J0.0045
G3 Y17.0182 I-0.125 J0.0004
G2 X38.3348 Y17.0215 I0.0047 J0.0
G3 X38.3703 Y17.1088 I-0.0895 J0.0872
G1 Y17.7473
G3 X38.3348 Y17.8346 I-0.125 J0.0
G2 X38.3335 Y17.8377 I0.0032 J0.0031
G3 Y17.8384 I-0.125 J0.0006
G2 X38.3386 Y17.8435 I0.0051 J0.0
G3 X38.3394 I-0.0002 J0.125
G2 X38.3413 Y17.8426 I0.0 J-0.0027
G3 X38.4325 Y17.8032 I0.0911 J0.0856
G1 X38.5366
G3 X38.6266 Y17.8415 I0.0 J0.125
G2 X38.6311 Y17.8435 I0.0048 J-0.0046
G2 X38.6359 Y17.8384 I-0.0002 J-0.0051
G3 Y17.8374 I0.125 J-0.0001
G2 X38.6351 Y17.8354 I-0.0028 J0.0
G3 X38.5988 Y17.7473 I0.0887 J-0.0881
G1 Y17.1088
G3 X38.634 Y17.0218 I0.125 J0.0
G2 X38.6359 Y17.0173 I-0.0049 J-0.0047
G2 X38.6314 Y17.0129 I-0.0045 J0.0002
G3 X38.6299 I-0.0007 J-0.125
G2 X38.6276 Y17.0139 I0.0 J0.0032
G3 X38.5366 Y17.0532 I-0.091 J-0.0857
G1 X38.4988
G0 Z0.5
G0 Y7.8199
G1 F10.0 Z0.725
G1 F50.0 Y7.4268 Z0.332
G1 X38.4703 Z0.3035
G1 Y7.9768 Z-0.2465
G1 X38.4988 Z-0.275
G1 Y7.4268
G1 X38.4703
G1 Y7.9768
G1 X38.4988
G1 F10.0 X38.5988
G1 F50.0 Y7.3824
G3 X38.634 Y7.2954 I0.125 J0.0
G2 X38.6359 Y7.2909 I-0.0049 J-0.0048
G2 X38.6314 Y7.2866 I-0.0045 J0.0002
G3 X38.6299 I-0.0007 J-0.125
G2 X38.6276 Y7.2875 I0.0 J0.0032
G3 X38.5366 Y7.3268 I-0.091 J-0.0857
G1 X38.4325
G3 X38.3423 Y7.2884 I0.0 J-0.125
G2 X38.338 Y7.2866 I-0.0043 J0.0041
G2 X38.3335 Y7.291 I0.0 J0.0045
G3 Y7.2919 I-0.125 J0.0004
G2 X38.3348 Y7.2951 I0.0047 J0.0
G3 X38.3703 Y7.3824 I-0.0895 J0.0872
G1 Y8.0209
G3 X38.3348 Y8.1082 I-0.125 J0.0
G2 X38.3335 Y8.1114 I0.0034 J0.0033
G3 Y8.112 I-0.125 J0.0004
G2 X38.3386 Y8.1171 I0.0051 J0.0
G3 X38.3393 I-0.0002 J0.125
G2 X38.3414 Y8.1162 I0.0 J-0.0028
G3 X38.4325 Y8.0768 I0.0911 J0.0856
G1 X38.5366
G3 X38.6267 Y8.1151 I0.0 J0.125
G2 X38.6311 Y8.1171 I0.0047 J-0.0045
G2 X38.6359 Y8.1121 I-0.0002 J-0.005
G3 Y8.111 I0.125 J-0.0002
G2 X38.6351 Y8.1091 I-0.0027 J0.0
G3 X38.5988 Y8.0209 I0.0887 J-0.0881
G1 Y7.9768
G0 Z0.5
G0 X38.4988 Y4.7886
G1 F10.0 Z0.725
G1 F50.0 Y4.3956 Z0.332
G1 X38.4703 Z0.3035
G1 Y4.9456 Z-0.2465
G1 X38.4988 Z-0.275
G1 Y4.3956
G1 X38.4703
G1 Y4.9456
G1 X38.4988
G1 F10.0 X38.5988
G1 F50.0 Y4.3511
G3 X38.6339 Y4.2642 I0.125 J0.0
G2 X38.6359 Y4.2596 I-0.0051 J-0.0049
G2 X38.6314 Y4.2553 I-0.0045 J0.0002
G3 X38.6299 I-0.0007 J-0.125
G2 X38.6276 Y4.2563 I0.0 J0.0031
G3 X38.5366 Y4.2956 I-0.091 J-0.0857
G1 X38.4325
G3 X38.3423 Y4.2572 I0.0 J-0.125
G2 X38.338 Y4.2553 I-0.0043 J0.0041
G2 X38.3335 Y4.2598 I0.0 J0.0045
G3 Y4.2607 I-0.125 J0.0004
G2 X38.3348 Y4.2639 I0.0045 J0.0
G3 X38.3703 Y4.3511 I-0.0895 J0.0873
G1 Y4.9897
G3 X38.3348 Y5.0769 I-0.125 J0.0
G2 X38.3335 Y5.0802 I0.0034 J0.0033
G3 Y5.0808 I-0.125 J0.0005
G2 X38.3386 Y5.0859 I0.0051 J0.0
G3 X38.3394 I-0.0002 J0.125
G2 X38.3414 Y5.085 I0.0 J-0.0027
G3 X38.4325 Y5.0456 I0.0911 J0.0856
G1 X38.5366
G3 X38.6266 Y5.0839 I0.0 J0.125
G2 X38.6311 Y5.0859 I0.0047 J-0.0046
G2 X38.6359 Y5.0808 I-0.0002 J-0.005
G3 Y5.0798 I0.125 J-0.0002
G2 X38.6351 Y5.0778 I-0.0028 J0.0
G3 X38.5988 Y4.9897 I0.0887 J-0.0881
G1 Y4.9456
G0 Z0.5
G0 X40.3772 Y1.7692
G1 F10.0 Z0.725
G1 F50.0 X40.7099 Z0.3924
G1 Y1.7105 Z0.3337
G1 X40.1599 Z-0.2163
G1 Y1.7692 Z-0.275
G1 X40.7099
G1 Y1.7105
G1 X40.1599
G1 Y1.7692
G1 F10.0 Y1.8692
G1 F50.0 X40.7651
G3 X40.8534 Y1.9057 I0.0 J0.125
G2 X40.8567 Y1.9071 I0.0033 J-0.0033
G3 X40.8575 I0.0005 J0.125
G2 X40.862 Y1.9026 I0.0 J-0.0045
G2 X40.8595 Y1.8977 I-0.0063 J0.0001
G3 X40.8099 Y1.798 I0.0754 J-0.0997
G1 Y1.6817
G3 X40.8607 Y1.5811 I0.125 J0.0
G2 X40.862 Y1.5786 I-0.0018 J-0.0025
G3 Y1.5778 I0.125 J-0.0007
G2 X40.8569 Y1.5727 I-0.0051 J0.0
G3 X40.8562 I0.0002 J-0.125
G2 X40.8543 Y1.5735 I0.0 J0.0026
G3 X40.7655 Y1.6105 I-0.0888 J-0.0879
G1 X40.104
G3 X40.0164 Y1.5747 I0.0 J-0.125
G2 X40.0117 Y1.5727 I-0.0051 J0.0051
G2 X40.0075 Y1.5772 I0.0002 J0.0045
G3 Y1.5777 I-0.125 J0.0007
G2 X40.0095 Y1.5818 I0.0051 J0.0
G3 X40.0599 Y1.6821 I-0.0746 J0.1003
G1 Y1.798
G3 X40.0092 Y1.8986 I-0.125 J0.0
G2 X40.0075 Y1.902 I0.0025 J0.0034
G3 Y1.9026 I-0.125 J0.0002
G2 X40.0119 Y1.9071 I0.0045 J0.0
G3 X40.0129 I0.0004 J0.125
G2 X40.016 Y1.9058 I0.0 J-0.0044
G3 X40.1043 Y1.8692 I0.0883 J0.0884
G1 X40.1599
G0 Z0.5
G0 X44.1058 Y4.696
G1 F10.0 Z0.725
G1 F50.0 Y5.0891 Z0.332
G1 X44.1343 Z0.3035
G1 Y4.5391 Z-0.2465
G1 X44.1058 Z-0.275
G1 Y5.0891
G1 X44.1343
G1 Y4.5391
G1 X44.1058
G1 F10.0 Y4.4391
G1 F50.0 X44.068
G3 X43.9777 Y4.4005 I0.0 J-0.125
G2 X43.9737 Y4.3988 I-0.004 J0.0038
G3 X43.9735 I0.0002 J-0.125
G2 X43.969 Y4.4033 I0.0 J0.0045
G3 Y4.4042 I-0.125 J0.0004
G2 X43.9703 Y4.4073 I0.0045 J0.0
G3 X44.0058 Y4.4946 I-0.0895 J0.0873
G1 Y5.1332
G3 X43.9704 Y5.2204 I-0.125 J0.0
G2 X43.969 Y5.2237 I0.0034 J0.0033
G3 Y5.2248 I-0.125 J0.0005
G2 X43.9736 Y5.2294 I0.0045 J0.0
G3 X43.9748 I0.0003 J0.125
G2 X43.9769 Y5.2285 I0.0 J-0.0029
G3 X44.068 Y5.1891 I0.0911 J0.0856
G1 X44.1722
G3 X44.2621 Y5.2273 I0.0 J0.125
G2 X44.2667 Y5.2294 I0.0049 J-0.0048
G2 X44.2715 Y5.2243 I-0.0003 J-0.0051
G3 Y5.2233 I0.125 J-0.0001
G2 X44.2707 Y5.2213 I-0.0027 J0.0
G3 X44.2343 Y5.1332 I0.0886 J-0.0881
G1 Y4.4946
G3 X44.2695 Y4.4078 I0.125 J0.0
G2 X44.2715 Y4.4031 I-0.0052 J-0.005
G2 X44.267 Y4.3988 I-0.0045 J0.0002
G3 X44.2654 I-0.0007 J-0.125
G2 X44.2632 Y4.3997 I0.0 J0.0029
G3 X44.1722 Y4.4391 I-0.091 J-0.0856
G1 X44.1058
G0 Z0.5
G0 X45.5152 Y1.9127
G1 F10.0 Z0.725
G1 F50.0 X45.8479 Z0.3924
G1 Y1.854 Z0.3337
G1 X45.2979 Z-0.2163
G1 Y1.9127 Z-0.275
G1 X45.8479
G1 Y1.854
G1 X45.2979
G1 Y1.9127
G1 F10.0 X45.1979
G1 F50.0 Y1.9415
G3 X45.1472 Y2.042 I-0.125 J0.0
G2 X45.1454 Y2.0455 I0.0025 J0.0034
G3 Y2.046 I-0.125 J0.0002
G2 X45.1499 Y2.0505 I0.0045 J0.0
G3 X45.1508 I0.0004 J0.125
G2 X45.154 Y2.0493 I0.0 J-0.0044
G3 X45.2423 Y2.0127 I0.0883 J0.0884
G1 X45.9031
G3 X45.9913 Y2.0492 I0.0 J0.125
G2 X45.9946 Y2.0505 I0.0033 J-0.0033
G3 X45.9954 I0.0005 J0.125
G2 X45.9999 Y2.0461 I0.0 J-0.0045
G2 X45.9974 Y2.0412 I-0.0063 J0.0001
G3 X45.9479 Y1.9415 I0.0754 J-0.0997
G1 Y1.8252
G3 X45.9987 Y1.7246 I0.125 J0.0
G2 X45.9999 Y1.7221 I-0.0018 J-0.0025
G3 Y1.7213 I0.125 J-0.0007
G2 X45.9949 Y1.7162 I-0.0051 J0.0
G3 X45.9942 I0.0002 J-0.125
G2 X45.9923 Y1.7169 I0.0 J0.0026
G3 X45.9034 Y1.754 I-0.0889 J-0.0879
G1 X45.242
G3 X45.1542 Y1.7181 I0.0 J-0.125
G2 X45.1498 Y1.7162 I-0.0047 J0.0048
G2 X45.1454 Y1.7207 I0.0001 J0.0045
G3 Y1.7212 I-0.125 J0.0007
G2 X45.1475 Y1.7253 I0.0051 J0.0
G3 X45.1979 Y1.8255 I-0.0746 J0.1003
G1 Y1.9127
G0 Z0.5
G0 X44.1058 Y7.6988
G1 F10.0 Z0.725
G1 F50.0 Y8.1203 Z0.3035
G1 X44.1343 Z0.275
G1 Y7.5703 Z-0.275
G1 X44.1058
G1 Y8.1203
G1 X44.1343
G1 Y7.5703
G1 F10.0 Y7.4703
G1 F50.0 X44.068
G3 X43.9777 Y7.4317 I0.0 J-0.125
G2 X43.9737 Y7.43 I-0.004 J0.0038
G3 X43.9735 I0.0002 J-0.125
G2 X43.969 Y7.4345 I0.0 J0.0045
G3 Y7.4354 I-0.125 J0.0004
G2 X43.9704 Y7.4386 I0.0047 J0.0
G3 X44.0058 Y7.5259 I-0.0895 J0.0872
G1 Y8.1644
G3 X43.9704 Y8.2516 I-0.125 J0.0
G2 X43.969 Y8.2549 I0.0034 J0.0033
G3 Y8.256 I-0.125 J0.0004
G2 X43.9736 Y8.2606 I0.0045 J0.0
G3 X43.9748 I0.0003 J0.125
G2 X43.977 Y8.2597 I0.0 J-0.003
G3 X44.068 Y8.2203 I0.091 J0.0857
G1 X44.1722
G3 X44.2621 Y8.2585 I0.0 J0.125
G2 X44.2667 Y8.2606 I0.0049 J-0.0047
G2 X44.2715 Y8.2555 I-0.0003 J-0.0051
G3 Y8.2545 I0.125 J-0.0001
G2 X44.2707 Y8.2526 I-0.0027 J0.0
G3 X44.2343 Y8.1644 I0.0886 J-0.0882
G1 Y7.5259
G3 X44.2695 Y7.4389 I0.125 J0.0
G2 X44.2715 Y7.4344 I-0.0049 J-0.0048
G2 X44.267 Y7.43 I-0.0045 J0.0002
G3 X44.2654 I-0.0007 J-0.125
G2 X44.2632 Y7.431 I0.0 J0.0029
G3 X44.1722 Y7.4703 I-0.0911 J-0.0856
G1 X44.1343
( Handles )
S1000
G0 Z0.5
G0 X16.7947 Y61.7032
G1 F10.0 Z0.3
G1 F50.0 X17.7947 Y61.7036 Z-0.7
G3 X18.2939 Y62.2032 I0.0007 J0.4985
G1 X18.2934 Y63.4145
G1 Y63.578
G1 X18.2933 Y63.8548
G1 X18.2932 Y64.0774
G3 X18.1681 Y64.2023 I-0.125 J0.0
G1 X17.9218 Y64.2022
G3 X17.9031 Y64.2036 I-0.0185 J-0.1236
G2 X17.898 Y64.2086 I0.0 J0.0051
G2 X17.9031 Y64.2137 I0.0051 J-0.0001
G3 X18.0281 Y64.3387 I0.0001 J0.125
G1 X18.028 Y64.5575
G3 X17.903 Y64.6824 I-0.125 J0.0
G1 X16.9343 Y64.682
G3 X16.8093 Y64.557 I0.0 J-0.125
G1 X16.8094 Y64.3382
G3 X16.9346 Y64.2133 I0.125 J0.0
G2 X16.9397 Y64.2083 I0.0 J-0.005
G2 X16.9346 Y64.2032 I-0.0051 J0.0
G3 X16.9159 Y64.2018 I-0.0001 J-0.125
G1 X16.6695 Y64.2017
G3 X16.5508 Y64.0376 I0.0 J-0.125
G1 X16.551 Y63.6631
G1 X16.5512 Y63.2274
G1 X16.5513 Y62.9909
G3 Y62.9906 I0.125 J0.0
G2 X16.2638 Y62.703 I-0.2869 J-0.0008
G3 X16.2635 I-0.0003 J-0.125
G1 X11.8253 Y62.7012
G3 X11.825 I0.0 J-0.125
G2 X11.5374 Y62.9886 I-0.0008 J0.2868
G3 Y62.9889 I-0.125 J0.0003
G1 X11.5373 Y63.2254
G1 X11.5371 Y63.6611
G1 X11.537 Y64.0357
G3 X11.4181 Y64.1996 I-0.1188 J0.039
G1 X11.1718 Y64.1995
G3 X11.1531 Y64.2009 I-0.0185 J-0.1236
G2 X11.148 Y64.206 I0.0 J0.0051
G2 X11.1531 Y64.211 I0.0051 J-0.0001
G3 X11.2782 Y64.336 I0.0001 J0.125
G1 X11.2781 Y64.5548
G3 X11.153 Y64.6797 I-0.125 J0.0
G1 X10.1843 Y64.6793
G3 X10.0593 Y64.5543 I0.0 J-0.125
G1 X10.0594 Y64.3355
G3 X10.1846 Y64.2106 I0.125 J0.0
G2 X10.1897 Y64.2056 I0.0 J-0.005
G2 X10.1846 Y64.2005 I-0.0051 J0.0
G3 X10.1659 Y64.1991 I-0.0001 J-0.125
G1 X9.9195 Y64.199
G3 X9.7946 Y64.074 I0.0 J-0.125
G1 X9.7947 Y63.8514
G1 X9.7948 Y63.5747
G1 X9.7951 Y62.7004
G1 X9.7953 Y62.325
G1 Y62.1998
G3 X10.295 Y61.7006 I0.4986 J-0.0006
G1 X17.7947 Y61.7036
G0 Z0.5
G0 X18.8932 Y63.3118
G1 F10.0 Z0.3
G1 F50.0 Y63.0373 Z0.0255
G1 Y62.8738 Z-0.138
G1 Y62.5971 Z-0.4147
G1 Y62.3745 Z-0.6373
G3 X18.9085 Y62.3144 Z-0.7 I0.125 J0.0
G3 X19.0182 Y62.2495 I0.1096 J0.0601
G1 X19.2645
G3 X19.2832 Y62.2481 I0.0186 J0.1236
G2 X19.2883 Y62.2431 I0.0 J-0.0051
G2 X19.2832 Y62.2381 I-0.0051 J0.0001
G3 X19.1581 Y62.1131 I-0.0001 J-0.125
G1 Y61.8943
G3 X19.2831 Y61.7693 I0.125 J0.0
G1 X20.2518
G3 X20.3768 Y61.8943 I0.0 J0.125
G1 Y62.1131
G3 X20.2516 Y62.2381 I-0.125 J0.0
G2 X20.2466 Y62.2431 I0.0 J0.005
G2 X20.2517 Y62.2481 I0.0051 J0.0
G3 X20.2704 Y62.2495 I0.0001 J0.125
G1 X20.5168
G3 X20.6355 Y62.4136 I0.0 J0.125
G1 Y62.788
G1 Y63.2238
G1 Y63.4602
G3 Y63.4605 I-0.125 J0.0
G2 X20.9231 Y63.7481 I0.2869 J0.0007
G3 X20.9234 I0.0003 J0.125
G1 X25.3615
G3 X25.3618 I0.0 J0.125
G2 X25.6494 Y63.4606 I0.0007 J-0.2868
G3 Y63.4602 I0.125 J-0.0003
G1 Y63.2238
G1 Y62.788
G1 Y62.4135
G3 X25.7681 Y62.2495 I0.1188 J-0.039
G1 X26.0145
G3 X26.0332 Y62.2481 I0.0186 J0.1236
G2 X26.0383 Y62.2431 I0.0 J-0.0051
G2 X26.0332 Y62.2381 I-0.0051 J0.0001
G3 X25.9081 Y62.1131 I-0.0001 J-0.125
G1 Y61.8943
G3 X26.0331 Y61.7693 I0.125 J0.0
G1 X27.0018
G3 X27.1268 Y61.8943 I0.0 J0.125
G1 Y62.1131
G3 X27.0016 Y62.2381 I-0.125 J0.0
G2 X26.9966 Y62.2431 I0.0 J0.005
G2 X27.0017 Y62.2481 I0.0051 J0.0
G3 X27.0204 Y62.2495 I0.0001 J0.125
G1 X27.2667
G3 X27.3917 Y62.3745 I0.0 J0.125
G1 Y62.5971
G1 Y62.8738
G1 Y63.7481
G1 Y64.1235
G1 Y64.2487
G3 X26.8923 Y64.7481 I-0.4986 J0.0008
G1 X19.3926
G3 X18.8932 Y64.2487 I-0.0009 J-0.4985
G1 Y63.0373
G1 Y62.8738
G1 Y62.5971
G1 Y62.3745
G3 X18.9085 Y62.3144 I0.125 J0.0
G0 Z0.5
G0 X26.0374 Y67.7774
G1 F10.0 Z0.3
G1 F50.0 Y67.0555 Z-0.4219
G3 X26.1125 Y66.7915 Z-0.7 I0.4985 J-0.0009
G3 X26.5368 Y66.5561 I0.4234 J0.2632
G1 X27.7481
G1 X27.9117
G1 X28.1884
G1 X28.411
G3 X28.536 Y66.6811 I0.0 J0.125
G1 Y66.9275
G3 X28.5374 Y66.9462 I-0.1236 J0.0186
G2 X28.5424 Y66.9513 I0.0051 J0.0
G2 X28.5474 Y66.9462 I-0.0001 J-0.0051
G3 X28.6724 Y66.8211 I0.125 J-0.0001
G1 X28.8912
G3 X29.0162 Y66.9461 I0.0 J0.125
G1 Y67.9148
G3 X28.8912 Y68.0398 I-0.125 J0.0
G1 X28.6724
G3 X28.5474 Y67.9146 I0.0 J-0.125
G2 X28.5424 Y67.9096 I-0.005 J0.0
G2 X28.5374 Y67.9147 I0.0 J0.0051
G3 X28.536 Y67.9334 I-0.125 J0.0001
G1 Y68.1797
G3 X28.3719 Y68.2985 I-0.125 J0.0
G1 X27.9975
G1 X27.5617
G1 X27.3252
G3 X27.3249 I0.0 J-0.125
G2 X27.0374 Y68.586 I-0.0007 J0.2869
G3 Y68.5863 I-0.125 J0.0003
G1 Y73.0245
G3 Y73.0248 I-0.125 J0.0
G2 X27.3249 Y73.3124 I0.2868 J0.0007
G3 X27.3252 I0.0003 J0.125
G1 X27.5617
G1 X27.9975
G1 X28.372
G3 X28.536 Y73.4311 I0.039 J0.1188
G1 Y73.6775
G3 X28.5374 Y73.6961 I-0.1236 J0.0186
G2 X28.5424 Y73.7012 I0.0051 J0.0
G2 X28.5474 Y73.6962 I-0.0001 J-0.0051
G3 X28.6724 Y73.571 I0.125 J-0.0001
G1 X28.8912
G3 X29.0162 Y73.696 I0.0 J0.125
G1 Y74.6648
G3 X28.8912 Y74.7898 I-0.125 J0.0
G1 X28.6724
G3 X28.5474 Y74.6646 I0.0 J-0.125
G2 X28.5424 Y74.6596 I-0.005 J0.0
G2 X28.5374 Y74.6647 I0.0 J0.0051
G3 X28.536 Y74.6834 I-0.125 J0.0001
G1 Y74.9297
G3 X28.411 Y75.0547 I-0.125 J0.0
G1 X28.1884
G1 X27.9117
G1 X27.0374
G1 X26.662
G1 X26.5368
G3 X26.0374 Y74.5553 I-0.0008 J-0.4986
G1 Y67.0555
G3 X26.1125 Y66.7915 I0.4985 J-0.0009
G0 Z0.5
G0 X29.0445 Y64.2994
G1 F10.0 Z0.3
G1 F50.0 X28.3673 Z-0.3771
G3 X28.0664 Y64.199 Z-0.7 I-0.0009 J-0.4985
G3 X27.8679 Y63.8 I0.3001 J-0.3981
G1 Y62.5886
G1 Y62.4251
G1 Y62.1483
G1 Y61.9258
G3 X27.9929 Y61.8008 I0.125 J0.0
G1 X28.2392
G3 X28.2579 Y61.7994 I0.0186 J0.1236
G2 X28.263 Y61.7943 I0.0 J-0.0051
G2 X28.258 Y61.7893 I-0.0051 J0.0001
G3 X28.1328 Y61.6643 I-0.0001 J-0.125
G1 Y61.4456
G3 X28.2578 Y61.3206 I0.125 J0.0
G1 X29.2266
G3 X29.3516 Y61.4456 I0.0 J0.125
G1 Y61.6643
G3 X29.2264 Y61.7893 I-0.125 J0.0
G2 X29.2214 Y61.7943 I0.0 J0.005
G2 X29.2264 Y61.7994 I0.0051 J0.0
G3 X29.2452 Y61.8008 I0.0001 J0.125
G1 X29.4915
G3 X29.6103 Y61.9648 I0.0 J0.125
G1 Y62.3393
G1 Y62.7751
G1 Y63.0115
G3 Y63.0118 I-0.125 J0.0
G2 X29.8978 Y63.2994 I0.2869 J0.0007
G3 X29.8981 I0.0003 J0.125
G1 X34.3363
G3 X34.3366 I0.0 J0.125
G2 X34.6241 Y63.0118 I0.0007 J-0.2868
G3 Y63.0115 I0.125 J-0.0003
G1 Y62.7751
G1 Y62.3393
G1 Y61.9648
G3 X34.7429 Y61.8008 I0.1188 J-0.039
G1 X34.9892
G3 X35.0079 Y61.7994 I0.0186 J0.1236
G2 X35.013 Y61.7943 I0.0 J-0.0051
G2 X35.0079 Y61.7893 I-0.0051 J0.0001
G3 X34.8828 Y61.6643 I-0.0001 J-0.125
G1 Y61.4456
G3 X35.0078 Y61.3206 I0.125 J0.0
G1 X35.9766
G3 X36.1016 Y61.4456 I0.0 J0.125
G1 Y61.6643
G3 X35.9764 Y61.7893 I-0.125 J0.0
G2 X35.9713 Y61.7943 I0.0 J0.005
G2 X35.9764 Y61.7994 I0.0051 J0.0
G3 X35.9951 Y61.8008 I0.0001 J0.125
G1 X36.2415
G3 X36.3665 Y61.9258 I0.0 J0.125
G1 Y62.1483
G1 Y62.4251
G1 Y63.2994
G1 Y63.6747
G1 Y63.8
G3 X35.8671 Y64.2994 I-0.4986 J0.0008
G1 X28.3673
G3 X28.0664 Y64.199 I-0.0009 J-0.4985
G0 Z0.5
G0 X27.481 Y71.4537
G1 F10.0 Z0.3
G3 F50.0 X27.5382 Y71.4398 Z0.2406 I0.0572 J0.1111
G1 X27.757 Z0.0218
G3 X27.882 Y71.565 Z-0.1747 I0.0 J0.125
G2 X27.887 Y71.57 Z-0.1826 I0.005 J0.0
G2 X27.892 Y71.565 Z-0.1905 I0.0 J-0.0051
G3 X27.8934 Y71.5463 Z-0.2093 I0.125 J-0.0001
G1 Y71.2999 Z-0.4557
G3 X28.0184 Y71.1749 Z-0.652 I0.125 J0.0
G1 X28.0664 Z-0.7
G1 X28.241
G1 X28.5177
G1 X29.392
G1 X29.7674
G1 X29.8926
G3 X30.392 Y71.6743 I0.0008 J0.4986
G1 Y79.1741
G3 X29.8926 Y79.6735 I-0.4985 J0.0009
G1 X28.6813
G1 X28.5177
G1 X28.241
G1 X28.0184
G3 X27.8934 Y79.5485 I0.0 J-0.125
G1 Y79.3021
G3 X27.892 Y79.2835 I0.1236 J-0.0186
G2 X27.887 Y79.2784 I-0.0051 J0.0
G2 X27.882 Y79.2834 I0.0001 J0.0051
G3 X27.757 Y79.4086 I-0.125 J0.0001
G1 X27.5382
G3 X27.4132 Y79.2836 I0.0 J-0.125
G1 Y78.3148
G3 X27.5382 Y78.1898 I0.125 J0.0
G1 X27.757
G3 X27.882 Y78.315 I0.0 J0.125
G2 X27.887 Y78.32 I0.005 J0.0
G2 X27.892 Y78.315 I0.0 J-0.0051
G3 X27.8934 Y78.2962 I0.125 J-0.0001
G1 Y78.0499
G3 X28.0575 Y77.9311 I0.125 J0.0
G1 X28.4319
G1 X28.8677
G1 X29.1042
G3 X29.1045 I0.0 J0.125
G2 X29.392 Y77.6436 I0.0007 J-0.2869
G3 Y77.6433 I0.125 J-0.0003
G1 Y73.2051
G3 Y73.2048 I0.125 J0.0
G2 X29.1045 Y72.9173 I-0.2868 J-0.0007
G3 X29.1042 I-0.0003 J-0.125
G1 X28.8677
G1 X28.4319
G1 X28.0574
G3 X27.8934 Y72.7985 I-0.039 J-0.1188
G1 Y72.5522
G3 X27.892 Y72.5335 I0.1236 J-0.0186
G2 X27.887 Y72.5284 I-0.0051 J0.0
G2 X27.882 Y72.5335 I0.0001 J0.0051
G3 X27.757 Y72.6586 I-0.125 J0.0001
G1 X27.5382
G3 X27.4132 Y72.5336 I0.0 J-0.125
G1 Y71.5648
G3 X27.5382 Y71.4398 I0.125 J0.0
G1 X27.757
G3 X27.882 Y71.565 I0.0 J0.125
G2 X27.887 Y71.57 I0.005 J0.0
G2 X27.892 Y71.565 I0.0 J-0.0051
G3 X27.8934 Y71.5463 I0.125 J-0.0001
G1 Y71.2999
G3 X28.0184 Y71.1749 I0.125 J0.0
G1 X28.0664
G0 Z0.5
G0 X27.0664 Y75.6205
G1 F10.0 Z0.3
G1 F50.0 X27.6747 Z-0.3083
G1 X27.8383 Z-0.4719
G1 X28.0664 Z-0.7
G1 X28.115
G1 X28.3376
G3 X28.4626 Y75.7455 I0.0 J0.125
G1 Y75.9919
G3 X28.464 Y76.0106 I-0.1236 J0.0186
G2 X28.469 Y76.0157 I0.0051 J0.0
G2 X28.474 Y76.0106 I-0.0001 J-0.0051
G3 X28.599 Y75.8855 I0.125 J-0.0001
G1 X28.8178
G3 X28.9428 Y76.0105 I0.0 J0.125
G1 Y76.9792
G3 X28.8178 Y77.1042 I-0.125 J0.0
G1 X28.599
G3 X28.474 Y76.979 I0.0 J-0.125
G2 X28.469 Y76.974 I-0.005 J0.0
G2 X28.464 Y76.9791 I0.0 J0.0051
G3 X28.4626 Y76.9978 I-0.125 J0.0001
G1 Y77.2441
G3 X28.2985 Y77.3629 I-0.125 J0.0
G1 X27.924
G1 X27.4883
G1 X27.2518
G3 X27.2515 I0.0 J-0.125
G2 X26.964 Y77.6504 I-0.0007 J0.2869
G3 Y77.6507 I-0.125 J0.0003
G1 Y82.0889
G3 Y82.0892 I-0.125 J0.0
G2 X27.2515 Y82.3768 I0.2868 J0.0007
G3 X27.2518 I0.0003 J0.125
G1 X27.4883
G1 X27.924
G1 X28.2985
G3 X28.4626 Y82.4955 I0.039 J0.1188
G1 Y82.7419
G3 X28.464 Y82.7606 I-0.1236 J0.0186
G2 X28.469 Y82.7657 I0.0051 J0.0
G2 X28.474 Y82.7606 I-0.0001 J-0.0051
G3 X28.599 Y82.6355 I0.125 J-0.0001
G1 X28.8178
G3 X28.9428 Y82.7605 I0.0 J0.125
G1 Y83.7292
G3 X28.8178 Y83.8542 I-0.125 J0.0
G1 X28.599
G3 X28.474 Y83.729 I0.0 J-0.125
G2 X28.469 Y83.724 I-0.005 J0.0
G2 X28.464 Y83.7291 I0.0 J0.0051
G3 X28.4626 Y83.7478 I-0.125 J0.0001
G1 Y83.9941
G3 X28.3376 Y84.1191 I-0.125 J0.0
G1 X28.115
G1 X27.8383
G1 X26.964
G1 X26.5886
G1 X26.4634
G3 X25.964 Y83.6197 I-0.0008 J-0.4986
G1 Y76.1199
G3 X26.4634 Y75.6205 I0.4985 J-0.0009
G1 X27.6747
G1 X27.8383
G1 X28.0664
G0 Z0.5
G0 X27.524 Y80.5851
G1 F10.0 Z0.3
G3 F50.0 X27.6192 Y80.5411 Z0.1917 I0.0952 J0.081
G1 X27.838 Z-0.027
G3 X27.963 Y80.6663 Z-0.2235 I0.0 J0.125
G2 X27.968 Y80.6713 Z-0.2314 I0.005 J0.0
G2 X27.9731 Y80.6662 Z-0.2394 I0.0 J-0.0051
G3 X27.9744 Y80.6475 Z-0.2582 I0.125 J-0.0001
G1 Y80.4011 Z-0.5045
G3 X28.0986 Y80.2761 Z-0.7 I0.125 J0.0
G3 X28.0994 I0.0009 J0.125
G1 X28.322
G1 X28.5988
G1 X29.4731
G1 X29.8484
G1 X29.9736
G3 X30.4731 Y80.7756 I0.0008 J0.4986
G1 Y88.2753
G3 X29.9736 Y88.7747 I-0.4985 J0.0009
G1 X28.7623
G1 X28.5988
G1 X28.322
G1 X28.0994
G3 X27.9744 Y88.6497 I0.0 J-0.125
G1 Y88.4034
G3 X27.9731 Y88.3847 I0.1236 J-0.0186
G2 X27.968 Y88.3796 I-0.0051 J0.0
G2 X27.963 Y88.3847 I0.0001 J0.0051
G3 X27.838 Y88.5098 I-0.125 J0.0001
G1 X27.6192
G3 X27.4942 Y88.3848 I0.0 J-0.125
G1 Y87.4161
G3 X27.6192 Y87.2911 I0.125 J0.0
G1 X27.838
G3 X27.963 Y87.4162 I0.0 J0.125
G2 X27.968 Y87.4213 I0.005 J0.0
G2 X27.9731 Y87.4162 I0.0 J-0.0051
G3 X27.9744 Y87.3975 I0.125 J-0.0001
G1 Y87.1511
G3 X28.1385 Y87.0324 I0.125 J0.0
G1 X28.513
G1 X28.9487
G1 X29.1852
G3 X29.1855 I0.0 J0.125
G2 X29.473 Y86.7448 I0.0007 J-0.2869
G3 Y86.7445 I0.125 J-0.0003
G1 Y82.3064
G3 Y82.306 I0.125 J0.0
G2 X29.1855 Y82.0185 I-0.2868 J-0.0007
G3 X29.1852 I-0.0003 J-0.125
G1 X28.9487
G1 X28.513
G1 X28.1385
G3 X27.9744 Y81.8998 I-0.039 J-0.1188
G1 Y81.6534
G3 X27.9731 Y81.6347 I0.1236 J-0.0186
G2 X27.968 Y81.6296 I-0.0051 J0.0
G2 X27.963 Y81.6347 I0.0001 J0.0051
G3 X27.838 Y81.7598 I-0.125 J0.0001
G1 X27.6192
G3 X27.4942 Y81.6348 I0.0 J-0.125
G1 Y80.6661
G3 X27.6192 Y80.5411 I0.125 J0.0
G1 X27.838
G3 X27.963 Y80.6663 I0.0 J0.125
G2 X27.968 Y80.6713 I0.005 J0.0
G2 X27.9731 Y80.6662 I0.0 J-0.0051
G3 X27.9744 Y80.6475 I0.125 J-0.0001
G1 Y80.4011
G3 X28.0986 Y80.2761 I0.125 J0.0
G0 Z0.5
G0 X27.0986 Y84.7218
G1 F10.0 Z0.3
G1 F50.0 X27.7558 Z-0.3572
G1 X27.9193 Z-0.5207
G1 X28.0986 Z-0.7
G1 X28.196
G1 X28.4186
G3 X28.5436 Y84.8468 I0.0 J0.125
G1 Y85.0931
G3 X28.545 Y85.1118 I-0.1236 J0.0186
G2 X28.55 Y85.1169 I0.0051 J0.0
G2 X28.5551 Y85.1118 I-0.0001 J-0.0051
G3 X28.6801 Y84.9867 I0.125 J-0.0001
G1 X28.8988
G3 X29.0238 Y85.1117 I0.0 J0.125
G1 Y86.0804
G3 X28.8988 Y86.2054 I-0.125 J0.0
G1 X28.6801
G3 X28.5551 Y86.0803 I0.0 J-0.125
G2 X28.5501 Y86.0752 I-0.005 J0.0
G2 X28.545 Y86.0803 I0.0 J0.0051
G3 X28.5436 Y86.099 I-0.125 J0.0001
G1 Y86.3454
G3 X28.3796 Y86.4641 I-0.125 J0.0
G1 X28.0051
G1 X27.5693
G1 X27.3329
G3 X27.3326 I0.0 J-0.125
G2 X27.045 Y86.7517 I-0.0007 J0.2869
G3 Y86.752 I-0.125 J0.0003
G1 Y91.1902
G3 Y91.1905 I-0.125 J0.0
G2 X27.3326 Y91.478 I0.2868 J0.0007
G3 X27.3329 I0.0003 J0.125
G1 X27.5693
G1 X28.0051
G1 X28.3796
G3 X28.5436 Y91.5968 I0.039 J0.1188
G1 Y91.8431
G3 X28.545 Y91.8618 I-0.1236 J0.0186
G2 X28.55 Y91.8669 I0.0051 J0.0
G2 X28.5551 Y91.8618 I-0.0001 J-0.0051
G3 X28.6801 Y91.7367 I0.125 J-0.0001
G1 X28.8988
G3 X29.0238 Y91.8617 I0.0 J0.125
G1 Y92.8304
G3 X28.8988 Y92.9554 I-0.125 J0.0
G1 X28.6801
