( Made using CamBam - http://www.cambam.co.uk )
( CNCWorkstation1_0_Sheet1 12/21/2012 3:39:17 PM )
( T0 : 0.25 )
G20 G90 G91.1 G64 G40
G0 Z0.5
( T0 : 0.25 )
T0 M6
( Profile1_4by8_border_shallow_test_align )
G17
M3 S1000
G0 X-0.1 Y197.9552
G1 F10.0 Z-0.001
G1 F30.0 Y149.9572
G3 X0.025 Y149.8322 I0.125 J0.0
G1 X96.023
G3 X96.148 Y149.9572 I0.0 J0.125
G1 Y197.9552
G3 X96.023 Y198.0802 I-0.125 J0.0
G1 X0.025
G3 X-0.1 Y197.9552 I0.0 J-0.125
( Profile2_large_panel_outline )
S1000
G0 Z0.5
G0 X6.8879 Y197.5458
G1 F10.0 Z-0.25
G3 F30.0 X6.7005 Y197.3593 I0.0001 J-0.1875
G3 Y197.3586 I0.125 J-0.0007
G1 Y196.9705
G3 X6.6989 Y196.9547 I0.1233 J-0.0208
G2 X6.6946 Y196.9506 I-0.0042 J0.0002
G3 X6.6937 I-0.0004 J-0.125
G2 X6.6893 Y196.9549 I0.0 J0.0044
G3 X6.5644 Y197.0746 I-0.1249 J-0.0053
G1 X1.3269
G3 X1.2019 Y196.9496 I0.0 J-0.125
G1 Y194.7121
G3 X1.3213 Y194.5872 I0.125 J0.0
G2 X1.3258 Y194.5825 I-0.0002 J-0.0047
G3 Y194.582 I0.125 J-0.0002
G2 X1.3216 Y194.5776 I-0.0044 J0.0
G3 X1.3061 Y194.576 I0.0053 J-0.1249
G1 X0.9179
G3 X0.7307 Y194.3881 I-0.0003 J-0.187
G1 Y193.5451
G3 X0.9179 Y193.3572 I0.187 J-0.0009
G1 X1.3061
G3 X1.3218 Y193.3556 I0.0208 J0.1233
G2 X1.3258 Y193.3514 I-0.0002 J-0.0042
G3 Y193.3505 I0.125 J-0.0004
G2 X1.3215 Y193.3461 I-0.0045 J0.0
G3 X1.2019 Y193.2212 I0.0053 J-0.1249
G1 Y192.5802
G3 X1.3269 Y192.4552 I0.125 J0.0
G1 X1.822
G3 X1.947 Y192.5802 I0.0 J0.125
G1 Y192.6034
G3 Y192.6036 I-0.125 J0.0
G2 X1.9514 Y192.6079 I0.0044 J0.0
G3 X1.9518 I0.0001 J0.125
G2 X1.9557 Y192.604 I0.0 J-0.0039
G3 Y192.6034 I0.125 J-0.0006
G1 Y192.5802
G3 X2.0008 Y192.484 I0.125 J0.0
G1 Y192.4176
G3 X1.9557 Y192.3215 I0.0799 J-0.0962
G1 Y192.2986
G3 Y192.2984 I0.125 J0.0
G2 X1.9514 Y192.294 I-0.0044 J0.0
G2 X1.947 Y192.2985 I0.0001 J0.0044
G3 Y192.2986 I-0.125 J0.0001
G1 Y192.3215
G3 X1.822 Y192.4465 I-0.125 J0.0
G1 X1.3269
G3 X1.2019 Y192.3215 I0.0 J-0.125
G1 Y191.6753
G3 X1.3219 Y191.5504 I0.125 J0.0
G2 X1.3258 Y191.5463 I-0.0002 J-0.0041
G3 Y191.5453 I0.125 J-0.0005
G2 X1.3215 Y191.5409 I-0.0044 J0.0
G3 X1.321 I-0.0005 J-0.125
G1 X1.0811
G3 X1.0505 Y191.5447 I-0.0306 J-0.1212
G1 X0.9179
G3 X0.7307 Y191.3568 I-0.0003 J-0.187
G1 Y190.5138
G3 X0.9179 Y190.326 I0.187 J-0.0009
G1 X1.3061
G3 X1.3213 Y190.3244 I0.0208 J0.1233
G2 X1.3258 Y190.3196 I-0.0002 J-0.0048
G3 Y190.3192 I0.125 J-0.0002
G2 X1.3215 Y190.3147 I-0.0045 J0.0
G3 X1.2019 Y190.1898 I0.0053 J-0.1249
G1 Y186.7111
G3 X1.3212 Y186.5862 I0.125 J0.0
G2 X1.3258 Y186.5813 I-0.0002 J-0.0049
G3 Y186.5811 I0.125 J-0.0001
G2 X1.3215 Y186.5766 I-0.0046 J0.0
G3 X1.3061 Y186.575 I0.0054 J-0.1249
G1 X0.9178
G3 X0.9172 Y186.5749 I0.0 J-0.125
G3 X0.7307 Y186.3874 I0.001 J-0.1874
G1 Y185.5437
G3 X0.917 Y185.3562 I0.1875 J0.0
G3 X0.9178 I0.0008 J0.125
G1 X1.3061
G3 X1.3218 Y185.3546 I0.0208 J0.1233
G2 X1.3258 Y185.3503 I-0.0002 J-0.0042
G3 Y185.3496 I0.125 J-0.0004
G2 X1.3215 Y185.345 I-0.0046 J0.0
G3 X1.2019 Y185.2201 I0.0054 J-0.1249
G1 Y184.5791
G3 X1.3269 Y184.4541 I0.125 J0.0
G1 X1.822
G3 X1.947 Y184.5791 I0.0 J0.125
G1 Y184.6024
G3 Y184.6025 I-0.125 J0.0
G2 X1.9514 Y184.6069 I0.0044 J0.0
G2 X1.9557 Y184.6025 I-0.0001 J-0.0044
G1 Y184.6024
G1 Y184.5791
G3 X2.0008 Y184.483 I0.125 J0.0
G1 Y184.4166
G3 X1.9557 Y184.3204 I0.0799 J-0.0962
G1 Y184.2976
G3 Y184.2972 I0.125 J0.0
G2 X1.9515 Y184.293 I-0.0042 J0.0
G2 X1.947 Y184.2975 I0.0 J0.0045
G1 Y184.2976
G1 Y184.3204
G3 X1.822 Y184.4454 I-0.125 J0.0
G1 X1.3269
G3 X1.2019 Y184.3204 I0.0 J-0.125
G1 Y183.6743
G3 X1.3217 Y183.5494 I0.125 J0.0
G2 X1.3258 Y183.5451 I-0.0002 J-0.0043
G3 Y183.5443 I0.125 J-0.0004
G2 X1.3214 Y183.5399 I-0.0044 J0.0
G3 X1.321 I-0.0004 J-0.125
G1 X1.0811
G3 X1.0505 Y183.5437 I-0.0306 J-0.1212
G1 X0.9179
G3 X0.7307 Y183.3558 I-0.0003 J-0.187
G1 Y182.5125
G1 Y182.5124
G3 X0.917 Y182.325 I0.1875 J0.0
G3 X0.9178 I0.0008 J0.125
G1 X1.3061
G3 X1.3213 Y182.3233 I0.0208 J0.1233
G2 X1.3258 Y182.3186 I-0.0002 J-0.0047
G3 Y182.3182 I0.125 J-0.0002
G2 X1.3216 Y182.3137 I-0.0044 J0.0
G3 X1.2019 Y182.1888 I0.0053 J-0.1249
G1 Y179.2011
G3 X1.577 Y178.826 I0.3744 J-0.0008
G1 X30.0754
G3 X30.4505 Y179.2011 I0.0006 J0.3745
G1 Y182.1888
G3 X30.3308 Y182.3137 I-0.125 J0.0
G2 X30.3265 Y182.3182 I0.0002 J0.0044
G3 Y182.3188 I-0.125 J0.0002
G2 X30.3308 Y182.3233 I0.0045 J0.0
G3 X30.3463 Y182.325 I-0.0053 J0.1249
G1 X30.7345
G3 X30.7351 I0.0 J0.125
G3 X30.9217 Y182.5125 I-0.0009 J0.1875
G1 Y183.3562
G1 Y183.3563
G3 X30.7352 Y183.5437 I-0.1875 J-0.0001
G3 X30.7345 I-0.0007 J-0.125
G1 X30.6019
G3 X30.5719 Y183.5401 I0.0 J-0.125
G2 X30.5707 Y183.5399 I-0.0014 J0.0058
G1 X30.3314
G3 X30.3309 I0.0 J-0.125
G2 X30.3265 Y183.5443 I0.0 J0.0044
G3 Y183.5449 I-0.125 J0.0004
G2 X30.3308 Y183.5494 I0.0045 J0.0
G3 X30.4505 Y183.6743 I-0.0053 J0.1249
G1 Y184.3204
G3 X30.3255 Y184.4454 I-0.125 J0.0
G1 X29.8303
G3 X29.7053 Y184.3204 I0.0 J-0.125
G1 Y184.2976
G3 Y184.2973 I0.125 J0.0
G2 X29.701 Y184.293 I-0.0043 J0.0
G3 X29.7006 I-0.0002 J-0.125
G2 X29.6967 Y184.297 I0.0 J0.004
G3 Y184.2976 I-0.125 J0.0006
G1 Y184.3204
G3 X29.6515 Y184.4166 I-0.125 J0.0
G1 Y184.483
G3 X29.6967 Y184.5791 I-0.0799 J0.0962
G1 Y184.6024
G3 Y184.603 I-0.125 J0.0
G2 X29.7005 Y184.6069 I0.0038 J0.0
G3 X29.7011 I0.0003 J0.125
G2 X29.7053 Y184.6026 I0.0 J-0.0043
G3 Y184.6024 I0.125 J-0.0002
G1 Y184.5791
G3 X29.8303 Y184.4541 I0.125 J0.0
G1 X30.3255
G3 X30.4505 Y184.5791 I0.0 J0.125
G1 Y185.2201
G3 X30.3312 Y185.3449 I-0.125 J0.0
G2 X30.3265 Y185.3499 I0.0002 J0.0049
G3 Y185.3502 I-0.125 J0.0001
G2 X30.3308 Y185.3546 I0.0044 J0.0
G3 X30.3463 Y185.3562 I-0.0052 J0.1249
G1 X30.7345
G3 X30.7351 I0.0 J0.125
G3 X30.9217 Y185.5437 I-0.0009 J0.1875
G1 Y186.3872
G3 X30.7345 Y186.575 I-0.1871 J0.0007
G1 X30.3463
G3 X30.3306 Y186.5766 I-0.0208 J-0.1233
G2 X30.3265 Y186.5809 I0.0002 J0.0043
G3 Y186.5817 I-0.125 J0.0003
G2 X30.3308 Y186.5862 I0.0044 J0.0
G3 X30.4505 Y186.7111 I-0.0052 J0.1249
G1 Y190.1898
G3 X30.3307 Y190.3147 I-0.125 J0.0
G2 X30.3265 Y190.3191 I0.0002 J0.0044
G3 Y190.3199 I-0.125 J0.0003
G2 X30.3308 Y190.3244 I0.0045 J0.0
G3 X30.3463 Y190.326 I-0.0053 J0.1249
G1 X30.7345
G3 X30.7351 I0.0 J0.125
G3 X30.9217 Y190.5135 I-0.0008 J0.1874
G1 Y191.3572
G1 Y191.3573
G3 X30.7352 Y191.5447 I-0.1875 J-0.0001
G3 X30.7345 I-0.0007 J-0.125
G1 X30.6019
G3 X30.5729 Y191.5413 I0.0 J-0.125
G2 X30.57 Y191.5409 I-0.0037 J0.0155
G1 X30.3314
G3 X30.3311 I0.0 J-0.125
G2 X30.3265 Y191.5455 I0.0 J0.0045
G3 Y191.5458 I-0.125 J0.0004
G2 X30.3309 Y191.5504 I0.0046 J0.0
G3 X30.4505 Y191.6753 I-0.0054 J0.1249
G1 Y192.3215
G3 X30.3255 Y192.4465 I-0.125 J0.0
G1 X29.8303
G3 X29.7053 Y192.3215 I0.0 J-0.125
G1 Y192.2986
G1 Y192.2985
G2 X29.701 Y192.294 I-0.0045 J0.0
G2 X29.6967 Y192.2985 I0.0001 J0.0045
G1 Y192.2986
G1 Y192.3215
G3 X29.6515 Y192.4176 I-0.125 J0.0
G1 Y192.484
G3 X29.6967 Y192.5802 I-0.0799 J0.0962
G1 Y192.6034
G3 X29.6966 Y192.6041 I-0.125 J0.0
G2 X29.7005 Y192.6079 I0.0038 J0.0
G3 X29.701 I0.0004 J0.125
G2 X29.7053 Y192.6036 I0.0 J-0.0043
G3 Y192.6034 I0.125 J-0.0002
G1 Y192.5802
G3 X29.8303 Y192.4552 I0.125 J0.0
G1 X30.3255
G3 X30.4505 Y192.5802 I0.0 J0.125
G1 Y193.2212
G3 X30.3312 Y193.346 I-0.125 J0.0
G2 X30.3265 Y193.3509 I0.0002 J0.0049
G3 Y193.3513 I-0.125 J0.0001
G2 X30.3307 Y193.3556 I0.0043 J0.0
G3 X30.3463 Y193.3572 I-0.0052 J0.1249
G1 X30.7345
G3 X30.7351 I0.0 J0.125
G3 X30.9217 Y193.5448 I-0.0008 J0.1874
G1 Y194.3885
G3 X30.7352 Y194.576 I-0.1875 J-0.0001
G3 X30.7345 I-0.0007 J-0.125
G1 X30.3463
G3 X30.3308 Y194.5776 I-0.0208 J-0.1233
G2 X30.3265 Y194.5821 I0.0002 J0.0044
G3 Y194.5827 I-0.125 J0.0002
G2 X30.3308 Y194.5872 I0.0045 J0.0
G3 X30.4505 Y194.7121 I-0.0053 J0.1249
G1 Y196.9496
G3 X30.3255 Y197.0746 I-0.125 J0.0
G1 X25.088
G3 X24.9631 Y196.9547 I0.0 J-0.125
G2 X24.9588 Y196.9506 I-0.0042 J0.0002
G3 X24.9581 I-0.0004 J-0.125
G2 X24.9535 Y196.955 I0.0 J0.0046
G3 X24.9519 Y196.9704 I-0.1249 J-0.0054
G1 Y197.3586
G3 Y197.3592 I-0.125 J0.0
G3 X24.7643 Y197.5458 I-0.1875 J-0.0009
G1 X23.921
G3 X23.7331 Y197.3586 I-0.0007 J-0.1871
G1 Y197.226
G3 X23.737 Y197.1952 I0.125 J0.0
G1 Y196.9555
G3 Y196.9551 I0.125 J0.0
G2 X23.7325 Y196.9506 I-0.0045 J0.0
G3 X23.7319 I-0.0004 J-0.125
G2 X23.7275 Y196.9548 I0.0 J0.0044
G3 X23.6026 Y197.0746 I-0.1249 J-0.0052
G1 X22.9564
G3 X22.8314 Y196.9496 I0.0 J-0.125
G1 Y196.4545
G3 X22.9564 Y196.3295 I0.125 J0.0
G1 X22.9793
G1 X22.9794
G2 X22.9838 Y196.3251 I0.0 J-0.0044
G2 X22.9795 Y196.3208 I-0.0043 J0.0001
G3 X22.9793 I-0.0001 J-0.125
G1 X22.9564
G3 X22.8603 Y196.2756 I0.0 J-0.125
G1 X22.7939
G3 X22.6977 Y196.3208 I-0.0962 J-0.0799
G1 X22.6745
G3 X22.6743 I0.0 J-0.125
G2 X22.67 Y196.3251 I0.0 J0.0043
G2 X22.6743 Y196.3295 I0.0043 J0.0
G3 X22.6745 I0.0002 J0.125
G1 X22.6977
G3 X22.8227 Y196.4545 I0.0 J0.125
G1 Y196.9496
G3 X22.6977 Y197.0746 I-0.125 J0.0
G1 X22.0567
G3 X21.9319 Y196.9552 I0.0 J-0.125
G2 X21.927 Y196.9506 I-0.0048 J0.0002
G3 X21.9267 I-0.0001 J-0.125
G2 X21.9222 Y196.9549 I0.0 J0.0044
G3 X21.9207 Y196.97 I-0.1249 J-0.0053
G1 Y197.3586
G3 Y197.3593 I-0.125 J0.0
G3 X21.7331 Y197.5458 I-0.1875 J-0.001
G1 X20.8896
G3 X20.7019 Y197.3586 I-0.0006 J-0.1872
G1 Y196.9704
G3 X20.7002 Y196.9547 I0.1233 J-0.0208
G2 X20.696 Y196.9506 I-0.0042 J0.0002
G3 X20.6952 I-0.0003 J-0.125
G2 X20.6907 Y196.9549 I0.0 J0.0045
G3 X20.5658 Y197.0746 I-0.1249 J-0.0053
G1 X11.0866
G3 X10.9617 Y196.9548 I0.0 J-0.125
G2 X10.9574 Y196.9506 I-0.0043 J0.0002
G3 X10.9567 I-0.0003 J-0.125
G2 X10.9521 Y196.955 I0.0 J0.0046
G3 X10.9505 Y196.9703 I-0.1249 J-0.0054
G1 Y197.3586
G3 Y197.3591 I-0.125 J0.0
G3 X10.763 Y197.5458 I-0.1874 J-0.0007
G1 X9.9193
G1 X9.9192
G3 X9.7318 Y197.3593 I0.0001 J-0.1875
G3 Y197.3586 I0.125 J-0.0007
G1 Y197.226
G3 X9.7355 Y197.1955 I0.125 J0.0
G1 Y197.1954
G1 Y196.9555
G3 Y196.955 I0.125 J0.0
G2 X9.7312 Y196.9506 I-0.0043 J0.0
G3 X9.7304 I-0.0005 J-0.125
G2 X9.7261 Y196.9548 I0.0 J0.0043
G3 X9.6012 Y197.0746 I-0.1249 J-0.0052
G1 X8.955
G3 X8.83 Y196.9496 I0.0 J-0.125
G1 Y196.4545
G3 X8.955 Y196.3295 I0.125 J0.0
G1 X8.9779
G3 X8.9781 I0.0 J0.125
G2 X8.9825 Y196.3251 I0.0 J-0.0043
G3 Y196.3247 I0.125 J-0.0002
G2 X8.9785 Y196.3208 I-0.0039 J0.0
G3 X8.9779 I-0.0006 J-0.125
G1 X8.955
G3 X8.8589 Y196.2756 I0.0 J-0.125
G1 X8.7925
G3 X8.6963 Y196.3208 I-0.0962 J-0.0799
G1 X8.673
G3 X8.6725 I0.0 J-0.125
G2 X8.6686 Y196.3247 I0.0 J0.0039
G3 Y196.3252 I-0.125 J0.0003
G2 X8.6728 Y196.3295 I0.0042 J0.0
G3 X8.673 I0.0003 J0.125
G1 X8.6963
G3 X8.8213 Y196.4545 I0.0 J0.125
G1 Y196.9496
G3 X8.6963 Y197.0746 I-0.125 J0.0
G1 X8.0554
G3 X7.9305 Y196.9553 I0.0 J-0.125
G2 X7.9256 Y196.9506 I-0.0049 J0.0002
G3 X7.9253 I-0.0001 J-0.125
G2 X7.9209 Y196.9549 I0.0 J0.0045
G3 X7.9193 Y196.9703 I-0.1249 J-0.0053
G1 Y197.3586
G3 Y197.3591 I-0.125 J0.0
G3 X7.7317 Y197.5458 I-0.1874 J-0.0007
G1 X6.888
G1 X6.8879
G1 F10.0 Z-0.5
G3 F30.0 X6.7005 Y197.3593 I0.0001 J-0.1875
G3 Y197.3586 I0.125 J-0.0007
G1 Y196.9705
G3 X6.6989 Y196.9547 I0.1233 J-0.0208
G2 X6.6946 Y196.9506 I-0.0042 J0.0002
G3 X6.6937 I-0.0004 J-0.125
G2 X6.6893 Y196.9549 I0.0 J0.0044
G3 X6.5644 Y197.0746 I-0.1249 J-0.0053
G1 X1.3269
G3 X1.2019 Y196.9496 I0.0 J-0.125
G1 Y194.7121
G3 X1.3213 Y194.5872 I0.125 J0.0
G2 X1.3258 Y194.5825 I-0.0002 J-0.0047
G3 Y194.582 I0.125 J-0.0002
G2 X1.3216 Y194.5776 I-0.0044 J0.0
G3 X1.3061 Y194.576 I0.0053 J-0.1249
G1 X0.9179
G3 X0.7307 Y194.3881 I-0.0003 J-0.187
G1 Y193.5451
G3 X0.9179 Y193.3572 I0.187 J-0.0009
G1 X1.3061
G3 X1.3218 Y193.3556 I0.0208 J0.1233
G2 X1.3258 Y193.3514 I-0.0002 J-0.0042
G3 Y193.3505 I0.125 J-0.0004
G2 X1.3215 Y193.3461 I-0.0045 J0.0
G3 X1.2019 Y193.2212 I0.0053 J-0.1249
G1 Y192.5802
G3 X1.3269 Y192.4552 I0.125 J0.0
G1 X1.822
G3 X1.947 Y192.5802 I0.0 J0.125
G1 Y192.6034
G3 Y192.6036 I-0.125 J0.0
G2 X1.9514 Y192.6079 I0.0044 J0.0
G3 X1.9518 I0.0001 J0.125
G2 X1.9557 Y192.604 I0.0 J-0.0039
G3 Y192.6034 I0.125 J-0.0006
G1 Y192.5802
G3 X2.0008 Y192.484 I0.125 J0.0
G1 Y192.4176
G3 X1.9557 Y192.3215 I0.0799 J-0.0962
G1 Y192.2986
G3 Y192.2984 I0.125 J0.0
G2 X1.9514 Y192.294 I-0.0044 J0.0
G2 X1.947 Y192.2985 I0.0001 J0.0044
G3 Y192.2986 I-0.125 J0.0001
G1 Y192.3215
G3 X1.822 Y192.4465 I-0.125 J0.0
G1 X1.3269
G3 X1.2019 Y192.3215 I0.0 J-0.125
G1 Y191.6753
G3 X1.3219 Y191.5504 I0.125 J0.0
G2 X1.3258 Y191.5463 I-0.0002 J-0.0041
G3 Y191.5453 I0.125 J-0.0005
G2 X1.3215 Y191.5409 I-0.0044 J0.0
G3 X1.321 I-0.0005 J-0.125
G1 X1.0811
G3 X1.0505 Y191.5447 I-0.0306 J-0.1212
G1 X0.9179
G3 X0.7307 Y191.3568 I-0.0003 J-0.187
G1 Y190.5138
G3 X0.9179 Y190.326 I0.187 J-0.0009
G1 X1.3061
G3 X1.3213 Y190.3244 I0.0208 J0.1233
G2 X1.3258 Y190.3196 I-0.0002 J-0.0048
G3 Y190.3192 I0.125 J-0.0002
G2 X1.3215 Y190.3147 I-0.0045 J0.0
G3 X1.2019 Y190.1898 I0.0053 J-0.1249
G1 Y186.7111
G3 X1.3212 Y186.5862 I0.125 J0.0
G2 X1.3258 Y186.5813 I-0.0002 J-0.0049
G3 Y186.5811 I0.125 J-0.0001
G2 X1.3215 Y186.5766 I-0.0046 J0.0
G3 X1.3061 Y186.575 I0.0054 J-0.1249
G1 X0.9178
G3 X0.9172 Y186.5749 I0.0 J-0.125
G3 X0.7307 Y186.3874 I0.001 J-0.1874
G1 Y185.5437
G3 X0.917 Y185.3562 I0.1875 J0.0
G3 X0.9178 I0.0008 J0.125
G1 X1.3061
G3 X1.3218 Y185.3546 I0.0208 J0.1233
G2 X1.3258 Y185.3503 I-0.0002 J-0.0042
G3 Y185.3496 I0.125 J-0.0004
G2 X1.3215 Y185.345 I-0.0046 J0.0
G3 X1.2019 Y185.2201 I0.0054 J-0.1249
G1 Y184.5791
G3 X1.3269 Y184.4541 I0.125 J0.0
G1 X1.822
G3 X1.947 Y184.5791 I0.0 J0.125
G1 Y184.6024
G3 Y184.6025 I-0.125 J0.0
G2 X1.9514 Y184.6069 I0.0044 J0.0
G2 X1.9557 Y184.6025 I-0.0001 J-0.0044
G1 Y184.6024
G1 Y184.5791
G3 X2.0008 Y184.483 I0.125 J0.0
G1 Y184.4166
G3 X1.9557 Y184.3204 I0.0799 J-0.0962
G1 Y184.2976
G3 Y184.2972 I0.125 J0.0
G2 X1.9515 Y184.293 I-0.0042 J0.0
G2 X1.947 Y184.2975 I0.0 J0.0045
G1 Y184.2976
G1 Y184.3204
G3 X1.822 Y184.4454 I-0.125 J0.0
G1 X1.3269
G3 X1.2019 Y184.3204 I0.0 J-0.125
G1 Y183.6743
G3 X1.3217 Y183.5494 I0.125 J0.0
G2 X1.3258 Y183.5451 I-0.0002 J-0.0043
G3 Y183.5443 I0.125 J-0.0004
G2 X1.3214 Y183.5399 I-0.0044 J0.0
G3 X1.321 I-0.0004 J-0.125
G1 X1.0811
G3 X1.0505 Y183.5437 I-0.0306 J-0.1212
G1 X0.9179
G3 X0.7307 Y183.3558 I-0.0003 J-0.187
G1 Y182.5125
G1 Y182.5124
G3 X0.917 Y182.325 I0.1875 J0.0
G3 X0.9178 I0.0008 J0.125
G1 X1.3061
G3 X1.3213 Y182.3233 I0.0208 J0.1233
G2 X1.3258 Y182.3186 I-0.0002 J-0.0047
G3 Y182.3182 I0.125 J-0.0002
G2 X1.3216 Y182.3137 I-0.0044 J0.0
G3 X1.2019 Y182.1888 I0.0053 J-0.1249
G1 Y179.2011
G3 X1.577 Y178.826 I0.3744 J-0.0008
G1 X30.0754
G3 X30.4505 Y179.2011 I0.0006 J0.3745
G1 Y182.1888
G3 X30.3308 Y182.3137 I-0.125 J0.0
G2 X30.3265 Y182.3182 I0.0002 J0.0044
G3 Y182.3188 I-0.125 J0.0002
G2 X30.3308 Y182.3233 I0.0045 J0.0
G3 X30.3463 Y182.325 I-0.0053 J0.1249
G1 X30.7345
G3 X30.7351 I0.0 J0.125
G3 X30.9217 Y182.5125 I-0.0009 J0.1875
G1 Y183.3562
G1 Y183.3563
G3 X30.7352 Y183.5437 I-0.1875 J-0.0001
G3 X30.7345 I-0.0007 J-0.125
G1 X30.6019
G3 X30.5719 Y183.5401 I0.0 J-0.125
G2 X30.5707 Y183.5399 I-0.0014 J0.0058
G1 X30.3314
G3 X30.3309 I0.0 J-0.125
G2 X30.3265 Y183.5443 I0.0 J0.0044
G3 Y183.5449 I-0.125 J0.0004
G2 X30.3308 Y183.5494 I0.0045 J0.0
G3 X30.4505 Y183.6743 I-0.0053 J0.1249
G1 Y184.3204
G3 X30.3255 Y184.4454 I-0.125 J0.0
G1 X29.8303
G3 X29.7053 Y184.3204 I0.0 J-0.125
G1 Y184.2976
G3 Y184.2973 I0.125 J0.0
G2 X29.701 Y184.293 I-0.0043 J0.0
G3 X29.7006 I-0.0002 J-0.125
G2 X29.6967 Y184.297 I0.0 J0.004
G3 Y184.2976 I-0.125 J0.0006
G1 Y184.3204
G3 X29.6515 Y184.4166 I-0.125 J0.0
G1 Y184.483
G3 X29.6967 Y184.5791 I-0.0799 J0.0962
G1 Y184.6024
G3 Y184.603 I-0.125 J0.0
G2 X29.7005 Y184.6069 I0.0038 J0.0
G3 X29.7011 I0.0003 J0.125
G2 X29.7053 Y184.6026 I0.0 J-0.0043
G3 Y184.6024 I0.125 J-0.0002
G1 Y184.5791
G3 X29.8303 Y184.4541 I0.125 J0.0
G1 X30.3255
G3 X30.4505 Y184.5791 I0.0 J0.125
G1 Y185.2201
G3 X30.3312 Y185.3449 I-0.125 J0.0
G2 X30.3265 Y185.3499 I0.0002 J0.0049
G3 Y185.3502 I-0.125 J0.0001
G2 X30.3308 Y185.3546 I0.0044 J0.0
G3 X30.3463 Y185.3562 I-0.0052 J0.1249
G1 X30.7345
G3 X30.7351 I0.0 J0.125
G3 X30.9217 Y185.5437 I-0.0009 J0.1875
G1 Y186.3872
G3 X30.7345 Y186.575 I-0.1871 J0.0007
G1 X30.3463
G3 X30.3306 Y186.5766 I-0.0208 J-0.1233
G2 X30.3265 Y186.5809 I0.0002 J0.0043
G3 Y186.5817 I-0.125 J0.0003
G2 X30.3308 Y186.5862 I0.0044 J0.0
G3 X30.4505 Y186.7111 I-0.0052 J0.1249
G1 Y190.1898
G3 X30.3307 Y190.3147 I-0.125 J0.0
G2 X30.3265 Y190.3191 I0.0002 J0.0044
G3 Y190.3199 I-0.125 J0.0003
G2 X30.3308 Y190.3244 I0.0045 J0.0
G3 X30.3463 Y190.326 I-0.0053 J0.1249
G1 X30.7345
G3 X30.7351 I0.0 J0.125
G3 X30.9217 Y190.5135 I-0.0008 J0.1874
G1 Y191.3572
G1 Y191.3573
G3 X30.7352 Y191.5447 I-0.1875 J-0.0001
G3 X30.7345 I-0.0007 J-0.125
G1 X30.6019
G3 X30.5729 Y191.5413 I0.0 J-0.125
G2 X30.57 Y191.5409 I-0.0037 J0.0155
G1 X30.3314
G3 X30.3311 I0.0 J-0.125
G2 X30.3265 Y191.5455 I0.0 J0.0045
G3 Y191.5458 I-0.125 J0.0004
G2 X30.3309 Y191.5504 I0.0046 J0.0
G3 X30.4505 Y191.6753 I-0.0054 J0.1249
G1 Y192.3215
G3 X30.3255 Y192.4465 I-0.125 J0.0
G1 X29.8303
G3 X29.7053 Y192.3215 I0.0 J-0.125
G1 Y192.2986
G1 Y192.2985
G2 X29.701 Y192.294 I-0.0045 J0.0
G2 X29.6967 Y192.2985 I0.0001 J0.0045
G1 Y192.2986
G1 Y192.3215
G3 X29.6515 Y192.4176 I-0.125 J0.0
G1 Y192.484
G3 X29.6967 Y192.5802 I-0.0799 J0.0962
G1 Y192.6034
G3 X29.6966 Y192.6041 I-0.125 J0.0
G2 X29.7005 Y192.6079 I0.0038 J0.0
G3 X29.701 I0.0004 J0.125
G2 X29.7053 Y192.6036 I0.0 J-0.0043
G3 Y192.6034 I0.125 J-0.0002
G1 Y192.5802
G3 X29.8303 Y192.4552 I0.125 J0.0
G1 X30.3255
G3 X30.4505 Y192.5802 I0.0 J0.125
G1 Y193.2212
G3 X30.3312 Y193.346 I-0.125 J0.0
G2 X30.3265 Y193.3509 I0.0002 J0.0049
G3 Y193.3513 I-0.125 J0.0001
G2 X30.3307 Y193.3556 I0.0043 J0.0
G3 X30.3463 Y193.3572 I-0.0052 J0.1249
G1 X30.7345
G3 X30.7351 I0.0 J0.125
G3 X30.9217 Y193.5448 I-0.0008 J0.1874
G1 Y194.3885
G3 X30.7352 Y194.576 I-0.1875 J-0.0001
G3 X30.7345 I-0.0007 J-0.125
G1 X30.3463
G3 X30.3308 Y194.5776 I-0.0208 J-0.1233
G2 X30.3265 Y194.5821 I0.0002 J0.0044
G3 Y194.5827 I-0.125 J0.0002
G2 X30.3308 Y194.5872 I0.0045 J0.0
G3 X30.4505 Y194.7121 I-0.0053 J0.1249
G1 Y196.9496
G3 X30.3255 Y197.0746 I-0.125 J0.0
G1 X25.088
G3 X24.9631 Y196.9547 I0.0 J-0.125
G2 X24.9588 Y196.9506 I-0.0042 J0.0002
G3 X24.9581 I-0.0004 J-0.125
G2 X24.9535 Y196.955 I0.0 J0.0046
G3 X24.9519 Y196.9704 I-0.1249 J-0.0054
G1 Y197.3586
G3 Y197.3592 I-0.125 J0.0
G3 X24.7643 Y197.5458 I-0.1875 J-0.0009
G1 X23.921
G3 X23.7331 Y197.3586 I-0.0007 J-0.1871
G1 Y197.226
G3 X23.737 Y197.1952 I0.125 J0.0
G1 Y196.9555
G3 Y196.9551 I0.125 J0.0
G2 X23.7325 Y196.9506 I-0.0045 J0.0
G3 X23.7319 I-0.0004 J-0.125
G2 X23.7275 Y196.9548 I0.0 J0.0044
G3 X23.6026 Y197.0746 I-0.1249 J-0.0052
G1 X22.9564
G3 X22.8314 Y196.9496 I0.0 J-0.125
G1 Y196.4545
G3 X22.9564 Y196.3295 I0.125 J0.0
G1 X22.9793
G1 X22.9794
G2 X22.9838 Y196.3251 I0.0 J-0.0044
G2 X22.9795 Y196.3208 I-0.0043 J0.0001
G3 X22.9793 I-0.0001 J-0.125
G1 X22.9564
G3 X22.8603 Y196.2756 I0.0 J-0.125
G1 X22.7939
G3 X22.6977 Y196.3208 I-0.0962 J-0.0799
G1 X22.6745
G3 X22.6743 I0.0 J-0.125
G2 X22.67 Y196.3251 I0.0 J0.0043
G2 X22.6743 Y196.3295 I0.0043 J0.0
G3 X22.6745 I0.0002 J0.125
G1 X22.6977
G3 X22.8227 Y196.4545 I0.0 J0.125
G1 Y196.9496
G3 X22.6977 Y197.0746 I-0.125 J0.0
G1 X22.0567
G3 X21.9319 Y196.9552 I0.0 J-0.125
G2 X21.927 Y196.9506 I-0.0048 J0.0002
G3 X21.9267 I-0.0001 J-0.125
G2 X21.9222 Y196.9549 I0.0 J0.0044
G3 X21.9207 Y196.97 I-0.1249 J-0.0053
G1 Y197.3586
G3 Y197.3593 I-0.125 J0.0
G3 X21.7331 Y197.5458 I-0.1875 J-0.001
G1 X20.8896
G3 X20.7019 Y197.3586 I-0.0006 J-0.1872
G1 Y196.9704
G3 X20.7002 Y196.9547 I0.1233 J-0.0208
G2 X20.696 Y196.9506 I-0.0042 J0.0002
G3 X20.6952 I-0.0003 J-0.125
G2 X20.6907 Y196.9549 I0.0 J0.0045
G3 X20.5658 Y197.0746 I-0.1249 J-0.0053
G1 X11.0866
G3 X10.9617 Y196.9548 I0.0 J-0.125
G2 X10.9574 Y196.9506 I-0.0043 J0.0002
G3 X10.9567 I-0.0003 J-0.125
G2 X10.9521 Y196.955 I0.0 J0.0046
G3 X10.9505 Y196.9703 I-0.1249 J-0.0054
G1 Y197.3586
G3 Y197.3591 I-0.125 J0.0
G3 X10.763 Y197.5458 I-0.1874 J-0.0007
G1 X9.9193
G1 X9.9192
G3 X9.7318 Y197.3593 I0.0001 J-0.1875
G3 Y197.3586 I0.125 J-0.0007
G1 Y197.226
G3 X9.7355 Y197.1955 I0.125 J0.0
G1 Y197.1954
G1 Y196.9555
G3 Y196.955 I0.125 J0.0
G2 X9.7312 Y196.9506 I-0.0043 J0.0
G3 X9.7304 I-0.0005 J-0.125
G2 X9.7261 Y196.9548 I0.0 J0.0043
G3 X9.6012 Y197.0746 I-0.1249 J-0.0052
G1 X8.955
G3 X8.83 Y196.9496 I0.0 J-0.125
G1 Y196.4545
G3 X8.955 Y196.3295 I0.125 J0.0
G1 X8.9779
G3 X8.9781 I0.0 J0.125
G2 X8.9825 Y196.3251 I0.0 J-0.0043
G3 Y196.3247 I0.125 J-0.0002
G2 X8.9785 Y196.3208 I-0.0039 J0.0
G3 X8.9779 I-0.0006 J-0.125
G1 X8.955
G3 X8.8589 Y196.2756 I0.0 J-0.125
G1 X8.7925
G3 X8.6963 Y196.3208 I-0.0962 J-0.0799
G1 X8.673
G3 X8.6725 I0.0 J-0.125
G2 X8.6686 Y196.3247 I0.0 J0.0039
G3 Y196.3252 I-0.125 J0.0003
G2 X8.6728 Y196.3295 I0.0042 J0.0
G3 X8.673 I0.0003 J0.125
G1 X8.6963
G3 X8.8213 Y196.4545 I0.0 J0.125
G1 Y196.9496
G3 X8.6963 Y197.0746 I-0.125 J0.0
G1 X8.0554
G3 X7.9305 Y196.9553 I0.0 J-0.125
G2 X7.9256 Y196.9506 I-0.0049 J0.0002
G3 X7.9253 I-0.0001 J-0.125
G2 X7.9209 Y196.9549 I0.0 J0.0045
G3 X7.9193 Y196.9703 I-0.1249 J-0.0053
G1 Y197.3586
G3 Y197.3591 I-0.125 J0.0
G3 X7.7317 Y197.5458 I-0.1874 J-0.0007
G1 X6.888
G1 X6.8879
G0 Z0.5
G0 Y178.4363
G1 F10.0 Z-0.25
G1 F30.0 X1.2077
G3 X1.0827 Y178.3113 I0.0 J-0.125
G1 Y176.0738
G3 X1.2029 Y175.9489 I0.125 J0.0
G2 X1.207 Y175.9446 I-0.0002 J-0.0043
G3 Y175.9439 I0.125 J-0.0003
G2 X1.2027 Y175.9394 I-0.0045 J0.0
G3 X1.187 Y175.9377 I0.0051 J-0.1249
G1 X0.799
G3 X0.7985 I0.0 J-0.125
G3 X0.6119 Y175.7502 I0.0009 J-0.1874
G1 Y174.9068
G3 X0.7991 Y174.719 I0.1871 J-0.0007
G1 X0.9317
G3 X0.947 Y174.7199 I0.0 J0.125
G1 X0.9699 Y174.7228
G1 X1.2022
G3 X1.2027 I0.0 J0.125
G2 X1.207 Y174.7184 I0.0 J-0.0043
G3 Y174.7178 I0.125 J-0.0005
G2 X1.2027 Y174.7133 I-0.0045 J0.0
G3 X1.0827 Y174.5884 I0.005 J-0.1249
G1 Y173.9422
G3 X1.2077 Y173.8172 I0.125 J0.0
G1 X1.7032
G3 X1.8282 Y173.9422 I0.0 J0.125
G1 Y173.9651
G3 Y173.9653 I-0.125 J0.0
G2 X1.8326 Y173.9697 I0.0044 J0.0
G3 X1.8329 I0.0002 J0.125
G2 X1.8369 Y173.9656 I0.0 J-0.004
G3 Y173.9651 I0.125 J-0.0005
G1 Y173.9422
G3 X1.882 Y173.8461 I0.125 J0.0
G1 Y173.7797
G3 X1.8369 Y173.6835 I0.0799 J-0.0962
G1 Y173.6603
G3 Y173.6596 I0.125 J0.0
G2 X1.8331 Y173.6558 I-0.0038 J0.0
G3 X1.8324 I-0.0003 J-0.125
G2 X1.8282 Y173.66 I0.0 J0.0042
G3 Y173.6603 I-0.125 J0.0002
G1 Y173.6835
G3 X1.7032 Y173.8085 I-0.125 J0.0
G1 X1.2077
G3 X1.0827 Y173.6835 I0.0 J-0.125
G1 Y173.0426
G3 X1.2023 Y172.9177 I0.125 J0.0
G2 X1.207 Y172.9128 I-0.0002 J-0.0049
G3 Y172.9126 I0.125 J-0.0001
G2 X1.2027 Y172.9081 I-0.0045 J0.0
G3 X1.187 Y172.9065 I0.005 J-0.1249
G1 X0.799
G3 X0.7985 I0.0 J-0.125
G3 X0.6119 Y172.7189 I0.0009 J-0.1874
G1 Y171.8755
G3 X0.7991 Y171.6877 I0.1871 J-0.0007
G1 X1.187
G3 X1.203 Y171.6861 I0.0208 J0.1233
G2 X1.207 Y171.6818 I-0.0002 J-0.0042
G3 Y171.6809 I0.125 J-0.0004
G2 X1.2028 Y171.6765 I-0.0044 J0.0
G3 X1.0827 Y171.5516 I0.0049 J-0.1249
G1 Y168.0727
G3 X1.2029 Y167.9478 I0.125 J0.0
G2 X1.207 Y167.9435 I-0.0002 J-0.0043
G3 Y167.9428 I0.125 J-0.0003
G2 X1.2027 Y167.9383 I-0.0045 J0.0
G3 X1.187 Y167.9367 I0.005 J-0.1249
G1 X0.799
G3 X0.7985 I0.0 J-0.125
G3 X0.6119 Y167.7491 I0.0009 J-0.1874
G1 Y166.9054
G3 X0.7984 Y166.7179 I0.1875 J0.0
G3 X0.799 I0.0007 J0.125
G1 X0.9317
G3 X0.9471 Y166.7189 I0.0 J0.125
G1 X0.97 Y166.7217
G1 X1.2022
G3 X1.2026 I0.0 J0.125
G2 X1.207 Y166.7173 I0.0 J-0.0044
G3 Y166.7166 I0.125 J-0.0004
G2 X1.2028 Y166.7122 I-0.0044 J0.0
G3 X1.0827 Y166.5873 I0.0049 J-0.1249
G1 Y165.9412
G3 X1.2077 Y165.8162 I0.125 J0.0
G1 X1.7032
G3 X1.8282 Y165.9412 I0.0 J0.125
G1 Y165.9641
G2 X1.8327 Y165.9686 I0.0045 J0.0
G3 X1.833 I0.0 J0.125
G2 X1.8369 Y165.9647 I0.0 J-0.0038
G3 Y165.9641 I0.125 J-0.0006
G1 Y165.9412
G3 X1.882 Y165.845 I0.125 J0.0
G1 Y165.7787
G3 X1.8369 Y165.6825 I0.0799 J-0.0962
G1 Y165.6592
G3 Y165.659 I0.125 J0.0
G2 X1.8326 Y165.6547 I-0.0043 J0.0
G3 X1.8325 I0.0002 J-0.125
G2 X1.8282 Y165.659 I0.0 J0.0043
G3 Y165.6592 I-0.125 J0.0002
G1 Y165.6825
G3 X1.7032 Y165.8075 I-0.125 J0.0
G1 X1.2077
G3 X1.0827 Y165.6825 I0.0 J-0.125
G1 Y165.0415
G3 X1.2024 Y164.9166 I0.125 J0.0
G2 X1.207 Y164.9118 I-0.0002 J-0.0048
G3 Y164.9114 I0.125 J-0.0001
G2 X1.2028 Y164.9071 I-0.0044 J0.0
G3 X1.187 Y164.9054 I0.0049 J-0.1249
G1 X0.799
G3 X0.7985 I0.0 J-0.125
G3 X0.6119 Y164.7179 I0.0009 J-0.1874
G1 Y163.8745
G3 X0.7991 Y163.6867 I0.1871 J-0.0007
G1 X1.187
G3 X1.2029 Y163.685 I0.0208 J0.1233
G2 X1.207 Y163.6807 I-0.0002 J-0.0043
G3 Y163.68 I0.125 J-0.0003
G2 X1.2027 Y163.6754 I-0.0046 J0.0
G3 X1.0827 Y163.5506 I0.0051 J-0.1249
G1 Y161.3127
G3 X1.2077 Y161.1877 I0.125 J0.0
G1 X6.4455
G3 X6.5704 Y161.3074 I0.0 J0.125
G2 X6.5749 Y161.3117 I0.0045 J-0.0002
G3 X6.5756 I0.0002 J0.125
G2 X6.58 Y161.3075 I0.0 J-0.0044
G3 X6.5817 Y161.292 I0.1249 J0.0053
G1 Y160.9037
G3 Y160.9032 I0.125 J0.0
G3 X6.7692 Y160.7165 I0.1874 J0.0008
G1 X7.6129
G1 X7.613
G3 X7.8004 Y160.903 I-0.0001 J0.1875
G3 Y160.9037 I-0.125 J0.0007
G1 Y161.0363
G3 X7.7966 Y161.0669 I-0.125 J0.0
G2 Y161.067 I0.0005 J0.0001
G1 Y161.3068
G3 Y161.3072 I-0.125 J0.0
G2 X7.8011 Y161.3117 I0.0045 J0.0
G3 X7.8016 I0.0004 J0.125
G2 X7.8061 Y161.3074 I0.0 J-0.0045
G3 X7.931 Y161.1877 I0.1249 J0.0053
G1 X8.5772
G3 X8.7022 Y161.3127 I0.0 J0.125
G1 Y161.8078
G3 X8.5772 Y161.9328 I-0.125 J0.0
G1 X8.5543
G3 X8.554 I0.0 J-0.125
G2 X8.5497 Y161.9371 I0.0 J0.0043
G2 X8.5541 Y161.9415 I0.0044 J0.0
G3 X8.5543 I0.0002 J0.125
G1 X8.5772
G3 X8.6733 Y161.9866 I0.0 J0.125
G1 X8.7397
G3 X8.8358 Y161.9415 I0.0962 J0.0799
G1 X8.8591
G3 X8.8597 I0.0 J0.125
G2 X8.8636 Y161.9376 I0.0 J-0.0039
G3 Y161.9373 I0.125 J-0.0003
G2 X8.8592 Y161.9328 I-0.0044 J0.0
G1 X8.8591
G1 X8.8358
G3 X8.7108 Y161.8078 I0.0 J-0.125
G1 Y161.3127
G3 X8.8358 Y161.1877 I0.125 J0.0
G1 X9.4768
G3 X9.6017 Y161.307 I0.0 J0.125
G2 X9.6067 Y161.3117 I0.005 J-0.0002
G3 X9.607 I0.0 J0.125
G2 X9.6113 Y161.3076 I0.0 J-0.0043
G3 X9.6129 Y161.292 I0.1249 J0.0051
G1 Y160.9037
G3 Y160.9032 I0.125 J0.0
G3 X9.8004 Y160.7165 I0.1874 J0.0008
G1 X10.6442
G3 X10.8317 Y160.903 I-0.0001 J0.1875
G3 Y160.9037 I-0.125 J0.0007
G1 Y161.292
G3 X10.8333 Y161.3074 I-0.1233 J0.0208
G2 X10.8377 Y161.3117 I0.0045 J-0.0002
G3 X10.8384 I0.0002 J0.125
G2 X10.8429 Y161.3074 I0.0 J-0.0044
G3 X10.9678 Y161.1877 I0.1249 J0.0053
G1 X20.4466
G3 X20.5715 Y161.3075 I0.0 J0.125
G2 X20.5759 Y161.3117 I0.0044 J-0.0002
G3 X20.5766 I0.0002 J0.125
G2 X20.5811 Y161.3074 I0.0 J-0.0045
G3 X20.5827 Y161.292 I0.1249 J0.0054
G1 Y160.9039
G3 X20.7706 Y160.7165 I0.187 J-0.0004
G1 X21.6137
G3 X21.8015 Y160.9037 I0.0007 J0.1871
G1 Y161.0363
G3 X21.7976 Y161.0671 I-0.125 J0.0
G1 Y161.3068
G3 Y161.3072 I-0.125 J0.0
G2 X21.8021 Y161.3117 I0.0045 J0.0
G3 X21.8026 I0.0004 J0.125
G2 X21.8071 Y161.3074 I0.0 J-0.0045
G3 X21.932 Y161.1877 I0.1249 J0.0054
G1 X22.5782
G3 X22.7032 Y161.3127 I0.0 J0.125
G1 Y161.8078
G3 X22.5782 Y161.9328 I-0.125 J0.0
G1 X22.5553
G3 X22.5552 I0.0 J-0.125
G2 X22.5508 Y161.9372 I0.0 J0.0044
G1 Y161.9373
G2 X22.555 Y161.9415 I0.0042 J0.0
G3 X22.5553 I0.0003 J0.125
G1 X22.5782
G3 X22.6743 Y161.9866 I0.0 J0.125
G1 X22.7407
G3 X22.8369 Y161.9415 I0.0962 J0.0799
G1 X22.8601
G3 X22.8608 I0.0 J0.125
G2 X22.8646 Y161.9377 I0.0 J-0.0038
G3 Y161.9372 I0.125 J-0.0004
G2 X22.8602 Y161.9328 I-0.0044 J0.0
G1 X22.8601
G1 X22.8369
G3 X22.7119 Y161.8078 I0.0 J-0.125
G1 Y161.3127
G3 X22.8369 Y161.1877 I0.125 J0.0
G1 X23.4779
G3 X23.6027 Y161.307 I0.0 J0.125
G2 X23.6077 Y161.3117 I0.005 J-0.0002
G3 X23.608 I0.0 J0.125
G2 X23.6123 Y161.3076 I0.0 J-0.0043
G3 X23.614 Y161.2916 I0.1249 J0.0051
G1 Y160.9039
G3 X23.8019 Y160.7165 I0.187 J-0.0004
G1 X24.645
G3 X24.8327 Y160.9037 I0.0007 J0.1871
G1 Y161.2923
G3 X24.8343 Y161.3074 I-0.1233 J0.0204
G2 X24.8388 Y161.3117 I0.0044 J-0.0002
G3 X24.8395 I0.0002 J0.125
G2 X24.8439 Y161.3075 I0.0 J-0.0044
G3 X24.9688 Y161.1877 I0.1249 J0.0053
G1 X30.2063
G3 X30.3313 Y161.3127 I0.0 J0.125
G1 Y163.5506
G3 X30.2119 Y163.6754 I-0.125 J0.0
G2 X30.2074 Y163.6802 I0.0002 J0.0047
G3 Y163.6806 I-0.125 J0.0002
G2 X30.2116 Y163.6851 I0.0044 J0.0
G3 X30.2271 Y163.6867 I-0.0053 J0.1249
G1 X30.607
G3 X30.6432 Y163.6885 I0.0115 J0.1347
G3 X30.8025 Y163.8743 I-0.0284 J0.1856
G1 Y164.7176
G3 X30.6153 Y164.9054 I-0.1871 J0.0007
G1 X30.2271
G3 X30.2115 Y164.9071 I-0.0208 J-0.1233
G2 X30.2074 Y164.9114 I0.0002 J0.0043
G3 Y164.9122 I-0.125 J0.0003
G2 X30.2116 Y164.9166 I0.0044 J0.0
G3 X30.3313 Y165.0415 I-0.0053 J0.1249
G1 Y165.6825
G3 X30.2063 Y165.8075 I-0.125 J0.0
G1 X29.7112
G3 X29.5862 Y165.6825 I0.0 J-0.125
G1 Y165.6593
G2 X29.5818 Y165.6547 I-0.0045 J0.0
G2 X29.5775 Y165.6591 I0.0001 J0.0044
G3 Y165.6592 I-0.125 J0.0001
G1 Y165.6825
G3 X29.5324 Y165.7786 I-0.125 J0.0
G1 Y165.8451
G3 X29.5775 Y165.9412 I-0.0799 J0.0961
G1 Y165.9641
G3 Y165.9647 I-0.125 J0.0
G2 X29.5813 Y165.9686 I0.0038 J0.0
G3 X29.5818 I0.0003 J0.125
G2 X29.5862 Y165.9642 I0.0 J-0.0044
G3 Y165.9641 I0.125 J-0.0001
G1 Y165.9412
G3 X29.7112 Y165.8162 I0.125 J0.0
G1 X30.2063
G3 X30.3313 Y165.9412 I0.0 J0.125
G1 Y166.5873
G3 X30.2115 Y166.7122 I-0.125 J0.0
G2 X30.2074 Y166.7165 I0.0002 J0.0043
G3 Y166.7171 I-0.125 J0.0004
G2 X30.212 Y166.7217 I0.0046 J0.0
G3 X30.2122 I0.0003 J0.125
G1 X30.4498
G2 X30.4554 Y166.721 I-0.002 J-0.0349
G3 X30.4827 Y166.7179 I0.0273 J0.122
G1 X30.6069
G3 X30.6433 Y166.7197 I0.0115 J0.1346
G3 X30.8025 Y166.9055 I-0.0285 J0.1856
G1 Y167.7489
G3 X30.6153 Y167.9367 I-0.1871 J0.0007
G1 X30.2271
G3 X30.2119 Y167.9383 I-0.0208 J-0.1233
G2 X30.2074 Y167.9431 I0.0002 J0.0048
G3 Y167.9436 I-0.125 J0.0001
G2 X30.2115 Y167.9478 I0.0043 J0.0
G3 X30.3313 Y168.0727 I-0.0051 J0.1249
G1 Y171.5516
G3 X30.212 Y171.6765 I-0.125 J0.0
G2 X30.2074 Y171.6814 I0.0002 J0.0049
G3 Y171.6815 I-0.125 J0.0001
G2 X30.2118 Y171.6861 I0.0046 J0.0
G3 X30.2271 Y171.6877 I-0.0054 J0.1249
G1 X30.6153
G3 X30.6159 I0.0 J0.125
G3 X30.8025 Y171.8753 I-0.0008 J0.1874
G1 Y172.7187
G3 X30.6153 Y172.9065 I-0.1871 J0.0007
G1 X30.2271
G3 X30.2114 Y172.9081 I-0.0208 J-0.1233
G2 X30.2074 Y172.9123 I0.0002 J0.0042
G3 Y172.9131 I-0.125 J0.0004
G2 X30.2118 Y172.9177 I0.0046 J0.0
G3 X30.3313 Y173.0426 I-0.0054 J0.1249
G1 Y173.6835
G3 X30.2063 Y173.8085 I-0.125 J0.0
G1 X29.7112
G3 X29.5862 Y173.6835 I0.0 J-0.125
G1 Y173.6603
G2 X29.5817 Y173.6558 I-0.0046 J0.0
G2 X29.5775 Y173.6601 I0.0001 J0.0044
G3 Y173.6603 I-0.125 J0.0001
G1 Y173.6835
G3 X29.5324 Y173.7797 I-0.125 J0.0
G1 Y173.8461
G3 X29.5775 Y173.9422 I-0.0799 J0.0961
G1 Y173.9651
G3 Y173.9654 I-0.125 J0.0
G2 X29.5817 Y173.9697 I0.0042 J0.0
G2 X29.5862 Y173.9651 I0.0 J-0.0045
G1 Y173.9422
G3 X29.7112 Y173.8172 I0.125 J0.0
G1 X30.2063
G3 X30.3313 Y173.9422 I0.0 J0.125
G1 Y174.5884
G3 X30.2115 Y174.7133 I-0.125 J0.0
G2 X30.2074 Y174.7176 I0.0002 J0.0043
G3 Y174.7181 I-0.125 J0.0003
G2 X30.212 Y174.7228 I0.0046 J0.0
G3 X30.2122 I0.0002 J0.125
G1 X30.4499
G2 X30.4553 Y174.722 I-0.0019 J-0.0331
G3 X30.4827 Y174.719 I0.0274 J0.122
G1 X30.6153
G3 X30.6159 I0.0 J0.125
G3 X30.8025 Y174.9065 I-0.0008 J0.1874
G1 Y175.7499
G3 X30.6153 Y175.9377 I-0.1871 J0.0007
G1 X30.2271
G3 X30.2119 Y175.9393 I-0.0208 J-0.1233
G2 X30.2074 Y175.9441 I0.0002 J0.0047
G3 Y175.9445 I-0.125 J0.0002
G2 X30.2116 Y175.949 I0.0044 J0.0
G3 X30.3313 Y176.0738 I-0.0053 J0.1249
G1 Y178.3113
G3 X30.2063 Y178.4363 I-0.125 J0.0
G1 X6.8879
G1 F10.0 Z-0.5
G1 F30.0 X1.2077
G3 X1.0827 Y178.3113 I0.0 J-0.125
G1 Y176.0738
G3 X1.2029 Y175.9489 I0.125 J0.0
G2 X1.207 Y175.9446 I-0.0002 J-0.0043
G3 Y175.9439 I0.125 J-0.0003
G2 X1.2027 Y175.9394 I-0.0045 J0.0
G3 X1.187 Y175.9377 I0.0051 J-0.1249
G1 X0.799
G3 X0.7985 I0.0 J-0.125
G3 X0.6119 Y175.7502 I0.0009 J-0.1874
G1 Y174.9068
G3 X0.7991 Y174.719 I0.1871 J-0.0007
G1 X0.9317
G3 X0.947 Y174.7199 I0.0 J0.125
G1 X0.9699 Y174.7228
G1 X1.2022
G3 X1.2027 I0.0 J0.125
G2 X1.207 Y174.7184 I0.0 J-0.0043
G3 Y174.7178 I0.125 J-0.0005
G2 X1.2027 Y174.7133 I-0.0045 J0.0
G3 X1.0827 Y174.5884 I0.005 J-0.1249
G1 Y173.9422
G3 X1.2077 Y173.8172 I0.125 J0.0
G1 X1.7032
G3 X1.8282 Y173.9422 I0.0 J0.125
G1 Y173.9651
G3 Y173.9653 I-0.125 J0.0
G2 X1.8326 Y173.9697 I0.0044 J0.0
G3 X1.8329 I0.0002 J0.125
G2 X1.8369 Y173.9656 I0.0 J-0.004
G3 Y173.9651 I0.125 J-0.0005
G1 Y173.9422
G3 X1.882 Y173.8461 I0.125 J0.0
G1 Y173.7797
G3 X1.8369 Y173.6835 I0.0799 J-0.0962
G1 Y173.6603
G3 Y173.6596 I0.125 J0.0
G2 X1.8331 Y173.6558 I-0.0038 J0.0
G3 X1.8324 I-0.0003 J-0.125
G2 X1.8282 Y173.66 I0.0 J0.0042
G3 Y173.6603 I-0.125 J0.0002
G1 Y173.6835
G3 X1.7032 Y173.8085 I-0.125 J0.0
G1 X1.2077
G3 X1.0827 Y173.6835 I0.0 J-0.125
G1 Y173.0426
G3 X1.2023 Y172.9177 I0.125 J0.0
G2 X1.207 Y172.9128 I-0.0002 J-0.0049
G3 Y172.9126 I0.125 J-0.0001
G2 X1.2027 Y172.9081 I-0.0045 J0.0
G3 X1.187 Y172.9065 I0.005 J-0.1249
G1 X0.799
G3 X0.7985 I0.0 J-0.125
G3 X0.6119 Y172.7189 I0.0009 J-0.1874
G1 Y171.8755
G3 X0.7991 Y171.6877 I0.1871 J-0.0007
G1 X1.187
G3 X1.203 Y171.6861 I0.0208 J0.1233
G2 X1.207 Y171.6818 I-0.0002 J-0.0042
G3 Y171.6809 I0.125 J-0.0004
G2 X1.2028 Y171.6765 I-0.0044 J0.0
G3 X1.0827 Y171.5516 I0.0049 J-0.1249
G1 Y168.0727
G3 X1.2029 Y167.9478 I0.125 J0.0
G2 X1.207 Y167.9435 I-0.0002 J-0.0043
G3 Y167.9428 I0.125 J-0.0003
G2 X1.2027 Y167.9383 I-0.0045 J0.0
G3 X1.187 Y167.9367 I0.005 J-0.1249
G1 X0.799
G3 X0.7985 I0.0 J-0.125
G3 X0.6119 Y167.7491 I0.0009 J-0.1874
G1 Y166.9054
G3 X0.7984 Y166.7179 I0.1875 J0.0
G3 X0.799 I0.0007 J0.125
G1 X0.9317
G3 X0.9471 Y166.7189 I0.0 J0.125
G1 X0.97 Y166.7217
G1 X1.2022
G3 X1.2026 I0.0 J0.125
G2 X1.207 Y166.7173 I0.0 J-0.0044
G3 Y166.7166 I0.125 J-0.0004
G2 X1.2028 Y166.7122 I-0.0044 J0.0
G3 X1.0827 Y166.5873 I0.0049 J-0.1249
G1 Y165.9412
G3 X1.2077 Y165.8162 I0.125 J0.0
G1 X1.7032
G3 X1.8282 Y165.9412 I0.0 J0.125
G1 Y165.9641
G2 X1.8327 Y165.9686 I0.0045 J0.0
G3 X1.833 I0.0 J0.125
G2 X1.8369 Y165.9647 I0.0 J-0.0038
G3 Y165.9641 I0.125 J-0.0006
G1 Y165.9412
G3 X1.882 Y165.845 I0.125 J0.0
G1 Y165.7787
G3 X1.8369 Y165.6825 I0.0799 J-0.0962
G1 Y165.6592
G3 Y165.659 I0.125 J0.0
G2 X1.8326 Y165.6547 I-0.0043 J0.0
G3 X1.8325 I0.0002 J-0.125
G2 X1.8282 Y165.659 I0.0 J0.0043
G3 Y165.6592 I-0.125 J0.0002
G1 Y165.6825
G3 X1.7032 Y165.8075 I-0.125 J0.0
G1 X1.2077
G3 X1.0827 Y165.6825 I0.0 J-0.125
G1 Y165.0415
G3 X1.2024 Y164.9166 I0.125 J0.0
G2 X1.207 Y164.9118 I-0.0002 J-0.0048
G3 Y164.9114 I0.125 J-0.0001
G2 X1.2028 Y164.9071 I-0.0044 J0.0
G3 X1.187 Y164.9054 I0.0049 J-0.1249
G1 X0.799
G3 X0.7985 I0.0 J-0.125
G3 X0.6119 Y164.7179 I0.0009 J-0.1874
G1 Y163.8745
G3 X0.7991 Y163.6867 I0.1871 J-0.0007
G1 X1.187
G3 X1.2029 Y163.685 I0.0208 J0.1233
G2 X1.207 Y163.6807 I-0.0002 J-0.0043
G3 Y163.68 I0.125 J-0.0003
G2 X1.2027 Y163.6754 I-0.0046 J0.0
G3 X1.0827 Y163.5506 I0.0051 J-0.1249
G1 Y161.3127
G3 X1.2077 Y161.1877 I0.125 J0.0
G1 X6.4455
G3 X6.5704 Y161.3074 I0.0 J0.125
G2 X6.5749 Y161.3117 I0.0045 J-0.0002
G3 X6.5756 I0.0002 J0.125
G2 X6.58 Y161.3075 I0.0 J-0.0044
G3 X6.5817 Y161.292 I0.1249 J0.0053
G1 Y160.9037
G3 Y160.9032 I0.125 J0.0
G3 X6.7692 Y160.7165 I0.1874 J0.0008
G1 X7.6129
G1 X7.613
G3 X7.8004 Y160.903 I-0.0001 J0.1875
G3 Y160.9037 I-0.125 J0.0007
G1 Y161.0363
G3 X7.7966 Y161.0669 I-0.125 J0.0
G2 Y161.067 I0.0005 J0.0001
G1 Y161.3068
G3 Y161.3072 I-0.125 J0.0
G2 X7.8011 Y161.3117 I0.0045 J0.0
G3 X7.8016 I0.0004 J0.125
G2 X7.8061 Y161.3074 I0.0 J-0.0045
G3 X7.931 Y161.1877 I0.1249 J0.0053
G1 X8.5772
G3 X8.7022 Y161.3127 I0.0 J0.125
G1 Y161.8078
G3 X8.5772 Y161.9328 I-0.125 J0.0
G1 X8.5543
G3 X8.554 I0.0 J-0.125
G2 X8.5497 Y161.9371 I0.0 J0.0043
G2 X8.5541 Y161.9415 I0.0044 J0.0
G3 X8.5543 I0.0002 J0.125
G1 X8.5772
G3 X8.6733 Y161.9866 I0.0 J0.125
G1 X8.7397
G3 X8.8358 Y161.9415 I0.0962 J0.0799
G1 X8.8591
G3 X8.8597 I0.0 J0.125
G2 X8.8636 Y161.9376 I0.0 J-0.0039
G3 Y161.9373 I0.125 J-0.0003
G2 X8.8592 Y161.9328 I-0.0044 J0.0
G1 X8.8591
G1 X8.8358
G3 X8.7108 Y161.8078 I0.0 J-0.125
G1 Y161.3127
G3 X8.8358 Y161.1877 I0.125 J0.0
G1 X9.4768
G3 X9.6017 Y161.307 I0.0 J0.125
G2 X9.6067 Y161.3117 I0.005 J-0.0002
G3 X9.607 I0.0 J0.125
G2 X9.6113 Y161.3076 I0.0 J-0.0043
G3 X9.6129 Y161.292 I0.1249 J0.0051
G1 Y160.9037
G3 Y160.9032 I0.125 J0.0
G3 X9.8004 Y160.7165 I0.1874 J0.0008
G1 X10.6442
G3 X10.8317 Y160.903 I-0.0001 J0.1875
G3 Y160.9037 I-0.125 J0.0007
G1 Y161.292
G3 X10.8333 Y161.3074 I-0.1233 J0.0208
G2 X10.8377 Y161.3117 I0.0045 J-0.0002
G3 X10.8384 I0.0002 J0.125
G2 X10.8429 Y161.3074 I0.0 J-0.0044
G3 X10.9678 Y161.1877 I0.1249 J0.0053
G1 X20.4466
G3 X20.5715 Y161.3075 I0.0 J0.125
G2 X20.5759 Y161.3117 I0.0044 J-0.0002
G3 X20.5766 I0.0002 J0.125
G2 X20.5811 Y161.3074 I0.0 J-0.0045
G3 X20.5827 Y161.292 I0.1249 J0.0054
G1 Y160.9039
G3 X20.7706 Y160.7165 I0.187 J-0.0004
G1 X21.6137
G3 X21.8015 Y160.9037 I0.0007 J0.1871
G1 Y161.0363
G3 X21.7976 Y161.0671 I-0.125 J0.0
G1 Y161.3068
G3 Y161.3072 I-0.125 J0.0
G2 X21.8021 Y161.3117 I0.0045 J0.0
G3 X21.8026 I0.0004 J0.125
G2 X21.8071 Y161.3074 I0.0 J-0.0045
G3 X21.932 Y161.1877 I0.1249 J0.0054
G1 X22.5782
G3 X22.7032 Y161.3127 I0.0 J0.125
G1 Y161.8078
G3 X22.5782 Y161.9328 I-0.125 J0.0
G1 X22.5553
G3 X22.5552 I0.0 J-0.125
G2 X22.5508 Y161.9372 I0.0 J0.0044
G1 Y161.9373
G2 X22.555 Y161.9415 I0.0042 J0.0
G3 X22.5553 I0.0003 J0.125
G1 X22.5782
G3 X22.6743 Y161.9866 I0.0 J0.125
G1 X22.7407
G3 X22.8369 Y161.9415 I0.0962 J0.0799
G1 X22.8601
G3 X22.8608 I0.0 J0.125
G2 X22.8646 Y161.9377 I0.0 J-0.0038
G3 Y161.9372 I0.125 J-0.0004
G2 X22.8602 Y161.9328 I-0.0044 J0.0
G1 X22.8601
G1 X22.8369
G3 X22.7119 Y161.8078 I0.0 J-0.125
G1 Y161.3127
G3 X22.8369 Y161.1877 I0.125 J0.0
G1 X23.4779
G3 X23.6027 Y161.307 I0.0 J0.125
G2 X23.6077 Y161.3117 I0.005 J-0.0002
G3 X23.608 I0.0 J0.125
G2 X23.6123 Y161.3076 I0.0 J-0.0043
G3 X23.614 Y161.2916 I0.1249 J0.0051
G1 Y160.9039
G3 X23.8019 Y160.7165 I0.187 J-0.0004
G1 X24.645
G3 X24.8327 Y160.9037 I0.0007 J0.1871
G1 Y161.2923
G3 X24.8343 Y161.3074 I-0.1233 J0.0204
G2 X24.8388 Y161.3117 I0.0044 J-0.0002
G3 X24.8395 I0.0002 J0.125
G2 X24.8439 Y161.3075 I0.0 J-0.0044
G3 X24.9688 Y161.1877 I0.1249 J0.0053
G1 X30.2063
G3 X30.3313 Y161.3127 I0.0 J0.125
G1 Y163.5506
G3 X30.2119 Y163.6754 I-0.125 J0.0
G2 X30.2074 Y163.6802 I0.0002 J0.0047
G3 Y163.6806 I-0.125 J0.0002
G2 X30.2116 Y163.6851 I0.0044 J0.0
G3 X30.2271 Y163.6867 I-0.0053 J0.1249
G1 X30.607
G3 X30.6432 Y163.6885 I0.0115 J0.1347
G3 X30.8025 Y163.8743 I-0.0284 J0.1856
G1 Y164.7176
G3 X30.6153 Y164.9054 I-0.1871 J0.0007
G1 X30.2271
G3 X30.2115 Y164.9071 I-0.0208 J-0.1233
G2 X30.2074 Y164.9114 I0.0002 J0.0043
G3 Y164.9122 I-0.125 J0.0003
G2 X30.2116 Y164.9166 I0.0044 J0.0
G3 X30.3313 Y165.0415 I-0.0053 J0.1249
G1 Y165.6825
G3 X30.2063 Y165.8075 I-0.125 J0.0
G1 X29.7112
G3 X29.5862 Y165.6825 I0.0 J-0.125
G1 Y165.6593
G2 X29.5818 Y165.6547 I-0.0045 J0.0
G2 X29.5775 Y165.6591 I0.0001 J0.0044
G3 Y165.6592 I-0.125 J0.0001
G1 Y165.6825
G3 X29.5324 Y165.7786 I-0.125 J0.0
G1 Y165.8451
G3 X29.5775 Y165.9412 I-0.0799 J0.0961
G1 Y165.9641
G3 Y165.9647 I-0.125 J0.0
G2 X29.5813 Y165.9686 I0.0038 J0.0
G3 X29.5818 I0.0003 J0.125
G2 X29.5862 Y165.9642 I0.0 J-0.0044
G3 Y165.9641 I0.125 J-0.0001
G1 Y165.9412
G3 X29.7112 Y165.8162 I0.125 J0.0
G1 X30.2063
G3 X30.3313 Y165.9412 I0.0 J0.125
G1 Y166.5873
G3 X30.2115 Y166.7122 I-0.125 J0.0
G2 X30.2074 Y166.7165 I0.0002 J0.0043
G3 Y166.7171 I-0.125 J0.0004
G2 X30.212 Y166.7217 I0.0046 J0.0
G3 X30.2122 I0.0003 J0.125
G1 X30.4498
G2 X30.4554 Y166.721 I-0.002 J-0.0349
G3 X30.4827 Y166.7179 I0.0273 J0.122
G1 X30.6069
G3 X30.6433 Y166.7197 I0.0115 J0.1346
G3 X30.8025 Y166.9055 I-0.0285 J0.1856
G1 Y167.7489
G3 X30.6153 Y167.9367 I-0.1871 J0.0007
G1 X30.2271
G3 X30.2119 Y167.9383 I-0.0208 J-0.1233
G2 X30.2074 Y167.9431 I0.0002 J0.0048
G3 Y167.9436 I-0.125 J0.0001
G2 X30.2115 Y167.9478 I0.0043 J0.0
G3 X30.3313 Y168.0727 I-0.0051 J0.1249
G1 Y171.5516
G3 X30.212 Y171.6765 I-0.125 J0.0
G2 X30.2074 Y171.6814 I0.0002 J0.0049
G3 Y171.6815 I-0.125 J0.0001
G2 X30.2118 Y171.6861 I0.0046 J0.0
G3 X30.2271 Y171.6877 I-0.0054 J0.1249
G1 X30.6153
G3 X30.6159 I0.0 J0.125
G3 X30.8025 Y171.8753 I-0.0008 J0.1874
G1 Y172.7187
G3 X30.6153 Y172.9065 I-0.1871 J0.0007
G1 X30.2271
G3 X30.2114 Y172.9081 I-0.0208 J-0.1233
G2 X30.2074 Y172.9123 I0.0002 J0.0042
G3 Y172.9131 I-0.125 J0.0004
G2 X30.2118 Y172.9177 I0.0046 J0.0
G3 X30.3313 Y173.0426 I-0.0054 J0.1249
G1 Y173.6835
G3 X30.2063 Y173.8085 I-0.125 J0.0
G1 X29.7112
G3 X29.5862 Y173.6835 I0.0 J-0.125
G1 Y173.6603
G2 X29.5817 Y173.6558 I-0.0046 J0.0
G2 X29.5775 Y173.6601 I0.0001 J0.0044
G3 Y173.6603 I-0.125 J0.0001
G1 Y173.6835
G3 X29.5324 Y173.7797 I-0.125 J0.0
G1 Y173.8461
G3 X29.5775 Y173.9422 I-0.0799 J0.0961
G1 Y173.9651
G3 Y173.9654 I-0.125 J0.0
G2 X29.5817 Y173.9697 I0.0042 J0.0
G2 X29.5862 Y173.9651 I0.0 J-0.0045
G1 Y173.9422
G3 X29.7112 Y173.8172 I0.125 J0.0
G1 X30.2063
G3 X30.3313 Y173.9422 I0.0 J0.125
G1 Y174.5884
G3 X30.2115 Y174.7133 I-0.125 J0.0
G2 X30.2074 Y174.7176 I0.0002 J0.0043
G3 Y174.7181 I-0.125 J0.0003
G2 X30.212 Y174.7228 I0.0046 J0.0
G3 X30.2122 I0.0002 J0.125
G1 X30.4499
G2 X30.4553 Y174.722 I-0.0019 J-0.0331
G3 X30.4827 Y174.719 I0.0274 J0.122
G1 X30.6153
G3 X30.6159 I0.0 J0.125
G3 X30.8025 Y174.9065 I-0.0008 J0.1874
G1 Y175.7499
G3 X30.6153 Y175.9377 I-0.1871 J0.0007
G1 X30.2271
G3 X30.2119 Y175.9393 I-0.0208 J-0.1233
G2 X30.2074 Y175.9441 I0.0002 J0.0047
G3 Y175.9445 I-0.125 J0.0002
G2 X30.2116 Y175.949 I0.0044 J0.0
G3 X30.3313 Y176.0738 I-0.0053 J0.1249
G1 Y178.3113
G3 X30.2063 Y178.4363 I-0.125 J0.0
G1 X6.8879
G0 Z0.5
G0 Y160.3268
G1 F10.0 Z-0.25
G1 F30.0 X1.4904
G3 X1.1152 Y159.9517 I-0.0007 J-0.3744
G1 Y155.4533
G3 X1.4903 Y155.0782 I0.3746 J-0.0005
G1 X30.9887
G3 X31.3638 Y155.4533 I0.0008 J0.3743
G1 Y159.9517
G3 X30.9887 Y160.3268 I-0.3745 J0.0007
G1 X6.8879
G1 F10.0 Z-0.5
G1 F30.0 X1.4904
G3 X1.1152 Y159.9517 I-0.0007 J-0.3744
G1 Y155.4533
G3 X1.4903 Y155.0782 I0.3746 J-0.0005
G1 X30.9887
G3 X31.3638 Y155.4533 I0.0008 J0.3743
G1 Y159.9517
G3 X30.9887 Y160.3268 I-0.3745 J0.0007
G1 X6.8879
G0 Z0.5
G0 Y154.6884
G1 F10.0 Z-0.25
G1 F30.0 X1.6338
G3 X1.2587 Y154.3133 I-0.0007 J-0.3744
G1 Y150.815
G3 X1.6338 Y150.4399 I0.3744 J-0.0007
G1 X31.1322
G3 X31.5073 Y150.815 I0.0007 J0.3744
G1 Y154.3133
G3 X31.1322 Y154.6884 I-0.3744 J0.0007
G1 X6.8879
G1 F10.0 Z-0.5
G1 F30.0 X1.6338
G3 X1.2587 Y154.3133 I-0.0007 J-0.3744
G1 Y150.815
G3 X1.6338 Y150.4399 I0.3744 J-0.0007
G1 X31.1322
G3 X31.5073 Y150.815 I0.0007 J0.3744
G1 Y154.3133
G3 X31.1322 Y154.6884 I-0.3744 J0.0007
G1 X6.8879
G0 Z0.5
G0 X31.8283 Y160.9569
G1 F10.0 Z-0.25
G3 F30.0 X31.9496 Y160.8624 I0.1212 J0.0305
G1 X60.9481
G3 X61.0731 Y160.9874 I0.0 J0.125
G1 Y163.7253
G3 X60.9529 Y163.8502 I-0.125 J0.0
G2 X60.9488 Y163.8545 I0.0002 J0.0043
G3 Y163.8552 I-0.125 J0.0004
G2 X60.9532 Y163.8597 I0.0045 J0.0
G3 X60.9689 Y163.8614 I-0.005 J0.1249
G1 X61.3568
G3 X61.3573 I0.0 J0.125
G3 X61.544 Y164.049 I-0.0007 J0.1874
G1 Y164.8923
G3 X61.3567 Y165.0801 I-0.1871 J0.0008
G1 X61.2242
G3 X61.2088 Y165.0792 I0.0 J-0.125
G1 X61.1859 Y165.0763
G1 X60.9537
G3 X60.9533 I0.0 J-0.125
G2 X60.9488 Y165.0808 I0.0 J0.0045
G3 Y165.0813 I-0.125 J0.0004
G2 X60.9531 Y165.0858 I0.0045 J0.0
G3 X61.0731 Y165.2107 I-0.005 J0.1249
G1 Y165.8569
G3 X60.9481 Y165.9819 I-0.125 J0.0
G1 X60.4526
G3 X60.3276 Y165.8569 I0.0 J-0.125
G1 Y165.834
G3 Y165.8337 I0.125 J0.0
G2 X60.3234 Y165.8294 I-0.0043 J0.0
G3 X60.3229 I-0.0002 J-0.125
G2 X60.319 Y165.8334 I0.0 J0.0039
G3 Y165.834 I-0.125 J0.0006
G1 Y165.8569
G3 X60.2738 Y165.953 I-0.125 J0.0
G1 Y166.0194
G3 X60.319 Y166.1155 I-0.0799 J0.0962
G1 Y166.1388
G3 Y166.1394 I-0.125 J0.0
G2 X60.3228 Y166.1433 I0.0039 J0.0
G3 X60.3233 I0.0003 J0.125
G2 X60.3276 Y166.139 I0.0 J-0.0043
G3 Y166.1388 I0.125 J-0.0001
G1 Y166.1155
G3 X60.4526 Y165.9905 I0.125 J0.0
G1 X60.9481
G3 X61.0731 Y166.1155 I0.0 J0.125
G1 Y166.7565
G3 X60.9534 Y166.8814 I-0.125 J0.0
G2 X60.9488 Y166.8862 I0.0002 J0.0048
G3 Y166.8865 I-0.125 J0.0002
G2 X60.9532 Y166.891 I0.0045 J0.0
G3 X60.9689 Y166.8926 I-0.005 J0.1249
G1 X61.3568
G3 X61.3573 I0.0 J0.125
G3 X61.544 Y167.0802 I-0.0007 J0.1874
G1 Y167.9235
G3 X61.3567 Y168.1114 I-0.1871 J0.0008
G1 X60.9689
G3 X60.9528 Y168.113 I-0.0208 J-0.1233
G2 X60.9488 Y168.1172 I0.0002 J0.0041
G3 Y168.118 I-0.125 J0.0004
G2 X60.9532 Y168.1226 I0.0046 J0.0
G3 X61.0731 Y168.2475 I-0.0051 J0.1249
G1 Y171.7263
G3 X60.9529 Y171.8512 I-0.125 J0.0
G2 X60.9488 Y171.8554 I0.0002 J0.0042
G3 Y171.8562 I-0.125 J0.0004
G2 X60.9532 Y171.8608 I0.0046 J0.0
G3 X60.9689 Y171.8624 I-0.0051 J0.1249
G1 X61.3568
G3 X61.3573 I0.0 J0.125
G3 X61.544 Y172.05 I-0.0008 J0.1874
G1 Y172.8934
G3 X61.3568 Y173.0812 I-0.1871 J0.0007
G1 X61.2242
G3 X61.2087 Y173.0802 I0.0 J-0.125
G1 X61.1859 Y173.0774
G1 X60.9537
G3 X60.9535 I0.0 J-0.125
G2 X60.9488 Y173.082 I0.0 J0.0046
G3 Y173.0823 I-0.125 J0.0003
G2 X60.9532 Y173.0869 I0.0046 J0.0
G3 X61.0731 Y173.2118 I-0.0051 J0.1249
G1 Y173.8579
G3 X60.9481 Y173.9829 I-0.125 J0.0
G1 X60.4526
G3 X60.3276 Y173.8579 I0.0 J-0.125
G1 Y173.835
G3 Y173.8348 I0.125 J0.0
G2 X60.3234 Y173.8305 I-0.0043 J0.0
G3 X60.3229 I-0.0002 J-0.125
G2 X60.319 Y173.8344 I0.0 J0.0039
G3 Y173.835 I-0.125 J0.0006
G1 Y173.8579
G3 X60.2738 Y173.9541 I-0.125 J0.0
G1 Y174.0204
G3 X60.319 Y174.1166 I-0.0799 J0.0962
G1 Y174.1399
G3 Y174.1405 I-0.125 J0.0
G2 X60.3228 Y174.1444 I0.0038 J0.0
G3 X60.3233 I0.0003 J0.125
G2 X60.3276 Y174.14 I0.0 J-0.0044
G3 Y174.1399 I0.125 J-0.0001
G1 Y174.1166
G3 X60.4526 Y173.9916 I0.125 J0.0
G1 X60.9481
G3 X61.0731 Y174.1166 I0.0 J0.125
G1 Y174.7576
G3 X60.9533 Y174.8825 I-0.125 J0.0
G2 X60.9488 Y174.8872 I0.0002 J0.0047
G3 Y174.8876 I-0.125 J0.0003
G2 X60.9531 Y174.892 I0.0044 J0.0
G3 X60.9689 Y174.8937 I-0.0049 J0.1249
G1 X61.3568
G3 X61.3573 I0.0 J0.125
G3 X61.544 Y175.0812 I-0.0008 J0.1874
G1 Y175.9249
G3 X61.3575 Y176.1124 I-0.1875 J0.0
G3 X61.3568 I-0.0007 J-0.125
G1 X60.9689
G3 X60.9529 Y176.1141 I-0.0208 J-0.1233
G2 X60.9488 Y176.1183 I0.0002 J0.0043
G3 Y176.1191 I-0.125 J0.0004
G2 X60.9532 Y176.1236 I0.0045 J0.0
G3 X61.0731 Y176.2485 I-0.005 J0.1249
G1 Y178.9861
G3 X60.9481 Y179.1111 I-0.125 J0.0
G1 X31.9496
G3 X31.8246 Y178.9861 I0.0 J-0.125
G1 Y176.2485
G3 X31.9438 Y176.1237 I0.125 J0.0
G2 X31.9485 Y176.1188 I-0.0002 J-0.0048
G3 Y176.1183 I0.125 J-0.0001
G2 X31.9444 Y176.114 I-0.0043 J0.0
G3 X31.9288 Y176.1124 I0.0052 J-0.1249
G1 X31.5406
G3 X31.3534 Y175.9245 I-0.0003 J-0.1869
G1 Y175.0815
G3 X31.5406 Y174.8937 I0.187 J-0.0009
G1 X31.9288
G3 X31.9443 Y174.892 I0.0208 J0.1233
G2 X31.9485 Y174.8877 I-0.0002 J-0.0044
G3 Y174.8868 I0.125 J-0.0003
G2 X31.9444 Y174.8825 I-0.0043 J0.0
G3 X31.8246 Y174.7576 I0.0052 J-0.1249
G1 Y174.1166
G3 X31.9496 Y173.9916 I0.125 J0.0
G1 X32.4447
G3 X32.5697 Y174.1166 I0.0 J0.125
G1 Y174.1399
G3 Y174.14 I-0.125 J0.0
G2 X32.574 Y174.1444 I0.0044 J0.0
G2 X32.5783 Y174.14 I-0.0001 J-0.0044
G3 Y174.1399 I0.125 J-0.0001
G1 Y174.1166
G3 X32.6235 Y174.0204 I0.125 J0.0
G1 Y173.9541
G3 X32.5783 Y173.8579 I0.0798 J-0.0962
G1 Y173.835
G3 Y173.8347 I0.125 J0.0
G2 X32.5741 Y173.8305 I-0.0043 J0.0
G2 X32.5697 Y173.835 I0.0 J0.0045
G1 Y173.8579
G3 X32.4447 Y173.9829 I-0.125 J0.0
G1 X31.9496
G3 X31.8246 Y173.8579 I0.0 J-0.125
G1 Y173.2118
G3 X31.9444 Y173.0869 I0.125 J0.0
G2 X31.9485 Y173.0826 I-0.0002 J-0.0043
G3 Y173.0817 I0.125 J-0.0003
G2 X31.9441 Y173.0774 I-0.0043 J0.0
G3 X31.9436 I-0.0005 J-0.125
G1 X31.7038
G3 X31.6731 Y173.0812 I-0.0306 J-0.1212
G1 X31.5405
G3 X31.5398 I0.0 J-0.125
G3 X31.3534 Y172.8936 I0.0009 J-0.1874
G1 Y172.0503
G3 X31.5406 Y171.8624 I0.187 J-0.0009
G1 X31.9288
G3 X31.9438 Y171.8608 I0.0208 J0.1233
G2 X31.9485 Y171.8559 I-0.0002 J-0.0049
G3 Y171.8554 I0.125 J-0.0001
G2 X31.9444 Y171.8512 I-0.0042 J0.0
G3 X31.8246 Y171.7263 I0.0052 J-0.1249
G1 Y168.2475
G3 X31.9442 Y168.1226 I0.125 J0.0
G2 X31.9485 Y168.1182 I-0.0002 J-0.0044
G3 Y168.1173 I0.125 J-0.0006
G2 X31.9443 Y168.113 I-0.0043 J0.0
G3 X31.9288 Y168.1114 I0.0052 J-0.1249
G1 X31.5405
G3 X31.5398 I0.0 J-0.125
G3 X31.3534 Y167.9238 I0.001 J-0.1874
G1 Y167.0805
G3 X31.5405 Y166.8926 I0.187 J-0.0008
G1 X31.9288
G3 X31.9443 Y166.891 I0.0208 J0.1233
G2 X31.9485 Y166.8866 I-0.0002 J-0.0043
G3 Y166.8858 I0.125 J-0.0003
G2 X31.9442 Y166.8814 I-0.0044 J0.0
G3 X31.8246 Y166.7565 I0.0053 J-0.1249
G1 Y166.1155
G3 X31.9496 Y165.9905 I0.125 J0.0
G1 X32.4447
G3 X32.5697 Y166.1155 I0.0 J0.125
G1 Y166.1388
G1 Y166.1389
G2 X32.574 Y166.1433 I0.0044 J0.0
G2 X32.5783 Y166.139 I-0.0001 J-0.0044
G3 Y166.1388 I0.125 J-0.0001
G1 Y166.1155
G3 X32.6235 Y166.0194 I0.125 J0.0
G1 Y165.953
G3 X32.5783 Y165.8569 I0.0798 J-0.0962
G1 Y165.834
G3 Y165.8337 I0.125 J0.0
G2 X32.5741 Y165.8294 I-0.0043 J0.0
G2 X32.5697 Y165.8339 I0.0 J0.0045
G1 Y165.834
G1 Y165.8569
G3 X32.4447 Y165.9819 I-0.125 J0.0
G1 X31.9496
G3 X31.8246 Y165.8569 I0.0 J-0.125
G1 Y165.2107
G3 X31.9443 Y165.0858 I0.125 J0.0
G2 X31.9485 Y165.0814 I-0.0002 J-0.0044
G3 Y165.0808 I0.125 J-0.0002
G2 X31.944 Y165.0763 I-0.0044 J0.0
G3 X31.9436 I-0.0004 J-0.125
G1 X31.7037
G3 X31.6731 Y165.0801 I-0.0305 J-0.1212
G1 X31.5405
G3 X31.5398 I0.0 J-0.125
G3 X31.3534 Y164.8926 I0.001 J-0.1874
G1 Y164.0492
G3 X31.5405 Y163.8614 I0.187 J-0.0008
G1 X31.9288
G3 X31.9438 Y163.8598 I0.0208 J0.1233
G2 X31.9485 Y163.8549 I-0.0002 J-0.0048
G3 Y163.8544 I0.125 J-0.0001
G2 X31.9444 Y163.8502 I-0.0043 J0.0
G3 X31.8246 Y163.7253 I0.0052 J-0.1249
G1 Y160.9874
G3 X31.8283 Y160.9569 I0.125 J0.0
G1 F10.0 Z-0.5
G3 F30.0 X31.9496 Y160.8624 I0.1212 J0.0305
G1 X60.9481
G3 X61.0731 Y160.9874 I0.0 J0.125
G1 Y163.7253
G3 X60.9529 Y163.8502 I-0.125 J0.0
G2 X60.9488 Y163.8545 I0.0002 J0.0043
G3 Y163.8552 I-0.125 J0.0004
G2 X60.9532 Y163.8597 I0.0045 J0.0
G3 X60.9689 Y163.8614 I-0.005 J0.1249
G1 X61.3568
G3 X61.3573 I0.0 J0.125
G3 X61.544 Y164.049 I-0.0007 J0.1874
G1 Y164.8923
G3 X61.3567 Y165.0801 I-0.1871 J0.0008
G1 X61.2242
G3 X61.2088 Y165.0792 I0.0 J-0.125
G1 X61.1859 Y165.0763
G1 X60.9537
G3 X60.9533 I0.0 J-0.125
G2 X60.9488 Y165.0808 I0.0 J0.0045
G3 Y165.0813 I-0.125 J0.0004
G2 X60.9531 Y165.0858 I0.0045 J0.0
G3 X61.0731 Y165.2107 I-0.005 J0.1249
G1 Y165.8569
G3 X60.9481 Y165.9819 I-0.125 J0.0
G1 X60.4526
G3 X60.3276 Y165.8569 I0.0 J-0.125
G1 Y165.834
G3 Y165.8337 I0.125 J0.0
G2 X60.3234 Y165.8294 I-0.0043 J0.0
G3 X60.3229 I-0.0002 J-0.125
G2 X60.319 Y165.8334 I0.0 J0.0039
G3 Y165.834 I-0.125 J0.0006
G1 Y165.8569
G3 X60.2738 Y165.953 I-0.125 J0.0
G1 Y166.0194
G3 X60.319 Y166.1155 I-0.0799 J0.0962
G1 Y166.1388
G3 Y166.1394 I-0.125 J0.0
G2 X60.3228 Y166.1433 I0.0039 J0.0
G3 X60.3233 I0.0003 J0.125
G2 X60.3276 Y166.139 I0.0 J-0.0043
G3 Y166.1388 I0.125 J-0.0001
G1 Y166.1155
G3 X60.4526 Y165.9905 I0.125 J0.0
G1 X60.9481
G3 X61.0731 Y166.1155 I0.0 J0.125
G1 Y166.7565
G3 X60.9534 Y166.8814 I-0.125 J0.0
G2 X60.9488 Y166.8862 I0.0002 J0.0048
G3 Y166.8865 I-0.125 J0.0002
G2 X60.9532 Y166.891 I0.0045 J0.0
G3 X60.9689 Y166.8926 I-0.005 J0.1249
G1 X61.3568
G3 X61.3573 I0.0 J0.125
G3 X61.544 Y167.0802 I-0.0007 J0.1874
G1 Y167.9235
G3 X61.3567 Y168.1114 I-0.1871 J0.0008
G1 X60.9689
G3 X60.9528 Y168.113 I-0.0208 J-0.1233
G2 X60.9488 Y168.1172 I0.0002 J0.0041
G3 Y168.118 I-0.125 J0.0004
G2 X60.9532 Y168.1226 I0.0046 J0.0
G3 X61.0731 Y168.2475 I-0.0051 J0.1249
G1 Y171.7263
G3 X60.9529 Y171.8512 I-0.125 J0.0
G2 X60.9488 Y171.8554 I0.0002 J0.0042
G3 Y171.8562 I-0.125 J0.0004
G2 X60.9532 Y171.8608 I0.0046 J0.0
G3 X60.9689 Y171.8624 I-0.0051 J0.1249
G1 X61.3568
G3 X61.3573 I0.0 J0.125
G3 X61.544 Y172.05 I-0.0008 J0.1874
G1 Y172.8934
G3 X61.3568 Y173.0812 I-0.1871 J0.0007
G1 X61.2242
G3 X61.2087 Y173.0802 I0.0 J-0.125
G1 X61.1859 Y173.0774
G1 X60.9537
G3 X60.9535 I0.0 J-0.125
G2 X60.9488 Y173.082 I0.0 J0.0046
G3 Y173.0823 I-0.125 J0.0003
G2 X60.9532 Y173.0869 I0.0046 J0.0
G3 X61.0731 Y173.2118 I-0.0051 J0.1249
G1 Y173.8579
G3 X60.9481 Y173.9829 I-0.125 J0.0
G1 X60.4526
G3 X60.3276 Y173.8579 I0.0 J-0.125
G1 Y173.835
G3 Y173.8348 I0.125 J0.0
G2 X60.3234 Y173.8305 I-0.0043 J0.0
G3 X60.3229 I-0.0002 J-0.125
G2 X60.319 Y173.8344 I0.0 J0.0039
G3 Y173.835 I-0.125 J0.0006
G1 Y173.8579
G3 X60.2738 Y173.9541 I-0.125 J0.0
G1 Y174.0204
G3 X60.319 Y174.1166 I-0.0799 J0.0962
G1 Y174.1399
G3 Y174.1405 I-0.125 J0.0
G2 X60.3228 Y174.1444 I0.0038 J0.0
G3 X60.3233 I0.0003 J0.125
G2 X60.3276 Y174.14 I0.0 J-0.0044
G3 Y174.1399 I0.125 J-0.0001
G1 Y174.1166
G3 X60.4526 Y173.9916 I0.125 J0.0
G1 X60.9481
G3 X61.0731 Y174.1166 I0.0 J0.125
G1 Y174.7576
G3 X60.9533 Y174.8825 I-0.125 J0.0
G2 X60.9488 Y174.8872 I0.0002 J0.0047
G3 Y174.8876 I-0.125 J0.0003
G2 X60.9531 Y174.892 I0.0044 J0.0
G3 X60.9689 Y174.8937 I-0.0049 J0.1249
G1 X61.3568
G3 X61.3573 I0.0 J0.125
G3 X61.544 Y175.0812 I-0.0008 J0.1874
G1 Y175.9249
G3 X61.3575 Y176.1124 I-0.1875 J0.0
G3 X61.3568 I-0.0007 J-0.125
G1 X60.9689
G3 X60.9529 Y176.1141 I-0.0208 J-0.1233
G2 X60.9488 Y176.1183 I0.0002 J0.0043
G3 Y176.1191 I-0.125 J0.0004
G2 X60.9532 Y176.1236 I0.0045 J0.0
G3 X61.0731 Y176.2485 I-0.005 J0.1249
G1 Y178.9861
G3 X60.9481 Y179.1111 I-0.125 J0.0
G1 X31.9496
G3 X31.8246 Y178.9861 I0.0 J-0.125
G1 Y176.2485
G3 X31.9438 Y176.1237 I0.125 J0.0
G2 X31.9485 Y176.1188 I-0.0002 J-0.0048
G3 Y176.1183 I0.125 J-0.0001
G2 X31.9444 Y176.114 I-0.0043 J0.0
G3 X31.9288 Y176.1124 I0.0052 J-0.1249
G1 X31.5406
G3 X31.3534 Y175.9245 I-0.0003 J-0.1869
G1 Y175.0815
G3 X31.5406 Y174.8937 I0.187 J-0.0009
G1 X31.9288
G3 X31.9443 Y174.892 I0.0208 J0.1233
G2 X31.9485 Y174.8877 I-0.0002 J-0.0044
G3 Y174.8868 I0.125 J-0.0003
G2 X31.9444 Y174.8825 I-0.0043 J0.0
G3 X31.8246 Y174.7576 I0.0052 J-0.1249
G1 Y174.1166
G3 X31.9496 Y173.9916 I0.125 J0.0
G1 X32.4447
G3 X32.5697 Y174.1166 I0.0 J0.125
G1 Y174.1399
G3 Y174.14 I-0.125 J0.0
G2 X32.574 Y174.1444 I0.0044 J0.0
G2 X32.5783 Y174.14 I-0.0001 J-0.0044
G3 Y174.1399 I0.125 J-0.0001
G1 Y174.1166
G3 X32.6235 Y174.0204 I0.125 J0.0
G1 Y173.9541
G3 X32.5783 Y173.8579 I0.0798 J-0.0962
G1 Y173.835
G3 Y173.8347 I0.125 J0.0
G2 X32.5741 Y173.8305 I-0.0043 J0.0
G2 X32.5697 Y173.835 I0.0 J0.0045
G1 Y173.8579
G3 X32.4447 Y173.9829 I-0.125 J0.0
G1 X31.9496
G3 X31.8246 Y173.8579 I0.0 J-0.125
G1 Y173.2118
G3 X31.9444 Y173.0869 I0.125 J0.0
G2 X31.9485 Y173.0826 I-0.0002 J-0.0043
G3 Y173.0817 I0.125 J-0.0003
G2 X31.9441 Y173.0774 I-0.0043 J0.0
G3 X31.9436 I-0.0005 J-0.125
G1 X31.7038
G3 X31.6731 Y173.0812 I-0.0306 J-0.1212
G1 X31.5405
G3 X31.5398 I0.0 J-0.125
G3 X31.3534 Y172.8936 I0.0009 J-0.1874
G1 Y172.0503
G3 X31.5406 Y171.8624 I0.187 J-0.0009
G1 X31.9288
G3 X31.9438 Y171.8608 I0.0208 J0.1233
G2 X31.9485 Y171.8559 I-0.0002 J-0.0049
G3 Y171.8554 I0.125 J-0.0001
G2 X31.9444 Y171.8512 I-0.0042 J0.0
G3 X31.8246 Y171.7263 I0.0052 J-0.1249
G1 Y168.2475
G3 X31.9442 Y168.1226 I0.125 J0.0
G2 X31.9485 Y168.1182 I-0.0002 J-0.0044
G3 Y168.1173 I0.125 J-0.0006
G2 X31.9443 Y168.113 I-0.0043 J0.0
G3 X31.9288 Y168.1114 I0.0052 J-0.1249
G1 X31.5405
G3 X31.5398 I0.0 J-0.125
G3 X31.3534 Y167.9238 I0.001 J-0.1874
G1 Y167.0805
G3 X31.5405 Y166.8926 I0.187 J-0.0008
G1 X31.9288
G3 X31.9443 Y166.891 I0.0208 J0.1233
G2 X31.9485 Y166.8866 I-0.0002 J-0.0043
G3 Y166.8858 I0.125 J-0.0003
G2 X31.9442 Y166.8814 I-0.0044 J0.0
G3 X31.8246 Y166.7565 I0.0053 J-0.1249
G1 Y166.1155
G3 X31.9496 Y165.9905 I0.125 J0.0
G1 X32.4447
G3 X32.5697 Y166.1155 I0.0 J0.125
G1 Y166.1388
G1 Y166.1389
G2 X32.574 Y166.1433 I0.0044 J0.0
G2 X32.5783 Y166.139 I-0.0001 J-0.0044
G3 Y166.1388 I0.125 J-0.0001
G1 Y166.1155
G3 X32.6235 Y166.0194 I0.125 J0.0
G1 Y165.953
G3 X32.5783 Y165.8569 I0.0798 J-0.0962
G1 Y165.834
G3 Y165.8337 I0.125 J0.0
G2 X32.5741 Y165.8294 I-0.0043 J0.0
G2 X32.5697 Y165.8339 I0.0 J0.0045
G1 Y165.834
G1 Y165.8569
G3 X32.4447 Y165.9819 I-0.125 J0.0
G1 X31.9496
G3 X31.8246 Y165.8569 I0.0 J-0.125
G1 Y165.2107
G3 X31.9443 Y165.0858 I0.125 J0.0
G2 X31.9485 Y165.0814 I-0.0002 J-0.0044
G3 Y165.0808 I0.125 J-0.0002
G2 X31.944 Y165.0763 I-0.0044 J0.0
G3 X31.9436 I-0.0004 J-0.125
G1 X31.7037
G3 X31.6731 Y165.0801 I-0.0305 J-0.1212
G1 X31.5405
G3 X31.5398 I0.0 J-0.125
G3 X31.3534 Y164.8926 I0.001 J-0.1874
G1 Y164.0492
G3 X31.5405 Y163.8614 I0.187 J-0.0008
G1 X31.9288
G3 X31.9438 Y163.8598 I0.0208 J0.1233
G2 X31.9485 Y163.8549 I-0.0002 J-0.0048
G3 Y163.8544 I0.125 J-0.0001
G2 X31.9444 Y163.8502 I-0.0043 J0.0
G3 X31.8246 Y163.7253 I0.0052 J-0.1249
G1 Y160.9874
G3 X31.8283 Y160.9569 I0.125 J0.0
G0 Z0.5
G0 X33.672 Y160.172
G1 F10.0 Z-0.25
G3 F30.0 X33.642 Y160.0246 I0.3445 J-0.1466
G1 Y155.5262
G3 X34.0172 Y155.1511 I0.3744 J-0.0007
G1 X63.5155
G3 X63.8906 Y155.5263 I0.0007 J0.3744
G1 Y160.0247
G3 X63.5155 Y160.3998 I-0.3746 J0.0005
G1 X34.0172
G3 X33.672 Y160.172 I-0.0008 J-0.3744
G1 F10.0 Z-0.5
G3 F30.0 X33.642 Y160.0246 I0.3445 J-0.1466
G1 Y155.5262
G3 X34.0172 Y155.1511 I0.3744 J-0.0007
G1 X63.5155
G3 X63.8906 Y155.5263 I0.0007 J0.3744
G1 Y160.0247
G3 X63.5155 Y160.3998 I-0.3746 J0.0005
G1 X34.0172
G3 X33.672 Y160.172 I-0.0008 J-0.3744
G0 Z0.5
G0 X33.8197 Y154.6883
G1 F10.0 Z-0.25
G3 F30.0 X33.4554 Y154.3133 I0.0101 J-0.3743
G1 Y150.815
G3 X33.8305 Y150.4399 I0.3744 J-0.0007
G1 X63.3288
G3 X63.704 Y150.815 I0.0007 J0.3744
G1 Y154.3133
G3 X63.3288 Y154.6884 I-0.3744 J0.0007
G1 X33.8305
G3 X33.8197 Y154.6883 I-0.0007 J-0.3744
G1 F10.0 Z-0.5
G3 F30.0 X33.4554 Y154.3133 I0.0101 J-0.3743
G1 Y150.815
G3 X33.8305 Y150.4399 I0.3744 J-0.0007
G1 X63.3288
G3 X63.704 Y150.815 I0.0007 J0.3744
G1 Y154.3133
G3 X63.3288 Y154.6884 I-0.3744 J0.0007
G1 X33.8305
G3 X33.8197 Y154.6883 I-0.0007 J-0.3744
G0 Z0.5
G0 Y179.5737
G1 F10.0 Z-0.25
G1 F30.0 X61.0309
G3 X61.1559 Y179.6987 I0.0 J0.125
G1 Y181.9365
G3 X61.0362 Y182.0614 I-0.125 J0.0
G2 X61.032 Y182.0658 I0.0002 J0.0044
G3 Y182.0665 I-0.125 J0.0003
G2 X61.0362 Y182.071 I0.0045 J0.0
G3 X61.0517 Y182.0726 I-0.0053 J0.1249
G1 X61.4399
G3 X61.4405 I0.0 J0.125
G3 X61.6271 Y182.2602 I-0.0008 J0.1874
G1 Y183.1039
G3 Y183.104 I-0.125 J0.0
G3 X61.4407 Y183.2914 I-0.1876 J-0.0002
G3 X61.4399 I-0.0008 J-0.125
G1 X61.3073
G3 X61.2775 Y183.2878 I0.0 J-0.125
G2 X61.2761 Y183.2876 I-0.0016 J0.0065
G1 X61.0368
G3 X61.0364 I0.0 J-0.125
G2 X61.032 Y183.2921 I0.0 J0.0045
G3 Y183.2926 I-0.125 J0.0004
G2 X61.0363 Y183.2971 I0.0045 J0.0
G3 X61.1559 Y183.422 I-0.0054 J0.1249
G1 Y184.0681
G3 X61.0309 Y184.1931 I-0.125 J0.0
G1 X60.5358
G3 X60.4108 Y184.0681 I0.0 J-0.125
G1 Y184.0452
G3 Y184.045 I0.125 J0.0
G2 X60.4064 Y184.0407 I-0.0044 J0.0
G3 X60.4061 I-0.0002 J-0.125
G2 X60.4021 Y184.0447 I0.0 J0.004
G3 Y184.0452 I-0.125 J0.0005
G1 Y184.0681
G3 X60.357 Y184.1643 I-0.125 J0.0
G1 Y184.2307
G3 X60.4021 Y184.3268 I-0.0799 J0.0962
G1 Y184.3501
G3 Y184.3503 I-0.125 J0.0
G2 X60.4064 Y184.3546 I0.0043 J0.0
G3 X60.4065 I-0.0002 J0.125
G2 X60.4108 Y184.3504 I0.0 J-0.0042
G3 Y184.3501 I0.125 J-0.0003
G1 Y184.3268
G3 X60.5358 Y184.2018 I0.125 J0.0
G1 X61.0309
G3 X61.1559 Y184.3268 I0.0 J0.125
G1 Y184.9678
G3 X61.0366 Y185.0927 I-0.125 J0.0
G2 X61.032 Y185.0976 I0.0002 J0.0049
G3 Y185.0978 I-0.125 J0.0001
G2 X61.0362 Y185.1023 I0.0045 J0.0
G3 X61.0517 Y185.1039 I-0.0053 J0.1249
G1 X61.4399
G3 X61.4405 I0.0 J0.125
G3 X61.6271 Y185.2914 I-0.0008 J0.1874
G1 Y186.1351
G3 Y186.1353 I-0.125 J0.0
G3 X61.4407 Y186.3226 I-0.1876 J-0.0002
G3 X61.4399 I-0.0008 J-0.125
G1 X61.0517
G3 X61.0362 Y186.3243 I-0.0208 J-0.1233
G2 X61.032 Y186.3287 I0.0002 J0.0044
G3 Y186.3293 I-0.125 J0.0003
G2 X61.0364 Y186.3339 I0.0046 J0.0
G3 X61.1559 Y186.4588 I-0.0054 J0.1249
G1 Y189.9376
G3 X61.0361 Y190.0625 I-0.125 J0.0
G2 X61.032 Y190.0668 I0.0002 J0.0043
G3 Y190.0676 I-0.125 J0.0003
G2 X61.0363 Y190.0721 I0.0045 J0.0
G3 X61.0514 Y190.0737 I-0.0054 J0.1249
G1 X61.4399
G3 X61.4405 I0.0 J0.125
G3 X61.6271 Y190.2612 I-0.0008 J0.1874
G1 Y191.1047
G3 X61.4399 Y191.2925 I-0.1871 J0.0007
G1 X61.3073
G3 X61.2766 Y191.2886 I0.0 J-0.125
G1 X61.0368
G3 X61.0364 I0.0 J-0.125
G2 X61.032 Y191.2931 I0.0 J0.0045
G3 Y191.2936 I-0.125 J0.0004
G2 X61.0363 Y191.2981 I0.0046 J0.0
G3 X61.1559 Y191.423 I-0.0054 J0.1249
G1 Y192.0692
G3 X61.0309 Y192.1942 I-0.125 J0.0
G1 X60.5358
G3 X60.4108 Y192.0692 I0.0 J-0.125
G1 Y192.0463
G3 Y192.0461 I0.125 J0.0
G2 X60.4064 Y192.0418 I-0.0043 J0.0
G3 X60.4061 I-0.0002 J-0.125
G2 X60.4021 Y192.0457 I0.0 J0.0039
G3 Y192.0463 I-0.125 J0.0006
G1 Y192.0692
G3 X60.357 Y192.1653 I-0.125 J0.0
G1 Y192.2317
G3 X60.4021 Y192.3279 I-0.0799 J0.0962
G1 Y192.3511
G3 Y192.3513 I-0.125 J0.0
G2 X60.4064 Y192.3556 I0.0043 J0.0
G1 X60.4065
G2 X60.4108 Y192.3514 I0.0 J-0.0042
G3 Y192.3511 I0.125 J-0.0003
G1 Y192.3279
G3 X60.5358 Y192.2029 I0.125 J0.0
G1 X61.0309
G3 X61.1559 Y192.3279 I0.0 J0.125
G1 Y192.9688
G3 X61.0366 Y193.0937 I-0.125 J0.0
G2 X61.032 Y193.0986 I0.0002 J0.0049
G3 Y193.099 I-0.125 J0.0001
G2 X61.036 Y193.1033 I0.0043 J0.0
G3 X61.052 Y193.105 I-0.0051 J0.1249
G1 X61.4398
G3 X61.6271 Y193.2929 I0.0004 J0.187
G1 Y194.1362
G3 X61.4407 Y194.3237 I-0.1875 J-0.0001
G3 X61.4399 I-0.0007 J-0.125
G1 X61.0517
G3 X61.0362 Y194.3253 I-0.0208 J-0.1233
G2 X61.032 Y194.3297 I0.0002 J0.0044
G3 Y194.3304 I-0.125 J0.0003
G2 X61.0362 Y194.3349 I0.0045 J0.0
G3 X61.1559 Y194.4598 I-0.0053 J0.1249
G1 Y197.1976
G3 X61.0309 Y197.3226 I-0.125 J0.0
G1 X32.0323
G3 X31.9073 Y197.1976 I0.0 J-0.125
G1 Y194.4598
G3 X32.027 Y194.3349 I0.125 J0.0
G2 X32.0316 Y194.3301 I-0.0002 J-0.0048
G3 Y194.3298 I0.125 J-0.0001
G2 X32.0273 Y194.3253 I-0.0045 J0.0
G3 X32.0116 Y194.3237 I0.005 J-0.1249
G1 X31.6238
G3 X31.4365 Y194.1358 I-0.0004 J-0.187
G1 Y193.2925
G1 Y193.2924
G3 X31.6229 Y193.105 I0.1875 J0.0001
G3 X31.6236 I0.0007 J0.125
G1 X32.0113
G3 X32.0275 Y193.1033 I0.0211 J0.1232
G2 X32.0316 Y193.099 I-0.0002 J-0.0043
G3 Y193.0982 I0.125 J-0.0003
G2 X32.0273 Y193.0937 I-0.0045 J0.0
G3 X31.9073 Y192.9688 I0.005 J-0.1249
G1 Y192.3279
G3 X32.0323 Y192.2029 I0.125 J0.0
G1 X32.5278
G3 X32.6528 Y192.3279 I0.0 J0.125
G1 Y192.3511
G2 X32.6572 Y192.3556 I0.0046 J0.0
G2 X32.6615 Y192.3512 I-0.0001 J-0.0044
G3 Y192.3511 I0.125 J-0.0001
G1 Y192.3279
G3 X32.7066 Y192.2317 I0.125 J0.0
G1 Y192.1653
G3 X32.6615 Y192.0692 I0.0799 J-0.0962
G1 Y192.0463
G3 Y192.0459 I0.125 J0.0
G2 X32.6573 Y192.0418 I-0.0041 J0.0
G3 X32.6571 I0.0 J-0.125
G2 X32.6528 Y192.0461 I0.0 J0.0044
G3 Y192.0463 I-0.125 J0.0002
G1 Y192.0692
G3 X32.5278 Y192.1942 I-0.125 J0.0
G1 X32.0323
G3 X31.9073 Y192.0692 I0.0 J-0.125
G1 Y191.423
G3 X32.0275 Y191.2981 I0.125 J0.0
G2 X32.0316 Y191.2938 I-0.0002 J-0.0042
G3 Y191.2931 I0.125 J-0.0003
G2 X32.0272 Y191.2886 I-0.0044 J0.0
G3 X32.0268 I-0.0004 J-0.125
G1 X31.7895
G2 X31.7833 Y191.2895 I0.0026 J0.0406
G3 X31.7563 Y191.2925 I-0.027 J-0.122
G1 X31.6236
G3 X31.6231 I0.0 J-0.125
G3 X31.4365 Y191.1049 I0.0008 J-0.1874
G1 Y190.2615
G3 X31.6237 Y190.0737 I0.1871 J-0.0007
G1 X32.0119
G3 X32.027 Y190.0721 I0.0204 J0.1233
G2 X32.0316 Y190.0673 I-0.0002 J-0.0048
G3 Y190.0669 I0.125 J-0.0002
G2 X32.0274 Y190.0625 I-0.0044 J0.0
G3 X31.9073 Y189.9376 I0.0049 J-0.1249
G1 Y186.4588
G3 X32.027 Y186.3339 I0.125 J0.0
G2 X32.0316 Y186.329 I-0.0002 J-0.0048
G3 Y186.3287 I0.125 J-0.0001
G2 X32.0274 Y186.3243 I-0.0044 J0.0
G3 X32.0116 Y186.3226 I0.0049 J-0.1249
G1 X31.6238
G3 X31.4365 Y186.1347 I-0.0004 J-0.1869
G1 Y185.2917
G3 X31.6237 Y185.1039 I0.1871 J-0.0007
G1 X32.0116
G3 X32.0275 Y185.1023 I0.0208 J0.1233
G2 X32.0316 Y185.098 I-0.0002 J-0.0043
G3 Y185.0972 I0.125 J-0.0003
G2 X32.0273 Y185.0927 I-0.0045 J0.0
G3 X31.9073 Y184.9678 I0.005 J-0.1249
G1 Y184.3268
G3 X32.0323 Y184.2018 I0.125 J0.0
G1 X32.5278
G3 X32.6528 Y184.3268 I0.0 J0.125
G1 Y184.3501
G2 X32.6573 Y184.3546 I0.0045 J0.0
G3 X32.6576 I0.0 J0.125
G2 X32.6615 Y184.3507 I0.0 J-0.0038
G3 Y184.3501 I0.125 J-0.0006
G1 Y184.3268
G3 X32.7066 Y184.2307 I0.125 J0.0
G1 Y184.1643
G3 X32.6615 Y184.0681 I0.0799 J-0.0962
G1 Y184.0452
G3 Y184.0449 I0.125 J0.0
G2 X32.6573 Y184.0407 I-0.0042 J0.0
G1 X32.6572
G2 X32.6528 Y184.0451 I0.0 J0.0044
G3 Y184.0452 I-0.125 J0.0001
G1 Y184.0681
G3 X32.5278 Y184.1931 I-0.125 J0.0
G1 X32.0323
G3 X31.9073 Y184.0681 I0.0 J-0.125
G1 Y183.422
G3 X32.0275 Y183.2971 I0.125 J0.0
G2 X32.0316 Y183.2928 I-0.0002 J-0.0042
G3 Y183.2921 I0.125 J-0.0003
G2 X32.0272 Y183.2876 I-0.0044 J0.0
G3 X32.0268 I-0.0004 J-0.125
G1 X31.7889
G2 X31.784 Y183.2883 I0.0016 J0.0293
G3 X31.7563 Y183.2914 I-0.0277 J-0.1219
G1 X31.6238
G3 X31.4365 Y183.1035 I-0.0004 J-0.1869
G1 Y182.2604
G3 X31.6237 Y182.0726 I0.1871 J-0.0007
G1 X32.0116
G3 X32.027 Y182.071 I0.0208 J0.1233
G2 X32.0316 Y182.0662 I-0.0002 J-0.0048
G3 Y182.0659 I0.125 J-0.0001
G2 X32.0273 Y182.0614 I-0.0045 J0.0
G3 X31.9073 Y181.9365 I0.005 J-0.1249
G1 Y179.6987
G3 X32.0323 Y179.5737 I0.125 J0.0
G1 X33.8197
G1 F10.0 Z-0.5
G1 F30.0 X61.0309
G3 X61.1559 Y179.6987 I0.0 J0.125
G1 Y181.9365
G3 X61.0362 Y182.0614 I-0.125 J0.0
G2 X61.032 Y182.0658 I0.0002 J0.0044
G3 Y182.0665 I-0.125 J0.0003
G2 X61.0362 Y182.071 I0.0045 J0.0
G3 X61.0517 Y182.0726 I-0.0053 J0.1249
G1 X61.4399
G3 X61.4405 I0.0 J0.125
G3 X61.6271 Y182.2602 I-0.0008 J0.1874
G1 Y183.1039
G3 Y183.104 I-0.125 J0.0
G3 X61.4407 Y183.2914 I-0.1876 J-0.0002
G3 X61.4399 I-0.0008 J-0.125
G1 X61.3073
G3 X61.2775 Y183.2878 I0.0 J-0.125
G2 X61.2761 Y183.2876 I-0.0016 J0.0065
G1 X61.0368
G3 X61.0364 I0.0 J-0.125
G2 X61.032 Y183.2921 I0.0 J0.0045
G3 Y183.2926 I-0.125 J0.0004
G2 X61.0363 Y183.2971 I0.0045 J0.0
G3 X61.1559 Y183.422 I-0.0054 J0.1249
G1 Y184.0681
G3 X61.0309 Y184.1931 I-0.125 J0.0
G1 X60.5358
G3 X60.4108 Y184.0681 I0.0 J-0.125
G1 Y184.0452
G3 Y184.045 I0.125 J0.0
G2 X60.4064 Y184.0407 I-0.0044 J0.0
G3 X60.4061 I-0.0002 J-0.125
G2 X60.4021 Y184.0447 I0.0 J0.004
G3 Y184.0452 I-0.125 J0.0005
G1 Y184.0681
G3 X60.357 Y184.1643 I-0.125 J0.0
G1 Y184.2307
G3 X60.4021 Y184.3268 I-0.0799 J0.0962
G1 Y184.3501
G3 Y184.3503 I-0.125 J0.0
G2 X60.4064 Y184.3546 I0.0043 J0.0
G3 X60.4065 I-0.0002 J0.125
G2 X60.4108 Y184.3504 I0.0 J-0.0042
G3 Y184.3501 I0.125 J-0.0003
G1 Y184.3268
G3 X60.5358 Y184.2018 I0.125 J0.0
G1 X61.0309
G3 X61.1559 Y184.3268 I0.0 J0.125
G1 Y184.9678
G3 X61.0366 Y185.0927 I-0.125 J0.0
G2 X61.032 Y185.0976 I0.0002 J0.0049
G3 Y185.0978 I-0.125 J0.0001
G2 X61.0362 Y185.1023 I0.0045 J0.0
G3 X61.0517 Y185.1039 I-0.0053 J0.1249
G1 X61.4399
G3 X61.4405 I0.0 J0.125
G3 X61.6271 Y185.2914 I-0.0008 J0.1874
G1 Y186.1351
G3 Y186.1353 I-0.125 J0.0
G3 X61.4407 Y186.3226 I-0.1876 J-0.0002
G3 X61.4399 I-0.0008 J-0.125
G1 X61.0517
G3 X61.0362 Y186.3243 I-0.0208 J-0.1233
G2 X61.032 Y186.3287 I0.0002 J0.0044
G3 Y186.3293 I-0.125 J0.0003
G2 X61.0364 Y186.3339 I0.0046 J0.0
G3 X61.1559 Y186.4588 I-0.0054 J0.1249
G1 Y189.9376
G3 X61.0361 Y190.0625 I-0.125 J0.0
G2 X61.032 Y190.0668 I0.0002 J0.0043
G3 Y190.0676 I-0.125 J0.0003
G2 X61.0363 Y190.0721 I0.0045 J0.0
G3 X61.0514 Y190.0737 I-0.0054 J0.1249
G1 X61.4399
G3 X61.4405 I0.0 J0.125
G3 X61.6271 Y190.2612 I-0.0008 J0.1874
G1 Y191.1047
G3 X61.4399 Y191.2925 I-0.1871 J0.0007
G1 X61.3073
G3 X61.2766 Y191.2886 I0.0 J-0.125
G1 X61.0368
G3 X61.0364 I0.0 J-0.125
G2 X61.032 Y191.2931 I0.0 J0.0045
G3 Y191.2936 I-0.125 J0.0004
G2 X61.0363 Y191.2981 I0.0046 J0.0
G3 X61.1559 Y191.423 I-0.0054 J0.1249
G1 Y192.0692
G3 X61.0309 Y192.1942 I-0.125 J0.0
G1 X60.5358
G3 X60.4108 Y192.0692 I0.0 J-0.125
G1 Y192.0463
G3 Y192.0461 I0.125 J0.0
G2 X60.4064 Y192.0418 I-0.0043 J0.0
G3 X60.4061 I-0.0002 J-0.125
G2 X60.4021 Y192.0457 I0.0 J0.0039
G3 Y192.0463 I-0.125 J0.0006
G1 Y192.0692
G3 X60.357 Y192.1653 I-0.125 J0.0
G1 Y192.2317
G3 X60.4021 Y192.3279 I-0.0799 J0.0962
G1 Y192.3511
G3 Y192.3513 I-0.125 J0.0
G2 X60.4064 Y192.3556 I0.0043 J0.0
G1 X60.4065
G2 X60.4108 Y192.3514 I0.0 J-0.0042
G3 Y192.3511 I0.125 J-0.0003
G1 Y192.3279
G3 X60.5358 Y192.2029 I0.125 J0.0
G1 X61.0309
G3 X61.1559 Y192.3279 I0.0 J0.125
G1 Y192.9688
G3 X61.0366 Y193.0937 I-0.125 J0.0
G2 X61.032 Y193.0986 I0.0002 J0.0049
G3 Y193.099 I-0.125 J0.0001
G2 X61.036 Y193.1033 I0.0043 J0.0
G3 X61.052 Y193.105 I-0.0051 J0.1249
G1 X61.4398
G3 X61.6271 Y193.2929 I0.0004 J0.187
G1 Y194.1362
G3 X61.4407 Y194.3237 I-0.1875 J-0.0001
G3 X61.4399 I-0.0007 J-0.125
G1 X61.0517
G3 X61.0362 Y194.3253 I-0.0208 J-0.1233
G2 X61.032 Y194.3297 I0.0002 J0.0044
G3 Y194.3304 I-0.125 J0.0003
G2 X61.0362 Y194.3349 I0.0045 J0.0
G3 X61.1559 Y194.4598 I-0.0053 J0.1249
G1 Y197.1976
G3 X61.0309 Y197.3226 I-0.125 J0.0
G1 X32.0323
G3 X31.9073 Y197.1976 I0.0 J-0.125
G1 Y194.4598
G3 X32.027 Y194.3349 I0.125 J0.0
G2 X32.0316 Y194.3301 I-0.0002 J-0.0048
G3 Y194.3298 I0.125 J-0.0001
G2 X32.0273 Y194.3253 I-0.0045 J0.0
G3 X32.0116 Y194.3237 I0.005 J-0.1249
G1 X31.6238
G3 X31.4365 Y194.1358 I-0.0004 J-0.187
G1 Y193.2925
G1 Y193.2924
G3 X31.6229 Y193.105 I0.1875 J0.0001
G3 X31.6236 I0.0007 J0.125
G1 X32.0113
G3 X32.0275 Y193.1033 I0.0211 J0.1232
G2 X32.0316 Y193.099 I-0.0002 J-0.0043
G3 Y193.0982 I0.125 J-0.0003
G2 X32.0273 Y193.0937 I-0.0045 J0.0
G3 X31.9073 Y192.9688 I0.005 J-0.1249
G1 Y192.3279
G3 X32.0323 Y192.2029 I0.125 J0.0
G1 X32.5278
G3 X32.6528 Y192.3279 I0.0 J0.125
G1 Y192.3511
G2 X32.6572 Y192.3556 I0.0046 J0.0
G2 X32.6615 Y192.3512 I-0.0001 J-0.0044
G3 Y192.3511 I0.125 J-0.0001
G1 Y192.3279
G3 X32.7066 Y192.2317 I0.125 J0.0
G1 Y192.1653
G3 X32.6615 Y192.0692 I0.0799 J-0.0962
G1 Y192.0463
G3 Y192.0459 I0.125 J0.0
G2 X32.6573 Y192.0418 I-0.0041 J0.0
G3 X32.6571 I0.0 J-0.125
G2 X32.6528 Y192.0461 I0.0 J0.0044
G3 Y192.0463 I-0.125 J0.0002
G1 Y192.0692
G3 X32.5278 Y192.1942 I-0.125 J0.0
G1 X32.0323
G3 X31.9073 Y192.0692 I0.0 J-0.125
G1 Y191.423
G3 X32.0275 Y191.2981 I0.125 J0.0
G2 X32.0316 Y191.2938 I-0.0002 J-0.0042
G3 Y191.2931 I0.125 J-0.0003
G2 X32.0272 Y191.2886 I-0.0044 J0.0
G3 X32.0268 I-0.0004 J-0.125
G1 X31.7895
G2 X31.7833 Y191.2895 I0.0026 J0.0406
G3 X31.7563 Y191.2925 I-0.027 J-0.122
G1 X31.6236
G3 X31.6231 I0.0 J-0.125
G3 X31.4365 Y191.1049 I0.0008 J-0.1874
G1 Y190.2615
G3 X31.6237 Y190.0737 I0.1871 J-0.0007
G1 X32.0119
G3 X32.027 Y190.0721 I0.0204 J0.1233
G2 X32.0316 Y190.0673 I-0.0002 J-0.0048
G3 Y190.0669 I0.125 J-0.0002
G2 X32.0274 Y190.0625 I-0.0044 J0.0
G3 X31.9073 Y189.9376 I0.0049 J-0.1249
G1 Y186.4588
G3 X32.027 Y186.3339 I0.125 J0.0
G2 X32.0316 Y186.329 I-0.0002 J-0.0048
G3 Y186.3287 I0.125 J-0.0001
G2 X32.0274 Y186.3243 I-0.0044 J0.0
G3 X32.0116 Y186.3226 I0.0049 J-0.1249
G1 X31.6238
G3 X31.4365 Y186.1347 I-0.0004 J-0.1869
G1 Y185.2917
G3 X31.6237 Y185.1039 I0.1871 J-0.0007
G1 X32.0116
G3 X32.0275 Y185.1023 I0.0208 J0.1233
G2 X32.0316 Y185.098 I-0.0002 J-0.0043
G3 Y185.0972 I0.125 J-0.0003
G2 X32.0273 Y185.0927 I-0.0045 J0.0
G3 X31.9073 Y184.9678 I0.005 J-0.1249
G1 Y184.3268
G3 X32.0323 Y184.2018 I0.125 J0.0
G1 X32.5278
G3 X32.6528 Y184.3268 I0.0 J0.125
G1 Y184.3501
G2 X32.6573 Y184.3546 I0.0045 J0.0
G3 X32.6576 I0.0 J0.125
G2 X32.6615 Y184.3507 I0.0 J-0.0038
G3 Y184.3501 I0.125 J-0.0006
G1 Y184.3268
G3 X32.7066 Y184.2307 I0.125 J0.0
G1 Y184.1643
G3 X32.6615 Y184.0681 I0.0799 J-0.0962
G1 Y184.0452
G3 Y184.0449 I0.125 J0.0
G2 X32.6573 Y184.0407 I-0.0042 J0.0
G1 X32.6572
G2 X32.6528 Y184.0451 I0.0 J0.0044
G3 Y184.0452 I-0.125 J0.0001
G1 Y184.0681
G3 X32.5278 Y184.1931 I-0.125 J0.0
G1 X32.0323
G3 X31.9073 Y184.0681 I0.0 J-0.125
G1 Y183.422
G3 X32.0275 Y183.2971 I0.125 J0.0
G2 X32.0316 Y183.2928 I-0.0002 J-0.0042
G3 Y183.2921 I0.125 J-0.0003
G2 X32.0272 Y183.2876 I-0.0044 J0.0
G3 X32.0268 I-0.0004 J-0.125
G1 X31.7889
G2 X31.784 Y183.2883 I0.0016 J0.0293
G3 X31.7563 Y183.2914 I-0.0277 J-0.1219
G1 X31.6238
G3 X31.4365 Y183.1035 I-0.0004 J-0.1869
G1 Y182.2604
G3 X31.6237 Y182.0726 I0.1871 J-0.0007
G1 X32.0116
G3 X32.027 Y182.071 I0.0208 J0.1233
G2 X32.0316 Y182.0662 I-0.0002 J-0.0048
G3 Y182.0659 I0.125 J-0.0001
G2 X32.0273 Y182.0614 I-0.0045 J0.0
G3 X31.9073 Y181.9365 I0.005 J-0.1249
G1 Y179.6987
G3 X32.0323 Y179.5737 I0.125 J0.0
G1 X33.8197
G0 Z0.5
G0 X65.8746
G1 F10.0 Z-0.25
G1 F30.0 Y172.9301
G3 X65.962 Y172.8109 I0.125 J0.0
G3 X66.0799 Y172.7978 I0.0921 J0.2918
G3 X66.0851 Y172.7984 I-0.0105 J0.1246
G2 X66.1 Y172.799 I0.0117 J-0.0921
G3 X66.1016 I0.0044 J0.1249
G1 X66.1367 Y172.7982
G3 X66.1395 I0.0028 J0.125
G1 X94.983
G3 X95.1019 Y172.8848 I0.0 J0.125
G3 X95.1152 Y173.0043 I-0.2856 J0.0922
G3 X95.1148 Y173.0081 I-0.1245 J-0.0114
G2 X95.1141 Y173.0242 I0.1061 J0.0129
G3 Y173.0252 I-0.1249 J0.0038
G1 X95.1149 Y173.0603
G3 Y173.0632 I-0.125 J0.0028
G1 Y197.0538
G3 X95.0779 Y197.1426 I-0.125 J0.0
G1 X95.0737 Y197.1467
G1 X95.0723 Y197.1481
G3 X94.983 Y197.1857 I-0.0894 J-0.0874
G1 X66.0066
G3 X65.8874 Y197.0985 I0.0 J-0.125
G3 X65.8743 Y196.9803 I0.2904 J-0.0922
G3 X65.8748 Y196.9754 I0.1245 J0.0107
G2 X65.8755 Y196.9601 I-0.0961 J-0.012
G3 X65.8754 Y196.9587 I0.1249 J-0.0042
G1 X65.8747 Y196.9235
G3 X65.8746 Y196.9208 I0.125 J-0.0027
G1 Y179.5737
G1 F10.0 Z-0.5
G1 F30.0 Y172.9301
G3 X65.962 Y172.8109 I0.125 J0.0
G3 X66.0799 Y172.7978 I0.0921 J0.2918
G3 X66.0851 Y172.7984 I-0.0105 J0.1246
G2 X66.1 Y172.799 I0.0117 J-0.0921
G3 X66.1016 I0.0044 J0.1249
G1 X66.1367 Y172.7982
G3 X66.1395 I0.0028 J0.125
G1 X94.983
G3 X95.1019 Y172.8848 I0.0 J0.125
G3 X95.1152 Y173.0043 I-0.2856 J0.0922
G3 X95.1148 Y173.0081 I-0.1245 J-0.0114
G2 X95.1141 Y173.0242 I0.1061 J0.0129
G3 Y173.0252 I-0.1249 J0.0038
G1 X95.1149 Y173.0603
G3 Y173.0632 I-0.125 J0.0028
G1 Y197.0538
G3 X95.0779 Y197.1426 I-0.125 J0.0
G1 X95.0737 Y197.1467
G1 X95.0723 Y197.1481
G3 X94.983 Y197.1857 I-0.0894 J-0.0874
G1 X66.0066
G3 X65.8874 Y197.0985 I0.0 J-0.125
G3 X65.8743 Y196.9803 I0.2904 J-0.0922
G3 X65.8748 Y196.9754 I0.1245 J0.0107
G2 X65.8755 Y196.9601 I-0.0961 J-0.012
G3 X65.8754 Y196.9587 I0.1249 J-0.0042
G1 X65.8747 Y196.9235
G3 X65.8746 Y196.9208 I0.125 J-0.0027
G1 Y179.5737
G0 Z0.5
G0 Y166.8589
G1 F10.0 Z-0.25
G1 F30.0 X65.6234
G3 X65.4984 Y166.7339 I0.0 J-0.125
G1 Y165.0589
G3 X65.6176 Y164.934 I0.125 J0.0
G2 X65.6224 Y164.929 I-0.0002 J-0.005
G3 Y164.9287 I0.125 J0.0
G2 X65.6182 Y164.9244 I-0.0043 J0.0
G3 X65.6027 Y164.9228 I0.0052 J-0.1249
G1 X65.2144
G3 X65.2139 I0.0 J-0.125
G3 X65.0272 Y164.7352 I0.0007 J-0.1874
G1 Y163.8918
G3 X65.2145 Y163.704 I0.1871 J-0.0007
G1 X65.6027
G3 X65.6182 Y163.7024 I0.0208 J0.1233
G2 X65.6224 Y163.698 I-0.0002 J-0.0044
G3 Y163.6972 I0.125 J-0.0002
G2 X65.6182 Y163.6928 I-0.0044 J0.0
G3 X65.4984 Y163.5679 I0.0052 J-0.1249
G1 Y162.9269
G3 X65.6234 Y162.8019 I0.125 J0.0
G1 X66.1185
G3 X66.2435 Y162.9269 I0.0 J0.125
G1 Y162.9502
G3 Y162.9503 I-0.125 J0.0
G2 X66.2479 Y162.9547 I0.0044 J0.0
G1 X66.248
G2 X66.2522 Y162.9505 I0.0 J-0.0042
G3 Y162.9502 I0.125 J-0.0003
G1 Y162.9269
G3 X66.2973 Y162.8308 I0.125 J0.0
G1 Y162.7644
G3 X66.2522 Y162.6683 I0.0799 J-0.0962
G1 Y162.6453
G3 Y162.6448 I0.125 J0.0
G2 X66.2483 Y162.6408 I-0.0039 J0.0
G3 X66.2479 I-0.0002 J-0.125
G2 X66.2435 Y162.6452 I0.0 J0.0044
G3 Y162.6453 I-0.125 J0.0001
G1 Y162.6683
G3 X66.1185 Y162.7933 I-0.125 J0.0
G1 X65.6234
G3 X65.4984 Y162.6683 I0.0 J-0.125
G1 Y162.022
G3 X65.6182 Y161.8971 I0.125 J0.0
G2 X65.6224 Y161.8928 I-0.0002 J-0.0043
G3 Y161.8922 I0.125 J-0.0003
G2 X65.6178 Y161.8877 I-0.0045 J0.0
G3 X65.6175 I-0.0003 J-0.125
G1 X65.3796
G2 X65.375 Y161.8883 I0.0014 J0.0265
G3 X65.347 Y161.8915 I-0.028 J-0.1218
G1 X65.2144
G3 X65.2139 I0.0 J-0.125
G3 X65.0272 Y161.704 I0.0007 J-0.1874
G1 Y160.8606
G3 X65.2145 Y160.6728 I0.1871 J-0.0007
G1 X65.6027
G3 X65.6176 Y160.6712 I0.0208 J0.1233
G2 X65.6224 Y160.6661 I-0.0002 J-0.0051
G3 Y160.666 I0.125 J0.0
G2 X65.6181 Y160.6615 I-0.0045 J0.0
G3 X65.4984 Y160.5366 I0.0053 J-0.1249
G1 Y157.0575
G3 X65.6177 Y156.9326 I0.125 J0.0
G2 X65.6224 Y156.9277 I-0.0002 J-0.0049
G3 Y156.9274 I0.125 J0.0
G2 X65.6182 Y156.923 I-0.0044 J0.0
G3 X65.6031 Y156.9214 I0.0053 J-0.1249
G1 X65.2144
G3 X65.214 I0.0 J-0.125
G3 X65.0272 Y156.7338 I0.0006 J-0.1874
G1 Y155.8903
G3 X65.2144 Y155.7026 I0.1872 J-0.0006
G1 X65.6027
G3 X65.6181 Y155.701 I0.0208 J0.1233
G2 X65.6224 Y155.6965 I-0.0002 J-0.0044
G3 Y155.6959 I0.125 J-0.0002
G2 X65.6181 Y155.6914 I-0.0044 J0.0
G3 X65.4984 Y155.5665 I0.0053 J-0.1249
G1 Y154.9255
G3 X65.6234 Y154.8005 I0.125 J0.0
G1 X66.1185
G3 X66.2435 Y154.9255 I0.0 J0.125
G1 Y154.9488
G3 Y154.9489 I-0.125 J0.0
G2 X66.2479 Y154.9533 I0.0044 J0.0
G1 X66.248
G2 X66.2522 Y154.9491 I0.0 J-0.0042
G3 Y154.9488 I0.125 J-0.0003
G1 Y154.9255
G3 X66.2973 Y154.8294 I0.125 J0.0
G1 Y154.763
G3 X66.2522 Y154.6669 I0.0799 J-0.0962
G1 Y154.6439
G3 Y154.6434 I0.125 J0.0
G2 X66.2483 Y154.6394 I-0.0039 J0.0
G3 X66.2479 I-0.0003 J-0.125
G2 X66.2435 Y154.6438 I0.0 J0.0044
G1 Y154.6439
G1 Y154.6669
G3 X66.1185 Y154.7919 I-0.125 J0.0
G1 X65.6234
G3 X65.4984 Y154.6669 I0.0 J-0.125
G1 Y154.0207
G3 X65.6182 Y153.8958 I0.125 J0.0
G2 X65.6224 Y153.8915 I-0.0002 J-0.0043
G3 Y153.8908 I0.125 J-0.0003
G2 X65.6179 Y153.8863 I-0.0045 J0.0
G3 X65.6175 I-0.0004 J-0.125
G1 X65.3791
G2 X65.3756 Y153.8868 I0.0008 J0.0191
G3 X65.347 Y153.8901 I-0.0285 J-0.1217
G1 X65.2144
G3 X65.2138 I0.0 J-0.125
G3 X65.0272 Y153.7026 I0.0008 J-0.1875
G1 Y152.8593
G3 X65.2145 Y152.6714 I0.187 J-0.0008
G1 X65.6023
G3 X65.6176 Y152.6697 I0.0212 J0.1232
G2 X65.6224 Y152.6648 I-0.0002 J-0.0049
G3 Y152.6645 I0.125 J0.0
G2 X65.6183 Y152.6602 I-0.0043 J0.0
G3 X65.4984 Y152.5353 I0.0051 J-0.1249
G1 Y150.8603
G3 X65.6234 Y150.7353 I0.125 J0.0
G1 X94.5998
G3 X94.7248 Y150.8603 I0.0 J0.125
G1 Y152.5353
G3 X94.6044 Y152.6602 I-0.125 J0.0
G2 X94.6005 Y152.6643 I0.0002 J0.0041
G3 Y152.665 I-0.125 J0.0005
G2 X94.605 Y152.6697 I0.0047 J0.0
G3 X94.621 Y152.6714 I-0.0051 J0.1249
G1 X95.0084
G3 X95.0088 I0.0 J0.125
G3 X95.1956 Y152.859 I-0.0005 J0.1873
G1 Y153.7023
G3 X95.0084 Y153.8901 I-0.1871 J0.0007
G1 X94.8758
G3 X94.8605 Y153.8892 I0.0 J-0.125
G1 X94.8375 Y153.8863
G1 X94.6053
G3 X94.605 I0.0 J-0.125
G2 X94.6005 Y153.8909 I0.0 J0.0045
G3 Y153.8911 I-0.125 J0.0003
G2 X94.6049 Y153.8958 I0.0047 J0.0
G3 X94.7248 Y154.0207 I-0.0051 J0.1249
G1 Y154.6669
G3 X94.5998 Y154.7919 I-0.125 J0.0
G1 X94.1043
G3 X93.9793 Y154.6669 I0.0 J-0.125
G1 Y154.6439
G3 Y154.6438 I0.125 J0.0
G2 X93.9749 Y154.6394 I-0.0044 J0.0
G2 X93.9706 Y154.6437 I0.0 J0.0042
G3 Y154.6439 I-0.125 J0.0003
G1 Y154.6669
G3 X93.9255 Y154.763 I-0.125 J0.0
G1 Y154.8294
G3 X93.9706 Y154.9255 I-0.0799 J0.0962
G1 Y154.9488
G3 Y154.9494 I-0.125 J0.0
G2 X93.9745 Y154.9533 I0.0039 J0.0
G3 X93.975 I0.0003 J0.125
G2 X93.9793 Y154.949 I0.0 J-0.0044
G3 Y154.9488 I0.125 J-0.0001
G1 Y154.9255
G3 X94.1043 Y154.8005 I0.125 J0.0
G1 X94.5998
G3 X94.7248 Y154.9255 I0.0 J0.125
G1 Y155.5665
G3 X94.6049 Y155.6914 I-0.125 J0.0
G2 X94.6005 Y155.6961 I0.0002 J0.0046
G3 Y155.6964 I-0.125 J0.0003
G2 X94.6048 Y155.701 I0.0045 J0.0
G3 X94.6206 Y155.7026 I-0.005 J0.1249
G1 X95.0084
G3 X95.0086 I0.0 J0.125
G3 X95.1956 Y155.8903 I-0.0003 J0.1873
G1 Y156.7337
G3 X95.0086 Y156.9214 I-0.1872 J0.0004
G3 X95.0084 I-0.0001 J-0.125
G1 X94.6201
G3 X94.6044 Y156.923 I-0.0203 J-0.1233
G2 X94.6005 Y156.9271 I0.0002 J0.0041
G3 Y156.9279 I-0.125 J0.0005
G2 X94.605 Y156.9326 I0.0047 J0.0
G3 X94.7248 Y157.0575 I-0.0051 J0.1249
G1 Y160.5366
G3 X94.6043 Y160.6616 I-0.125 J0.0
G2 X94.6005 Y160.6656 I0.0001 J0.004
G3 Y160.6666 I-0.125 J0.0005
G2 X94.6048 Y160.6711 I0.0045 J0.0
G3 X94.6206 Y160.6728 I-0.005 J0.1249
G1 X95.0084
G3 X95.0087 I0.0 J0.125
G3 X95.1956 Y160.8604 I-0.0004 J0.1873
G1 Y161.7038
G3 X95.0085 Y161.8915 I-0.1872 J0.0005
G1 X95.0084
G1 X94.8758
G3 X94.8604 Y161.8906 I0.0 J-0.125
G1 X94.8375 Y161.8877
G1 X94.6053
G3 X94.6049 I0.0 J-0.125
G2 X94.6005 Y161.8922 I0.0 J0.0045
G3 Y161.8926 I-0.125 J0.0004
G2 X94.6048 Y161.8971 I0.0046 J0.0
G3 X94.7248 Y162.022 I-0.005 J0.1249
G1 Y162.6683
G3 X94.5998 Y162.7933 I-0.125 J0.0
G1 X94.1043
G3 X93.9793 Y162.6683 I0.0 J-0.125
G1 Y162.6453
G1 Y162.6452
G2 X93.9749 Y162.6408 I-0.0044 J0.0
G1 X93.9748
G2 X93.9706 Y162.645 I0.0 J0.0042
G3 Y162.6453 I-0.125 J0.0003
G1 Y162.6683
G3 X93.9255 Y162.7644 I-0.125 J0.0
G1 Y162.8308
G3 X93.9706 Y162.9269 I-0.0799 J0.0962
G1 Y162.9502
G3 Y162.9508 I-0.125 J0.0
G2 X93.9745 Y162.9547 I0.0039 J0.0
G3 X93.975 I0.0003 J0.125
G2 X93.9793 Y162.9504 I0.0 J-0.0044
G3 Y162.9502 I0.125 J-0.0001
G1 Y162.9269
G3 X94.1043 Y162.8019 I0.125 J0.0
G1 X94.5998
G3 X94.7248 Y162.9269 I0.0 J0.125
G1 Y163.5679
G3 X94.605 Y163.6928 I-0.125 J0.0
G2 X94.6005 Y163.6975 I0.0002 J0.0047
G3 Y163.6977 I-0.125 J0.0003
G2 X94.605 Y163.7024 I0.0047 J0.0
G3 X94.6206 Y163.704 I-0.0051 J0.1249
G1 X95.0084
G3 X95.0087 I0.0 J0.125
G3 X95.1956 Y163.8917 I-0.0004 J0.1873
G1 Y164.735
G3 X95.0085 Y164.9228 I-0.1872 J0.0005
G1 X95.0084
G1 X94.6206
G3 X94.6044 Y164.9244 I-0.0208 J-0.1233
G2 X94.6005 Y164.9285 I0.0001 J0.0041
G3 Y164.9293 I-0.125 J0.0005
G2 X94.6049 Y164.934 I0.0047 J0.0
G3 X94.7248 Y165.0589 I-0.0051 J0.1249
G1 Y166.7339
G3 X94.5998 Y166.8589 I-0.125 J0.0
G1 X65.8746
G1 F10.0 Z-0.5
G1 F30.0 X65.6234
G3 X65.4984 Y166.7339 I0.0 J-0.125
G1 Y165.0589
G3 X65.6176 Y164.934 I0.125 J0.0
G2 X65.6224 Y164.929 I-0.0002 J-0.005
G3 Y164.9287 I0.125 J0.0
G2 X65.6182 Y164.9244 I-0.0043 J0.0
G3 X65.6027 Y164.9228 I0.0052 J-0.1249
G1 X65.2144
G3 X65.2139 I0.0 J-0.125
G3 X65.0272 Y164.7352 I0.0007 J-0.1874
G1 Y163.8918
G3 X65.2145 Y163.704 I0.1871 J-0.0007
G1 X65.6027
G3 X65.6182 Y163.7024 I0.0208 J0.1233
G2 X65.6224 Y163.698 I-0.0002 J-0.0044
G3 Y163.6972 I0.125 J-0.0002
G2 X65.6182 Y163.6928 I-0.0044 J0.0
G3 X65.4984 Y163.5679 I0.0052 J-0.1249
G1 Y162.9269
G3 X65.6234 Y162.8019 I0.125 J0.0
G1 X66.1185
G3 X66.2435 Y162.9269 I0.0 J0.125
G1 Y162.9502
G3 Y162.9503 I-0.125 J0.0
G2 X66.2479 Y162.9547 I0.0044 J0.0
G1 X66.248
G2 X66.2522 Y162.9505 I0.0 J-0.0042
G3 Y162.9502 I0.125 J-0.0003
G1 Y162.9269
G3 X66.2973 Y162.8308 I0.125 J0.0
G1 Y162.7644
G3 X66.2522 Y162.6683 I0.0799 J-0.0962
G1 Y162.6453
G3 Y162.6448 I0.125 J0.0
G2 X66.2483 Y162.6408 I-0.0039 J0.0
G3 X66.2479 I-0.0002 J-0.125
G2 X66.2435 Y162.6452 I0.0 J0.0044
G3 Y162.6453 I-0.125 J0.0001
G1 Y162.6683
G3 X66.1185 Y162.7933 I-0.125 J0.0
G1 X65.6234
G3 X65.4984 Y162.6683 I0.0 J-0.125
G1 Y162.022
G3 X65.6182 Y161.8971 I0.125 J0.0
G2 X65.6224 Y161.8928 I-0.0002 J-0.0043
G3 Y161.8922 I0.125 J-0.0003
G2 X65.6178 Y161.8877 I-0.0045 J0.0
G3 X65.6175 I-0.0003 J-0.125
G1 X65.3796
G2 X65.375 Y161.8883 I0.0014 J0.0265
G3 X65.347 Y161.8915 I-0.028 J-0.1218
G1 X65.2144
G3 X65.2139 I0.0 J-0.125
G3 X65.0272 Y161.704 I0.0007 J-0.1874
G1 Y160.8606
G3 X65.2145 Y160.6728 I0.1871 J-0.0007
G1 X65.6027
G3 X65.6176 Y160.6712 I0.0208 J0.1233
G2 X65.6224 Y160.6661 I-0.0002 J-0.0051
G3 Y160.666 I0.125 J0.0
G2 X65.6181 Y160.6615 I-0.0045 J0.0
G3 X65.4984 Y160.5366 I0.0053 J-0.1249
G1 Y157.0575
G3 X65.6177 Y156.9326 I0.125 J0.0
G2 X65.6224 Y156.9277 I-0.0002 J-0.0049
G3 Y156.9274 I0.125 J0.0
G2 X65.6182 Y156.923 I-0.0044 J0.0
G3 X65.6031 Y156.9214 I0.0053 J-0.1249
G1 X65.2144
G3 X65.214 I0.0 J-0.125
G3 X65.0272 Y156.7338 I0.0006 J-0.1874
G1 Y155.8903
G3 X65.2144 Y155.7026 I0.1872 J-0.0006
G1 X65.6027
G3 X65.6181 Y155.701 I0.0208 J0.1233
G2 X65.6224 Y155.6965 I-0.0002 J-0.0044
G3 Y155.6959 I0.125 J-0.0002
G2 X65.6181 Y155.6914 I-0.0044 J0.0
G3 X65.4984 Y155.5665 I0.0053 J-0.1249
G1 Y154.9255
G3 X65.6234 Y154.8005 I0.125 J0.0
G1 X66.1185
G3 X66.2435 Y154.9255 I0.0 J0.125
G1 Y154.9488
G3 Y154.9489 I-0.125 J0.0
G2 X66.2479 Y154.9533 I0.0044 J0.0
G1 X66.248
G2 X66.2522 Y154.9491 I0.0 J-0.0042
G3 Y154.9488 I0.125 J-0.0003
G1 Y154.9255
G3 X66.2973 Y154.8294 I0.125 J0.0
G1 Y154.763
G3 X66.2522 Y154.6669 I0.0799 J-0.0962
G1 Y154.6439
G3 Y154.6434 I0.125 J0.0
G2 X66.2483 Y154.6394 I-0.0039 J0.0
G3 X66.2479 I-0.0003 J-0.125
G2 X66.2435 Y154.6438 I0.0 J0.0044
G1 Y154.6439
G1 Y154.6669
G3 X66.1185 Y154.7919 I-0.125 J0.0
G1 X65.6234
G3 X65.4984 Y154.6669 I0.0 J-0.125
G1 Y154.0207
G3 X65.6182 Y153.8958 I0.125 J0.0
G2 X65.6224 Y153.8915 I-0.0002 J-0.0043
G3 Y153.8908 I0.125 J-0.0003
G2 X65.6179 Y153.8863 I-0.0045 J0.0
G3 X65.6175 I-0.0004 J-0.125
G1 X65.3791
G2 X65.3756 Y153.8868 I0.0008 J0.0191
G3 X65.347 Y153.8901 I-0.0285 J-0.1217
G1 X65.2144
G3 X65.2138 I0.0 J-0.125
G3 X65.0272 Y153.7026 I0.0008 J-0.1875
G1 Y152.8593
G3 X65.2145 Y152.6714 I0.187 J-0.0008
G1 X65.6023
G3 X65.6176 Y152.6697 I0.0212 J0.1232
G2 X65.6224 Y152.6648 I-0.0002 J-0.0049
G3 Y152.6645 I0.125 J0.0
G2 X65.6183 Y152.6602 I-0.0043 J0.0
G3 X65.4984 Y152.5353 I0.0051 J-0.1249
G1 Y150.8603
G3 X65.6234 Y150.7353 I0.125 J0.0
G1 X94.5998
G3 X94.7248 Y150.8603 I0.0 J0.125
G1 Y152.5353
G3 X94.6044 Y152.6602 I-0.125 J0.0
G2 X94.6005 Y152.6643 I0.0002 J0.0041
G3 Y152.665 I-0.125 J0.0005
G2 X94.605 Y152.6697 I0.0047 J0.0
G3 X94.621 Y152.6714 I-0.0051 J0.1249
G1 X95.0084
G3 X95.0088 I0.0 J0.125
G3 X95.1956 Y152.859 I-0.0005 J0.1873
G1 Y153.7023
G3 X95.0084 Y153.8901 I-0.1871 J0.0007
G1 X94.8758
G3 X94.8605 Y153.8892 I0.0 J-0.125
G1 X94.8375 Y153.8863
G1 X94.6053
G3 X94.605 I0.0 J-0.125
G2 X94.6005 Y153.8909 I0.0 J0.0045
G3 Y153.8911 I-0.125 J0.0003
G2 X94.6049 Y153.8958 I0.0047 J0.0
G3 X94.7248 Y154.0207 I-0.0051 J0.1249
G1 Y154.6669
G3 X94.5998 Y154.7919 I-0.125 J0.0
G1 X94.1043
G3 X93.9793 Y154.6669 I0.0 J-0.125
G1 Y154.6439
G3 Y154.6438 I0.125 J0.0
G2 X93.9749 Y154.6394 I-0.0044 J0.0
G2 X93.9706 Y154.6437 I0.0 J0.0042
G3 Y154.6439 I-0.125 J0.0003
G1 Y154.6669
G3 X93.9255 Y154.763 I-0.125 J0.0
G1 Y154.8294
G3 X93.9706 Y154.9255 I-0.0799 J0.0962
G1 Y154.9488
G3 Y154.9494 I-0.125 J0.0
G2 X93.9745 Y154.9533 I0.0039 J0.0
G3 X93.975 I0.0003 J0.125
G2 X93.9793 Y154.949 I0.0 J-0.0044
G3 Y154.9488 I0.125 J-0.0001
G1 Y154.9255
G3 X94.1043 Y154.8005 I0.125 J0.0
G1 X94.5998
G3 X94.7248 Y154.9255 I0.0 J0.125
G1 Y155.5665
G3 X94.6049 Y155.6914 I-0.125 J0.0
G2 X94.6005 Y155.6961 I0.0002 J0.0046
G3 Y155.6964 I-0.125 J0.0003
G2 X94.6048 Y155.701 I0.0045 J0.0
G3 X94.6206 Y155.7026 I-0.005 J0.1249
G1 X95.0084
G3 X95.0086 I0.0 J0.125
G3 X95.1956 Y155.8903 I-0.0003 J0.1873
G1 Y156.7337
G3 X95.0086 Y156.9214 I-0.1872 J0.0004
G3 X95.0084 I-0.0001 J-0.125
G1 X94.6201
G3 X94.6044 Y156.923 I-0.0203 J-0.1233
G2 X94.6005 Y156.9271 I0.0002 J0.0041
G3 Y156.9279 I-0.125 J0.0005
G2 X94.605 Y156.9326 I0.0047 J0.0
G3 X94.7248 Y157.0575 I-0.0051 J0.1249
G1 Y160.5366
G3 X94.6043 Y160.6616 I-0.125 J0.0
G2 X94.6005 Y160.6656 I0.0001 J0.004
G3 Y160.6666 I-0.125 J0.0005
G2 X94.6048 Y160.6711 I0.0045 J0.0
G3 X94.6206 Y160.6728 I-0.005 J0.1249
G1 X95.0084
G3 X95.0087 I0.0 J0.125
G3 X95.1956 Y160.8604 I-0.0004 J0.1873
G1 Y161.7038
G3 X95.0085 Y161.8915 I-0.1872 J0.0005
G1 X95.0084
G1 X94.8758
G3 X94.8604 Y161.8906 I0.0 J-0.125
G1 X94.8375 Y161.8877
G1 X94.6053
G3 X94.6049 I0.0 J-0.125
G2 X94.6005 Y161.8922 I0.0 J0.0045
G3 Y161.8926 I-0.125 J0.0004
G2 X94.6048 Y161.8971 I0.0046 J0.0
G3 X94.7248 Y162.022 I-0.005 J0.1249
G1 Y162.6683
G3 X94.5998 Y162.7933 I-0.125 J0.0
G1 X94.1043
G3 X93.9793 Y162.6683 I0.0 J-0.125
G1 Y162.6453
G1 Y162.6452
G2 X93.9749 Y162.6408 I-0.0044 J0.0
G1 X93.9748
G2 X93.9706 Y162.645 I0.0 J0.0042
G3 Y162.6453 I-0.125 J0.0003
G1 Y162.6683
G3 X93.9255 Y162.7644 I-0.125 J0.0
G1 Y162.8308
G3 X93.9706 Y162.9269 I-0.0799 J0.0962
G1 Y162.9502
G3 Y162.9508 I-0.125 J0.0
G2 X93.9745 Y162.9547 I0.0039 J0.0
G3 X93.975 I0.0003 J0.125
G2 X93.9793 Y162.9504 I0.0 J-0.0044
G3 Y162.9502 I0.125 J-0.0001
G1 Y162.9269
G3 X94.1043 Y162.8019 I0.125 J0.0
G1 X94.5998
G3 X94.7248 Y162.9269 I0.0 J0.125
G1 Y163.5679
G3 X94.605 Y163.6928 I-0.125 J0.0
G2 X94.6005 Y163.6975 I0.0002 J0.0047
G3 Y163.6977 I-0.125 J0.0003
G2 X94.605 Y163.7024 I0.0047 J0.0
G3 X94.6206 Y163.704 I-0.0051 J0.1249
G1 X95.0084
G3 X95.0087 I0.0 J0.125
G3 X95.1956 Y163.8917 I-0.0004 J0.1873
G1 Y164.735
G3 X95.0085 Y164.9228 I-0.1872 J0.0005
G1 X95.0084
G1 X94.6206
G3 X94.6044 Y164.9244 I-0.0208 J-0.1233
G2 X94.6005 Y164.9285 I0.0001 J0.0041
G3 Y164.9293 I-0.125 J0.0005
G2 X94.6049 Y164.934 I0.0047 J0.0
G3 X94.7248 Y165.0589 I-0.0051 J0.1249
G1 Y166.7339
G3 X94.5998 Y166.8589 I-0.125 J0.0
G1 X65.8746
( Profile3_handles_not_vcarved )
S1000
G0 Z0.5
G0 X62.4121 Y188.4983
G1 F10.0 Z-0.25
G1 F30.0 X62.6309
G3 X62.7559 Y188.6237 I0.0 J0.125
G2 X62.7608 Y188.6286 I0.0049 J0.0
G3 X62.7609 I-0.0001 J0.125
G2 X62.766 Y188.6235 I0.0 J-0.005
G3 X62.7673 Y188.6049 I0.125 J-0.0002
G1 Y188.3584
G3 X62.8923 Y188.2334 I0.125 J0.0
G1 X64.7665
G3 X65.266 Y188.7329 I0.001 J0.4984
G1 Y196.2326
G3 X64.7665 Y196.732 I-0.4987 J0.0007
G1 X62.8923
G3 X62.7673 Y196.607 I0.0 J-0.125
G1 Y196.3605
G3 X62.766 Y196.3421 I0.1236 J-0.0184
G2 X62.7607 Y196.3369 I-0.0052 J0.0
G3 X62.7605 I0.0 J-0.125
G2 X62.7559 Y196.3415 I0.0 J0.0046
G3 X62.6309 Y196.4671 I-0.125 J0.0006
G1 X62.4121
G3 X62.2871 Y196.3421 I0.0 J-0.125
G1 Y195.3733
G3 X62.4121 Y195.2483 I0.125 J0.0
G1 X62.6309
G3 X62.7559 Y195.3737 I0.0 J0.125
G2 X62.7608 Y195.3786 I0.0049 J0.0
G3 X62.7609 I-0.0001 J0.125
G2 X62.766 Y195.3735 I0.0 J-0.005
G3 X62.7674 Y195.3548 I0.125 J-0.0002
G1 X62.7677 Y195.1083
G3 X62.9317 Y194.9897 I0.125 J0.0002
G1 X63.9781
G3 X63.9784 I0.0 J0.125
G2 X64.2659 Y194.7021 I0.0006 J-0.2869
G3 Y194.7018 I0.125 J-0.0003
G1 Y190.2636
G3 Y190.2633 I0.125 J0.0
G2 X63.9784 Y189.9758 I-0.2868 J-0.0008
G3 X63.9781 I-0.0003 J-0.125
G1 X62.9313
G3 X62.7673 Y189.857 I-0.039 J-0.1188
G1 Y189.6105
G3 X62.766 Y189.5921 I0.1236 J-0.0184
G2 X62.7607 Y189.5869 I-0.0052 J0.0
G3 X62.7605 I0.0 J-0.125
G2 X62.7559 Y189.5915 I0.0 J0.0046
G3 X62.6309 Y189.7171 I-0.125 J0.0006
G1 X62.4121
G3 X62.2871 Y189.5921 I0.0 J-0.125
G1 Y188.6233
G3 X62.4121 Y188.4983 I0.125 J0.0
G1 F10.0 Z-0.5
G1 F30.0 X62.6309
G3 X62.7559 Y188.6237 I0.0 J0.125
G2 X62.7608 Y188.6286 I0.0049 J0.0
G3 X62.7609 I-0.0001 J0.125
G2 X62.766 Y188.6235 I0.0 J-0.005
G3 X62.7673 Y188.6049 I0.125 J-0.0002
G1 Y188.3584
G3 X62.8923 Y188.2334 I0.125 J0.0
G1 X64.7665
G3 X65.266 Y188.7329 I0.001 J0.4984
G1 Y196.2326
G3 X64.7665 Y196.732 I-0.4987 J0.0007
G1 X62.8923
G3 X62.7673 Y196.607 I0.0 J-0.125
G1 Y196.3605
G3 X62.766 Y196.3421 I0.1236 J-0.0184
G2 X62.7607 Y196.3369 I-0.0052 J0.0
G3 X62.7605 I0.0 J-0.125
G2 X62.7559 Y196.3415 I0.0 J0.0046
G3 X62.6309 Y196.4671 I-0.125 J0.0006
G1 X62.4121
G3 X62.2871 Y196.3421 I0.0 J-0.125
G1 Y195.3733
G3 X62.4121 Y195.2483 I0.125 J0.0
G1 X62.6309
G3 X62.7559 Y195.3737 I0.0 J0.125
G2 X62.7608 Y195.3786 I0.0049 J0.0
G3 X62.7609 I-0.0001 J0.125
G2 X62.766 Y195.3735 I0.0 J-0.005
G3 X62.7674 Y195.3548 I0.125 J-0.0002
G1 X62.7677 Y195.1083
G3 X62.9317 Y194.9897 I0.125 J0.0002
G1 X63.9781
G3 X63.9784 I0.0 J0.125
G2 X64.2659 Y194.7021 I0.0006 J-0.2869
G3 Y194.7018 I0.125 J-0.0003
G1 Y190.2636
G3 Y190.2633 I0.125 J0.0
G2 X63.9784 Y189.9758 I-0.2868 J-0.0008
G3 X63.9781 I-0.0003 J-0.125
G1 X62.9313
G3 X62.7673 Y189.857 I-0.039 J-0.1188
G1 Y189.6105
G3 X62.766 Y189.5921 I0.1236 J-0.0184
G2 X62.7607 Y189.5869 I-0.0052 J0.0
G3 X62.7605 I0.0 J-0.125
G2 X62.7559 Y189.5915 I0.0 J0.0046
G3 X62.6309 Y189.7171 I-0.125 J0.0006
G1 X62.4121
G3 X62.2871 Y189.5921 I0.0 J-0.125
G1 Y188.6233
G3 X62.4121 Y188.4983 I0.125 J0.0
G0 Z0.5
G0 Y187.8361
G1 F10.0 Z-0.25
G1 F30.0 X62.2575
G3 X61.7581 Y187.3367 I-0.001 J-0.4984
G1 Y179.8369
G3 X62.2575 Y179.3375 I0.4985 J-0.0009
G1 X64.1316
G3 X64.2566 Y179.4625 I0.0 J0.125
G1 Y179.7087
G3 X64.2581 Y179.7275 I-0.1236 J0.0188
G2 X64.2631 Y179.7327 I0.0051 J0.0
G2 X64.2681 Y179.7276 I-0.0001 J-0.0051
G3 X64.3931 Y179.6025 I0.125 J-0.0001
G1 X64.6119
G3 X64.7369 Y179.7275 I0.0 J0.125
G1 Y180.6962
G3 X64.6119 Y180.8212 I-0.125 J0.0
G1 X64.3931
G3 X64.2681 Y180.6959 I0.0 J-0.125
G2 X64.2632 Y180.691 I-0.0049 J0.0
G1 X64.2631
G2 X64.2581 Y180.6961 I0.0 J0.005
G3 X64.2566 Y180.7151 I-0.125 J0.0002
G1 X64.2563 Y180.9613
G3 X64.0924 Y181.0799 I-0.125 J-0.0002
G1 X63.0459
G3 X63.0456 I0.0 J-0.125
G2 X62.7581 Y181.3675 I-0.0006 J0.2869
G3 Y181.3678 I-0.125 J0.0003
G1 Y185.8059
G3 Y185.8062 I-0.125 J0.0
G2 X63.0456 Y186.0938 I0.2868 J0.0007
G3 X63.0459 I0.0003 J0.125
G1 X64.0926
G3 X64.2566 Y186.2125 I0.039 J0.1188
G1 Y186.4587
G3 X64.2581 Y186.4775 I-0.1236 J0.0188
G2 X64.2631 Y186.4827 I0.0051 J0.0
G2 X64.2681 Y186.4776 I-0.0001 J-0.0051
G3 X64.3931 Y186.3525 I0.125 J-0.0001
G1 X64.6119
G3 X64.7369 Y186.4775 I0.0 J0.125
G1 Y187.4462
G3 X64.6119 Y187.5712 I-0.125 J0.0
G1 X64.3931
G3 X64.2681 Y187.4459 I0.0 J-0.125
G2 X64.2632 Y187.441 I-0.0049 J0.0
G1 X64.2631
G2 X64.2581 Y187.4461 I0.0 J0.005
G3 X64.2566 Y187.465 I-0.125 J0.0002
G1 Y187.7111
G3 X64.1316 Y187.8361 I-0.125 J0.0
G1 X62.4121
G1 F10.0 Z-0.5
G1 F30.0 X62.2575
G3 X61.7581 Y187.3367 I-0.001 J-0.4984
G1 Y179.8369
G3 X62.2575 Y179.3375 I0.4985 J-0.0009
G1 X64.1316
G3 X64.2566 Y179.4625 I0.0 J0.125
G1 Y179.7087
G3 X64.2581 Y179.7275 I-0.1236 J0.0188
G2 X64.2631 Y179.7327 I0.0051 J0.0
G2 X64.2681 Y179.7276 I-0.0001 J-0.0051
G3 X64.3931 Y179.6025 I0.125 J-0.0001
G1 X64.6119
G3 X64.7369 Y179.7275 I0.0 J0.125
G1 Y180.6962
G3 X64.6119 Y180.8212 I-0.125 J0.0
G1 X64.3931
G3 X64.2681 Y180.6959 I0.0 J-0.125
G2 X64.2632 Y180.691 I-0.0049 J0.0
G1 X64.2631
G2 X64.2581 Y180.6961 I0.0 J0.005
G3 X64.2566 Y180.7151 I-0.125 J0.0002
G1 X64.2563 Y180.9613
G3 X64.0924 Y181.0799 I-0.125 J-0.0002
G1 X63.0459
G3 X63.0456 I0.0 J-0.125
G2 X62.7581 Y181.3675 I-0.0006 J0.2869
G3 Y181.3678 I-0.125 J0.0003
G1 Y185.8059
G3 Y185.8062 I-0.125 J0.0
G2 X63.0456 Y186.0938 I0.2868 J0.0007
G3 X63.0459 I0.0003 J0.125
G1 X64.0926
G3 X64.2566 Y186.2125 I0.039 J0.1188
G1 Y186.4587
G3 X64.2581 Y186.4775 I-0.1236 J0.0188
G2 X64.2631 Y186.4827 I0.0051 J0.0
G2 X64.2681 Y186.4776 I-0.0001 J-0.0051
G3 X64.3931 Y186.3525 I0.125 J-0.0001
G1 X64.6119
G3 X64.7369 Y186.4775 I0.0 J0.125
G1 Y187.4462
G3 X64.6119 Y187.5712 I-0.125 J0.0
G1 X64.3931
G3 X64.2681 Y187.4459 I0.0 J-0.125
G2 X64.2632 Y187.441 I-0.0049 J0.0
G1 X64.2631
G2 X64.2581 Y187.4461 I0.0 J0.005
G3 X64.2566 Y187.465 I-0.125 J0.0002
G1 Y187.7111
G3 X64.1316 Y187.8361 I-0.125 J0.0
G1 X62.4121
G0 Z0.5
G0 X62.7074 Y178.9559
G1 F10.0 Z-0.25
G3 F30.0 X62.5866 Y178.831 I0.0042 J-0.1249
G1 Y178.5844
G3 X62.5852 Y178.5659 I0.1237 J-0.0183
G2 X62.5801 Y178.5608 I-0.0051 J0.0
G2 X62.5751 Y178.5658 I0.0 J0.005
G3 X62.4501 Y178.6911 I-0.125 J0.0002
G1 X62.2314
G3 X62.1064 Y178.5661 I0.0 J-0.125
G1 Y177.5973
G3 X62.2314 Y177.4723 I0.125 J0.0
G1 X62.4501
G3 X62.5751 Y177.598 I0.0 J0.125
G2 X62.5796 Y177.6025 I0.0045 J0.0
G3 X62.58 I0.0004 J0.125
G2 X62.5852 Y177.5973 I0.0 J-0.0052
G3 X62.5866 Y177.5788 I0.125 J0.0
G1 X62.5869 Y177.3322
G3 X62.7509 Y177.2136 I0.125 J0.0002
G1 X63.7973
G3 X63.7976 I0.0 J0.125
G2 X64.0852 Y176.9261 I0.0007 J-0.2868
G3 Y176.9258 I0.125 J-0.0003
G1 Y172.4876
G3 Y172.4873 I0.125 J0.0
G2 X63.7976 Y172.1997 I-0.2868 J-0.0007
G3 X63.7973 I-0.0003 J-0.125
G1 X62.7505
G3 X62.5866 Y172.081 I-0.039 J-0.1188
G1 Y171.8344
G3 X62.5852 Y171.8159 I0.1237 J-0.0183
G2 X62.5801 Y171.8108 I-0.0051 J0.0
G2 X62.5751 Y171.8158 I0.0 J0.005
G3 X62.4501 Y171.9411 I-0.125 J0.0002
G1 X62.2314
G3 X62.1064 Y171.8161 I0.0 J-0.125
G1 Y170.8473
G3 X62.2314 Y170.7223 I0.125 J0.0
G1 X62.4501
G3 X62.5751 Y170.848 I0.0 J0.125
G2 X62.5796 Y170.8525 I0.0045 J0.0
G3 X62.58 I0.0004 J0.125
G2 X62.5852 Y170.8473 I0.0 J-0.0052
G3 X62.5866 Y170.829 I0.125 J0.0
G1 Y170.5824
G3 X62.7116 Y170.4574 I0.125 J0.0
G1 X64.5858
G3 X65.0852 Y170.9568 I0.0008 J0.4986
G1 Y178.4565
G3 X64.5858 Y178.956 I-0.4984 J0.001
G1 X62.7116
G3 X62.7074 Y178.9559 I0.0 J-0.125
G1 F10.0 Z-0.5
G3 F30.0 X62.5866 Y178.831 I0.0042 J-0.1249
G1 Y178.5844
G3 X62.5852 Y178.5659 I0.1237 J-0.0183
G2 X62.5801 Y178.5608 I-0.0051 J0.0
G2 X62.5751 Y178.5658 I0.0 J0.005
G3 X62.4501 Y178.6911 I-0.125 J0.0002
G1 X62.2314
G3 X62.1064 Y178.5661 I0.0 J-0.125
G1 Y177.5973
G3 X62.2314 Y177.4723 I0.125 J0.0
G1 X62.4501
G3 X62.5751 Y177.598 I0.0 J0.125
G2 X62.5796 Y177.6025 I0.0045 J0.0
G3 X62.58 I0.0004 J0.125
G2 X62.5852 Y177.5973 I0.0 J-0.0052
G3 X62.5866 Y177.5788 I0.125 J0.0
G1 X62.5869 Y177.3322
G3 X62.7509 Y177.2136 I0.125 J0.0002
G1 X63.7973
G3 X63.7976 I0.0 J0.125
G2 X64.0852 Y176.9261 I0.0007 J-0.2868
G3 Y176.9258 I0.125 J-0.0003
G1 Y172.4876
G3 Y172.4873 I0.125 J0.0
G2 X63.7976 Y172.1997 I-0.2868 J-0.0007
G3 X63.7973 I-0.0003 J-0.125
G1 X62.7505
G3 X62.5866 Y172.081 I-0.039 J-0.1188
G1 Y171.8344
G3 X62.5852 Y171.8159 I0.1237 J-0.0183
G2 X62.5801 Y171.8108 I-0.0051 J0.0
G2 X62.5751 Y171.8158 I0.0 J0.005
G3 X62.4501 Y171.9411 I-0.125 J0.0002
G1 X62.2314
G3 X62.1064 Y171.8161 I0.0 J-0.125
G1 Y170.8473
G3 X62.2314 Y170.7223 I0.125 J0.0
G1 X62.4501
G3 X62.5751 Y170.848 I0.0 J0.125
G2 X62.5796 Y170.8525 I0.0045 J0.0
G3 X62.58 I0.0004 J0.125
G2 X62.5852 Y170.8473 I0.0 J-0.0052
G3 X62.5866 Y170.829 I0.125 J0.0
G1 Y170.5824
G3 X62.7116 Y170.4574 I0.125 J0.0
G1 X64.5858
G3 X65.0852 Y170.9568 I0.0008 J0.4986
G1 Y178.4565
G3 X64.5858 Y178.956 I-0.4984 J0.001
G1 X62.7116
G3 X62.7074 Y178.9559 I0.0 J-0.125
G0 Z0.5
G0 X62.9068 Y170.2202
G1 F10.0 Z-0.25
G3 F30.0 X62.7847 Y170.0952 I0.0029 J-0.125
G1 Y169.8764
G3 X62.9105 Y169.7514 I0.125 J0.0
G2 X62.9149 Y169.747 I0.0 J-0.0044
G3 Y169.7465 I0.125 J-0.0004
G2 X62.9098 Y169.7414 I-0.0051 J0.0
G3 X62.8911 Y169.74 I-0.0001 J-0.125
G1 X62.6448
G3 X62.5198 Y169.615 I0.0 J-0.125
G1 Y167.7408
G3 X63.0192 Y167.2414 I0.4986 J-0.0009
G1 X70.519
G3 X71.0184 Y167.7408 I0.0008 J0.4986
G1 Y169.615
G3 X70.8934 Y169.74 I-0.125 J0.0
G1 X70.6471
G3 X70.6284 Y169.7414 I-0.0186 J-0.1236
G2 X70.6232 Y169.7465 I0.0 J0.0051
G3 Y169.7469 I-0.125 J0.0001
G2 X70.6278 Y169.7514 I0.0045 J0.0
G3 X70.7534 Y169.8764 I0.0006 J0.125
G1 Y170.0952
G3 X70.6284 Y170.2202 I-0.125 J0.0
G1 X69.6597
G3 X69.5347 Y170.0952 I0.0 J-0.125
G1 Y169.8764
G3 X69.6605 Y169.7514 I0.125 J0.0
G2 X69.6649 Y169.747 I0.0 J-0.0044
G3 Y169.7465 I0.125 J-0.0004
G2 X69.6598 Y169.7414 I-0.0051 J0.0
G3 X69.6409 Y169.74 I-0.0001 J-0.125
G1 X69.3946 Y169.7397
G3 X69.276 Y169.5756 I0.0002 J-0.125
G1 Y168.5293
G3 Y168.529 I0.125 J0.0
G2 X68.9884 Y168.2414 I-0.2869 J-0.0007
G3 X68.9881 I-0.0003 J-0.125
G1 X64.55
G3 X64.5497 I0.0 J-0.125
G2 X64.2621 Y168.529 I-0.0007 J0.2869
G3 Y168.5293 I-0.125 J0.0003
G1 Y169.576
G3 X64.1434 Y169.74 I-0.1188 J0.039
G1 X63.8971
G3 X63.8784 Y169.7414 I-0.0186 J-0.1236
G2 X63.8732 Y169.7465 I0.0 J0.0051
G3 Y169.7469 I-0.125 J0.0001
G2 X63.8778 Y169.7514 I0.0045 J0.0
G3 X64.0034 Y169.8764 I0.0006 J0.125
G1 Y170.0952
G3 X63.8784 Y170.2202 I-0.125 J0.0
G1 X62.9097
G3 X62.9068 I0.0 J-0.125
G1 F10.0 Z-0.5
