( Made using CamBam - http://www.cambam.co.uk )
( CNCWorkstation1_0_Sheet2 12/26/2012 2:41:13 PM )
( T0 : 0.25 )
( CUTVIEWER )
( FROM/0,0,5 )
( Select dummy tool to avoid warnings )
( TOOL/MILL,1,0,20.0,0 )
( STOCK/BLOCK,96.0,48.0,0.5,0.0,-100.5,0.5 )
G20 G90 G91.1 G64 G40
G0 Z0.5
( T0 : 0.25 )
( Tool Taper coming soon )
( TOOL/MILL,0.25,0.0,0.0,0 )
T0 M6
( Profile1_plywood_calibrate )
G17
M3 S1000
G0 X-0.1 Y148.4026
G1 F10.0 Z-0.15
G1 F30.0 Y100.4046
G3 X0.025 Y100.2796 I0.125 J0.0
G1 X96.023
G3 X96.148 Y100.4046 I0.0 J0.125
G1 Y148.4026
G3 X96.023 Y148.5276 I-0.125 J0.0
G1 X0.025
G3 X-0.1 Y148.4026 I0.0 J-0.125
G1 F10.0 Z-0.3
G1 F30.0 Y100.4046
G3 X0.025 Y100.2796 I0.125 J0.0
G1 X96.023
G3 X96.148 Y100.4046 I0.0 J0.125
G1 Y148.4026
G3 X96.023 Y148.5276 I-0.125 J0.0
G1 X0.025
G3 X-0.1 Y148.4026 I0.0 J-0.125
G1 F10.0 Z-0.45
G1 F30.0 Y100.4046
G3 X0.025 Y100.2796 I0.125 J0.0
G1 X96.023
G3 X96.148 Y100.4046 I0.0 J0.125
G1 Y148.4026
G3 X96.023 Y148.5276 I-0.125 J0.0
G1 X0.025
G3 X-0.1 Y148.4026 I0.0 J-0.125
G1 F10.0 Z-0.5
G1 F30.0 Y100.4046
G3 X0.025 Y100.2796 I0.125 J0.0
G1 X96.023
G3 X96.148 Y100.4046 I0.0 J0.125
G1 Y148.4026
G3 X96.023 Y148.5276 I-0.125 J0.0
G1 X0.025
G3 X-0.1 Y148.4026 I0.0 J-0.125
( Profile2_Panels )
S1000
G0 Z0.5
G0 X3.589 Y136.8605
G1 F10.0 Z0.0
G1 F30.0 Y136.423 Z-0.0011
G3 X3.5871 Y136.4061 Z-0.0012 I0.1229 J-0.0226
G2 X3.5826 Y136.4018 I-0.0045 J0.0002
G3 X3.5817 I-0.0005 J-0.125
G2 X3.5775 Y136.4059 I0.0 J0.0042
G3 X3.4526 Y136.5254 Z-0.0017 I-0.1249 J-0.0055
G1 X1.5033 Z-0.0066
G3 X1.3783 Y136.4004 Z-0.0071 I0.0 J-0.125
G1 Y134.7886 Z-0.0112
G3 X1.4973 Y134.6637 Z-0.0117 I0.125 J0.0
G2 X1.5019 Y134.6589 I-0.0002 J-0.0049
G3 Y134.6586 I0.125 J-0.0001
G2 X1.4976 Y134.6541 I-0.0045 J0.0
G3 X1.4825 Y134.6525 Z-0.0118 I0.0057 J-0.1249
G1 X1.0432 Z-0.0129
G3 X0.9182 Y134.5275 Z-0.0134 I0.0 J-0.125
G1 Y133.5588 Z-0.0158
G3 X1.0432 Y133.4338 Z-0.0163 I0.125 J0.0
G1 X1.4821 Z-0.0174
G3 X1.4978 Y133.4321 Z-0.0175 I0.0212 J0.1232
G2 X1.5019 Y133.4277 I-0.0002 J-0.0043
G3 Y133.4271 I0.125 J-0.0003
G2 X1.4976 Y133.4225 I-0.0046 J0.0
G3 X1.3783 Y133.2977 Z-0.018 I0.0057 J-0.1249
G1 Y131.7518 Z-0.0219
G3 X1.4978 Y131.6269 Z-0.0224 I0.125 J0.0
G2 X1.5019 Y131.6226 I-0.0002 J-0.0043
G3 Y131.6219 I0.125 J-0.0003
G2 X1.4974 Y131.6174 Z-0.0225 I-0.0045 J0.0
G3 X1.497 I-0.0004 J-0.125
G1 X1.2579 Z-0.0231
G3 X1.2176 Y131.6209 Z-0.0232 I-0.0307 J-0.1212
G1 X1.0432 Z-0.0236
G3 X0.9182 Y131.4959 Z-0.0241 I0.0 J-0.125
G1 Y130.5275 Z-0.0266
G3 X1.0432 Y130.4025 Z-0.0271 I0.125 J0.0
G1 X1.4825 Z-0.0282
G3 X1.4972 Y130.4009 I0.0208 J0.1233
G2 X1.5019 Y130.396 I-0.0002 J-0.0049
G3 Y130.3958 I0.125 J-0.0001
G2 X1.4976 Y130.3913 I-0.0045 J0.0
G3 X1.3783 Y130.2664 Z-0.0287 I0.0056 J-0.1249
G1 Y126.2862 Z-0.0388
G3 X1.4972 Y126.1613 Z-0.0393 I0.125 J0.0
G2 X1.5019 Y126.1564 I-0.0002 J-0.0049
G3 Y126.1562 I0.125 J-0.0001
G2 X1.4977 Y126.1517 Z-0.0394 I-0.0044 J0.0
G3 X1.4824 Y126.1501 I0.0056 J-0.1249
G1 X1.0432 Z-0.0405
G3 X0.9182 Y126.0251 Z-0.041 I0.0 J-0.125
G1 Y125.0563 Z-0.0435
G3 X1.0432 Y124.9313 Z-0.044 I0.125 J0.0
G1 X1.4826 Z-0.0451
G3 X1.4978 Y124.9297 I0.0207 J0.1233
G2 X1.5019 Y124.9254 I-0.0002 J-0.0043
G3 Y124.9246 I0.125 J-0.0003
G2 X1.4976 Y124.9201 I-0.0045 J0.0
G3 X1.3783 Y124.7952 Z-0.0456 I0.0056 J-0.1249
G1 Y123.2494 Z-0.0496
G3 X1.4978 Y123.1245 Z-0.05 I0.125 J0.0
G2 X1.5019 Y123.1202 Z-0.0501 I-0.0002 J-0.0043
G3 Y123.1195 I0.125 J-0.0003
G2 X1.4973 Y123.115 I-0.0046 J0.0
G3 X1.497 I-0.0003 J-0.125
G1 X1.258 Z-0.0507
G3 X1.2182 Y123.1185 Z-0.0508 I-0.0308 J-0.1211
G1 X1.0432 Z-0.0512
G3 X0.9182 Y122.9935 Z-0.0517 I0.0 J-0.125
G1 Y122.0251 Z-0.0542
G3 X1.0432 Y121.9001 Z-0.0547 I0.125 J0.0
G1 X1.4826 Z-0.0558
G3 X1.4973 Y121.8985 I0.0207 J0.1233
G2 X1.5019 Y121.8937 Z-0.0559 I-0.0002 J-0.0048
G3 Y121.8932 I0.125 J-0.0001
G2 X1.4977 Y121.8888 I-0.0043 J0.0
G3 X1.3783 Y121.764 Z-0.0564 I0.0055 J-0.1249
G1 Y120.1518 Z-0.0604
G3 X1.5033 Y120.0268 Z-0.0609 I0.125 J0.0
G1 X3.4526 Z-0.0659
G3 X3.5775 Y120.1467 Z-0.0664 I0.0 J0.125
G2 X3.5817 Y120.1508 I0.0042 J-0.0002
G3 X3.5825 I0.0004 J0.125
G2 X3.5871 Y120.1464 I0.0 J-0.0046
G3 X3.5887 Y120.1311 Z-0.0665 I0.1249 J0.0054
G1 Y119.9018 Z-0.067
G3 X3.7137 Y119.7768 Z-0.0675 I0.125 J0.0
G1 X4.679 Z-0.07
G3 X4.8036 Y119.9118 Z-0.0705 I0.0 J0.125
G1 Y120.1459 Z-0.0711
G3 Y120.1463 I-0.125 J0.0
G2 X4.8081 Y120.1508 I0.0045 J0.0
G3 X4.8086 I0.0004 J0.125
G2 X4.8131 Y120.1465 I0.0 J-0.0044
G3 X4.938 Y120.0268 Z-0.0716 I0.1249 J0.0053
G1 X6.4838 Z-0.0755
G3 X6.6087 Y120.1461 Z-0.076 I0.0 J0.125
G2 X6.6136 Y120.1508 I0.0049 J-0.0002
G3 X6.6138 I0.0002 J0.125
G2 X6.6183 Y120.1464 Z-0.0761 I0.0 J-0.0046
G3 X6.62 Y120.1311 I0.1249 J0.0054
G1 Y119.9018 Z-0.0767
G3 X6.745 Y119.7768 Z-0.0772 I0.125 J0.0
G1 X7.7137 Z-0.0796
G3 X7.8387 Y119.9018 Z-0.0801 I0.0 J0.125
G1 Y120.1311 Z-0.0807
G3 X7.8403 Y120.1468 Z-0.0808 I-0.1233 J0.0208
G2 X7.8445 Y120.1508 I0.0042 J-0.0002
G3 X7.8454 I0.0004 J0.125
G2 X7.8499 Y120.1464 I0.0 J-0.0046
G3 X7.9748 Y120.0268 Z-0.0813 I0.1249 J0.0054
G1 X13.179 Z-0.0945
G3 X13.3039 Y120.1468 Z-0.095 I0.0 J0.125
G2 X13.3081 Y120.1508 I0.0042 J-0.0002
G3 X13.3089 I0.0004 J0.125
G2 X13.3135 Y120.1465 I0.0 J-0.0045
G3 X13.3151 Y120.1309 I0.1249 J0.0054
G1 Y119.9018 Z-0.0956
G3 X13.4401 Y119.7768 Z-0.0961 I0.125 J0.0
G1 X14.4054 Z-0.0986
G3 X14.53 Y119.9117 Z-0.0991 I0.0 J0.125
G1 Y120.1459 Z-0.0997
G3 Y120.1463 I-0.125 J0.0
G2 X14.5345 Y120.1508 I0.0045 J0.0
G3 X14.5352 I0.0004 J0.125
G2 X14.5395 Y120.1466 I0.0 J-0.0043
G3 X14.6644 Y120.0268 Z-0.1002 I0.1249 J0.0052
G1 X16.2102 Z-0.1041
G3 X16.3351 Y120.1461 Z-0.1046 I0.0 J0.125
G2 X16.34 Y120.1508 I0.0049 J-0.0002
G3 X16.3402 I0.0001 J0.125
G2 X16.3447 Y120.1465 Z-0.1047 I0.0 J-0.0045
G3 X16.3464 Y120.1309 I0.1249 J0.0054
G1 Y119.9018 Z-0.1053
G3 X16.4714 Y119.7768 Z-0.1058 I0.125 J0.0
G1 X17.4401 Z-0.1082
G3 X17.5651 Y119.9018 Z-0.1087 I0.0 J0.125
G1 Y120.1311 Z-0.1093
G3 X17.5667 Y120.1467 Z-0.1094 I-0.1233 J0.0207
G2 X17.571 Y120.1508 I0.0042 J-0.0002
G3 X17.5718 I0.0004 J0.125
G2 X17.5763 Y120.1464 I0.0 J-0.0046
G3 X17.7012 Y120.0268 Z-0.1099 I0.1249 J0.0054
G1 X22.9054 Z-0.1231
G3 X23.0303 Y120.1467 Z-0.1236 I0.0 J0.125
G2 X23.0345 Y120.1508 I0.0042 J-0.0002
G3 X23.0353 I0.0004 J0.125
G2 X23.0399 Y120.1464 I0.0 J-0.0046
G3 X23.0415 Y120.1311 I0.1249 J0.0054
G1 Y119.9018 Z-0.1242
G3 X23.1665 Y119.7768 Z-0.1247 I0.125 J0.0
G1 X24.1318 Z-0.1272
G3 X24.2564 Y119.9115 Z-0.1277 I0.0 J0.125
G1 Y120.1459 Z-0.1283
G3 Y120.1464 I-0.125 J0.0
G2 X24.2608 Y120.1508 I0.0044 J0.0
G3 X24.2615 I0.0004 J0.125
G2 X24.2659 Y120.1466 I0.0 J-0.0044
G3 X24.3908 Y120.0268 Z-0.1288 I0.1249 J0.0053
G1 X25.9366 Z-0.1327
G3 X26.0615 Y120.1461 Z-0.1332 I0.0 J0.125
G2 X26.0664 Y120.1508 I0.0049 J-0.0002
G3 X26.0666 I0.0001 J0.125
G2 X26.0711 Y120.1464 Z-0.1333 I0.0 J-0.0046
G3 X26.0727 Y120.1311 I0.1249 J0.0054
G1 Y119.9018 Z-0.1339
G3 X26.1977 Y119.7768 Z-0.1344 I0.125 J0.0
G1 X27.1665 Z-0.1368
G3 X27.2915 Y119.9018 Z-0.1373 I0.0 J0.125
G1 Y120.1311 Z-0.1379
G3 X27.2931 Y120.1467 Z-0.138 I-0.1233 J0.0208
G2 X27.2974 Y120.1508 I0.0042 J-0.0002
G3 X27.2982 I0.0004 J0.125
G2 X27.3027 Y120.1464 I0.0 J-0.0046
G3 X27.4276 Y120.0268 Z-0.1385 I0.1249 J0.0054
G1 X29.3769 Z-0.1434
G3 X29.5019 Y120.1518 Z-0.1439 I0.0 J0.125
G1 Y121.764 Z-0.148
G3 X29.3827 Y121.8888 Z-0.1485 I-0.125 J0.0
G2 X29.3783 Y121.8934 I0.0002 J0.0046
G3 Y121.894 I-0.125 J0.0001
G2 X29.3825 Y121.8985 I0.0044 J0.0
G3 X29.3976 Y121.9001 Z-0.1486 I-0.0056 J0.1249
G1 X29.837 Z-0.1497
G3 X29.962 Y122.0251 Z-0.1502 I0.0 J0.125
G1 Y122.9935 Z-0.1526
G3 X29.837 Y123.1185 Z-0.1531 I-0.125 J0.0
G1 X29.662 Z-0.1536
G3 X29.6369 Y123.1178 I-0.009 J-0.1247
G1 X29.6151 Y123.115 Z-0.1537
G1 X29.3831 Z-0.1543
G3 X29.3829 I0.0 J-0.125
G2 X29.3783 Y123.1196 I0.0 J0.0046
G3 Y123.1202 I-0.125 J0.0003
G2 X29.3825 Y123.1245 I0.0043 J0.0
G3 X29.5019 Y123.2494 Z-0.1548 I-0.0056 J0.1249
G1 Y124.7952 Z-0.1587
G3 X29.3826 Y124.9201 Z-0.1592 I-0.125 J0.0
G2 X29.3783 Y124.9246 I0.0002 J0.0045
G3 Y124.9253 I-0.125 J0.0005
G2 X29.3825 Y124.9297 Z-0.1593 I0.0044 J0.0
G3 X29.3976 Y124.9313 I-0.0056 J0.1249
G1 X29.837 Z-0.1604
G3 X29.962 Y125.0563 Z-0.1609 I0.0 J0.125
G1 Y126.0251 Z-0.1634
G3 X29.837 Y126.1501 Z-0.1639 I-0.125 J0.0
G1 X29.3977 Z-0.165
G3 X29.3826 Y126.1517 I-0.0208 J-0.1233
G2 X29.3783 Y126.1562 I0.0002 J0.0044
G3 Y126.1569 I-0.125 J0.0002
G2 X29.3825 Y126.1613 I0.0044 J0.0
G3 X29.5019 Y126.2862 Z-0.1655 I-0.0056 J0.1249
G1 Y130.2664 Z-0.1756
G3 X29.3825 Y130.3913 Z-0.1761 I-0.125 J0.0
G2 X29.3783 Y130.3957 I0.0002 J0.0044
G3 Y130.3965 I-0.125 J0.0002
G2 X29.3825 Y130.4009 Z-0.1762 I0.0044 J0.0
G3 X29.3977 Y130.4025 I-0.0056 J0.1249
G1 X29.837 Z-0.1773
G3 X29.962 Y130.5275 Z-0.1778 I0.0 J0.125
G1 Y131.4959 Z-0.1803
G3 X29.837 Y131.6209 Z-0.1808 I-0.125 J0.0
G1 X29.6625 Z-0.1812
G3 X29.637 Y131.6202 Z-0.1813 I-0.0096 J-0.1246
G1 X29.6151 Y131.6174
G1 X29.3831 Z-0.1819
G3 X29.3829 I0.0 J-0.125
G2 X29.3783 Y131.622 I0.0 J0.0046
G3 Y131.6226 I-0.125 J0.0003
G2 X29.3825 Y131.6269 I0.0044 J0.0
G3 X29.5019 Y131.7518 Z-0.1824 I-0.0056 J0.1249
G1 Y133.2977 Z-0.1864
G3 X29.383 Y133.4225 Z-0.1868 I-0.125 J0.0
G2 X29.3783 Y133.4275 Z-0.1869 I0.0002 J0.0049
G3 Y133.4279 I-0.125 J0.0
G2 X29.3823 Y133.4321 I0.0042 J0.0
G3 X29.3981 Y133.4338 I-0.0054 J0.1249
G1 X29.837 Z-0.188
G3 X29.962 Y133.5588 Z-0.1885 I0.0 J0.125
G1 Y134.5275 Z-0.191
G3 X29.837 Y134.6525 Z-0.1915 I-0.125 J0.0
G1 X29.3977 Z-0.1926
G3 X29.3826 Y134.6541 I-0.0208 J-0.1233
G2 X29.3783 Y134.6586 Z-0.1927 I0.0002 J0.0045
G3 Y134.6593 I-0.125 J0.0002
G2 X29.3825 Y134.6637 I0.0043 J0.0
G3 X29.5019 Y134.7886 Z-0.1932 I-0.0056 J0.1249
G1 Y136.4004 Z-0.1972
G3 X29.3769 Y136.5254 Z-0.1977 I-0.125 J0.0
G1 X27.4276 Z-0.2027
G3 X27.3027 Y136.4061 Z-0.2032 I0.0 J-0.125
G2 X27.2983 Y136.4018 I-0.0045 J0.0002
G3 X27.2974 I-0.0005 J-0.125
G2 X27.2931 Y136.4059 I0.0 J0.0043
G3 X27.2915 Y136.4212 I-0.1249 J-0.0055
G1 Y136.8605 Z-0.2044
G3 X27.1665 Y136.9855 Z-0.2049 I-0.125 J0.0
G1 X26.1977 Z-0.2073
G3 X26.0727 Y136.8605 Z-0.2078 I0.0 J-0.125
G1 Y136.4212 Z-0.2089
G3 X26.0711 Y136.406 Z-0.209 I0.1233 J-0.0208
G2 X26.0667 Y136.4018 I-0.0044 J0.0002
G3 X26.0664 I-0.0002 J-0.125
G2 X26.0615 Y136.4065 I0.0 J0.0049
G3 X25.9366 Y136.5254 Z-0.2095 I-0.1249 J-0.006
G1 X24.3908 Z-0.2134
G3 X24.2659 Y136.4061 Z-0.2139 I0.0 J-0.125
G2 X24.2614 Y136.4018 I-0.0045 J0.0002
G3 X24.2608 I-0.0002 J-0.125
G2 X24.2564 Y136.4062 I0.0 J0.0043
G3 Y136.4066 I-0.125 J0.0005
G1 Y136.6457 Z-0.2145
G3 X24.2599 Y136.6896 Z-0.2147 I-0.1253 J0.0322
G1 Y136.8605 Z-0.2151
G3 X24.1349 Y136.9855 Z-0.2156 I-0.125 J0.0
G1 X23.1665 Z-0.218
G3 X23.0415 Y136.8605 Z-0.2185 I0.0 J-0.125
G1 Y136.4212 Z-0.2197
G3 X23.0399 Y136.4066 I0.1233 J-0.0208
G2 X23.0349 Y136.4018 I-0.005 J0.0002
G3 X23.0346 I0.0 J-0.125
G2 X23.0303 Y136.406 I0.0 J0.0043
G3 X22.9054 Y136.5254 Z-0.2202 I-0.1249 J-0.0055
G1 X17.7012 Z-0.2334
G3 X17.5764 Y136.4066 Z-0.2339 I0.0 J-0.125
G2 X17.5714 Y136.4018 I-0.005 J0.0002
G3 X17.571 I0.0 J-0.125
G2 X17.5668 Y136.4059 I0.0 J0.0042
G3 X17.5655 Y136.4192 Z-0.234 I-0.1249 J-0.0055
G1 Y136.8605 Z-0.2351
G3 X17.4405 Y136.9855 Z-0.2356 I-0.125 J0.0
G1 X16.4717 Z-0.238
G3 X16.3467 Y136.8605 Z-0.2385 I0.0 J-0.125
G1 Y136.423 Z-0.2397
G3 X16.3448 Y136.4061 I0.1229 J-0.0226
G2 X16.3403 Y136.4018 I-0.0045 J0.0002
G3 X16.3395 I-0.0002 J-0.125
G2 X16.3352 Y136.4059 I0.0 J0.0043
G3 X16.2103 Y136.5254 Z-0.2402 I-0.1249 J-0.0055
G1 X14.6644 Z-0.2441
G3 X14.5396 Y136.406 Z-0.2446 I0.0 J-0.125
G2 X14.5351 Y136.4018 I-0.0044 J0.0002
G3 X14.5344 I-0.0002 J-0.125
G2 X14.53 Y136.4062 Z-0.2447 I0.0 J0.0043
G3 Y136.4066 I-0.125 J0.0005
G1 Y136.6463 Z-0.2453
G3 X14.5339 Y136.6772 Z-0.2454 I-0.1211 J0.0308
G1 Y136.8605 Z-0.2458
G3 X14.4089 Y136.9855 Z-0.2463 I-0.125 J0.0
G1 X13.4405 Z-0.2488
G3 X13.3155 Y136.8605 Z-0.2493 I0.0 J-0.125
G1 Y136.4231 Z-0.2504
G3 X13.3136 Y136.4066 I0.1229 J-0.0226
G2 X13.3086 Y136.4018 I-0.005 J0.0002
G3 X13.3081 I0.0 J-0.125
G2 X13.3039 Y136.4058 Z-0.2505 I0.0 J0.0042
G3 X13.179 Y136.5254 Z-0.2509 I-0.1249 J-0.0054
G1 X7.9748 Z-0.2641
G3 X7.8499 Y136.406 Z-0.2646 I0.0 J-0.125
G2 X7.8456 Y136.4018 I-0.0044 J0.0002
G3 X7.8446 Z-0.2647 I-0.0006 J-0.125
G2 X7.8404 Y136.4058 I0.0 J0.0042
G3 X7.8391 Y136.4193 I-0.1249 J-0.0054
G1 Y136.8605 Z-0.2658
G3 X7.7141 Y136.9855 Z-0.2663 I-0.125 J0.0
G1 X6.7453 Z-0.2688
G3 X6.6203 Y136.8605 Z-0.2693 I0.0 J-0.125
G1 Y136.423 Z-0.2704
G3 X6.6184 Y136.4061 I0.1229 J-0.0226
G2 X6.6139 Y136.4018 I-0.0044 J0.0002
G3 X6.6131 I-0.0002 J-0.125
G2 X6.6088 Y136.4059 Z-0.2705 I0.0 J0.0043
G3 X6.4839 Y136.5254 Z-0.2709 I-0.1249 J-0.0055
G1 X4.938 Z-0.2749
G3 X4.8132 Y136.406 Z-0.2754 I0.0 J-0.125
G2 X4.8087 Y136.4018 I-0.0044 J0.0002
G3 X4.808 I-0.0002 J-0.125
G2 X4.8037 Y136.4061 I0.0 J0.0043
G3 Y136.4066 I-0.125 J0.0005
G1 Y136.6466 Z-0.276
G1 Y136.6467
G3 X4.8075 Y136.6775 Z-0.2761 I-0.1212 J0.0308
G1 Y136.8605 Z-0.2765
G3 X4.6825 Y136.9855 Z-0.277 I-0.125 J0.0
G1 X3.714 Z-0.2795
G3 X3.589 Y136.8605 Z-0.28 I0.0 J-0.125
G1 Y136.423 Z-0.2811
G3 X3.5871 Y136.4061 I0.1229 J-0.0226
G2 X3.5826 Y136.4018 I-0.0045 J0.0002
G3 X3.5817 I-0.0005 J-0.125
G2 X3.5775 Y136.4059 I0.0 J0.0042
G3 X3.4526 Y136.5254 Z-0.2816 I-0.1249 J-0.0055
G1 X1.5033 Z-0.2864
G3 X1.3783 Y136.4004 Z-0.2869 I0.0 J-0.125
G1 Y135.875 Z-0.2881
G1 Y135.375 Z-0.2894
G1 Y134.7886 Z-0.2908
G3 X1.4973 Y134.6637 Z-0.2913 I0.125 J0.0
G2 X1.5019 Y134.6589 I-0.0002 J-0.0049
G3 Y134.6586 I0.125 J-0.0001
G2 X1.4976 Y134.6541 I-0.0045 J0.0
G3 X1.4825 Y134.6525 I0.0057 J-0.1249
G1 X1.0432 Z-0.2924
G3 X0.9182 Y134.5275 Z-0.2929 I0.0 J-0.125
G1 Y133.5588 Z-0.2953
G3 X1.0432 Y133.4338 Z-0.2958 I0.125 J0.0
G1 X1.4821 Z-0.2968
G3 X1.4978 Y133.4321 Z-0.2969 I0.0212 J0.1232
G2 X1.5019 Y133.4277 I-0.0002 J-0.0043
G3 Y133.4271 I0.125 J-0.0003
G2 X1.4976 Y133.4225 I-0.0046 J0.0
G3 X1.3783 Y133.2977 Z-0.2974 I0.0057 J-0.1249
G1 Y131.7518 Z-0.3011
G3 X1.4978 Y131.6269 Z-0.3016 I0.125 J0.0
G2 X1.5019 Y131.6226 I-0.0002 J-0.0043
G3 Y131.6219 I0.125 J-0.0003
G2 X1.4974 Y131.6174 Z-0.3017 I-0.0045 J0.0
G3 X1.497 I-0.0004 J-0.125
G1 X1.2579 Z-0.3022
G3 X1.2176 Y131.6209 Z-0.3023 I-0.0307 J-0.1212
G1 X1.0432 Z-0.3028
G3 X0.9182 Y131.4959 Z-0.3032 I0.0 J-0.125
G1 Y130.5275 Z-0.3056
G3 X1.0432 Y130.4025 Z-0.3061 I0.125 J0.0
G1 X1.4825 Z-0.3072
G3 X1.4972 Y130.4009 I0.0208 J0.1233
G2 X1.5019 Y130.396 I-0.0002 J-0.0049
G3 Y130.3958 I0.125 J-0.0001
G2 X1.4976 Y130.3913 I-0.0045 J0.0
G3 X1.3783 Y130.2664 Z-0.3077 I0.0056 J-0.1249
G1 Y126.2862 Z-0.3174
G3 X1.4972 Y126.1613 Z-0.3179 I0.125 J0.0
G2 X1.5019 Y126.1564 I-0.0002 J-0.0049
G3 Y126.1562 I0.125 J-0.0001
G2 X1.4977 Y126.1517 I-0.0044 J0.0
G3 X1.4824 Y126.1501 Z-0.318 I0.0056 J-0.1249
G1 X1.0432 Z-0.3191
G3 X0.9182 Y126.0251 Z-0.3195 I0.0 J-0.125
G1 Y125.0563 Z-0.3219
G3 X1.0432 Y124.9313 Z-0.3224 I0.125 J0.0
G1 X1.4826 Z-0.3235
G3 X1.4978 Y124.9297 I0.0207 J0.1233
G2 X1.5019 Y124.9254 I-0.0002 J-0.0043
G3 Y124.9246 I0.125 J-0.0003
G2 X1.4976 Y124.9201 I-0.0045 J0.0
G3 X1.3783 Y124.7952 Z-0.324 I0.0056 J-0.1249
G1 Y123.2494 Z-0.3278
G3 X1.4978 Y123.1245 Z-0.3283 I0.125 J0.0
G2 X1.5019 Y123.1202 I-0.0002 J-0.0043
G3 Y123.1195 I0.125 J-0.0003
G2 X1.4973 Y123.115 I-0.0046 J0.0
G3 X1.497 I-0.0003 J-0.125
G1 X1.258 Z-0.3289
G3 X1.2182 Y123.1185 Z-0.329 I-0.0308 J-0.1211
G1 X1.0432 Z-0.3294
G3 X0.9182 Y122.9935 Z-0.3299 I0.0 J-0.125
G1 Y122.0251 Z-0.3323
G3 X1.0432 Y121.9001 Z-0.3327 I0.125 J0.0
G1 X1.4826 Z-0.3338
G3 X1.4973 Y121.8985 I0.0207 J0.1233
G2 X1.5019 Y121.8937 Z-0.3339 I-0.0002 J-0.0048
G3 Y121.8932 I0.125 J-0.0001
G2 X1.4977 Y121.8888 I-0.0043 J0.0
G3 X1.3783 Y121.764 Z-0.3343 I0.0055 J-0.1249
G1 Y121.3125 Z-0.3354
G0 Z-0.3
G1 Y120.8125
G1 F10.0 Z-0.3367
G1 F30.0 Y120.1518 Z-0.3383
G3 X1.5033 Y120.0268 Z-0.3388 I0.125 J0.0
G1 X3.4526 Z-0.3435
G3 X3.5775 Y120.1467 Z-0.344 I0.0 J0.125
G2 X3.5817 Y120.1508 I0.0042 J-0.0002
G3 X3.5825 I0.0004 J0.125
G2 X3.5871 Y120.1464 I0.0 J-0.0046
G3 X3.5887 Y120.1311 Z-0.3441 I0.1249 J0.0054
G1 Y119.9018 Z-0.3446
G3 X3.7137 Y119.7768 Z-0.3451 I0.125 J0.0
G1 X4.679 Z-0.3475
G3 X4.8036 Y119.9118 Z-0.348 I0.0 J0.125
G1 Y120.1459 Z-0.3486
G3 Y120.1463 I-0.125 J0.0
G2 X4.8081 Y120.1508 I0.0045 J0.0
G3 X4.8086 I0.0004 J0.125
G2 X4.8131 Y120.1465 I0.0 J-0.0044
G3 X4.938 Y120.0268 Z-0.3491 I0.1249 J0.0053
G1 X6.4838 Z-0.3528
G3 X6.6087 Y120.1461 Z-0.3533 I0.0 J0.125
G2 X6.6136 Y120.1508 I0.0049 J-0.0002
G3 X6.6138 I0.0002 J0.125
G2 X6.6183 Y120.1464 I0.0 J-0.0046
G3 X6.62 Y120.1311 Z-0.3534 I0.1249 J0.0054
G1 Y119.9018 Z-0.3539
G3 X6.745 Y119.7768 Z-0.3544 I0.125 J0.0
G1 X7.7137 Z-0.3568
G3 X7.8387 Y119.9018 Z-0.3573 I0.0 J0.125
G1 Y120.1311 Z-0.3578
G3 X7.8403 Y120.1468 Z-0.3579 I-0.1233 J0.0208
G2 X7.8445 Y120.1508 I0.0042 J-0.0002
G3 X7.8454 I0.0004 J0.125
G2 X7.8499 Y120.1464 I0.0 J-0.0046
G3 X7.9748 Y120.0268 Z-0.3584 I0.1249 J0.0054
G1 X10.125 Z-0.3636
G0 Z-0.3
G1 X10.625
G1 F10.0 Z-0.3649
G1 F30.0 X13.179 Z-0.3711
G3 X13.3039 Y120.1468 Z-0.3716 I0.0 J0.125
G2 X13.3081 Y120.1508 I0.0042 J-0.0002
G3 X13.3089 I0.0004 J0.125
G2 X13.3135 Y120.1465 I0.0 J-0.0045
G3 X13.3151 Y120.1309 Z-0.3717 I0.1249 J0.0054
G1 Y119.9018 Z-0.3722
G3 X13.4401 Y119.7768 Z-0.3727 I0.125 J0.0
G1 X14.4054 Z-0.3751
G3 X14.53 Y119.9117 Z-0.3756 I0.0 J0.125
G1 Y120.1459 Z-0.3761
G3 Y120.1463 I-0.125 J0.0
G2 X14.5345 Y120.1508 Z-0.3762 I0.0045 J0.0
G3 X14.5352 I0.0004 J0.125
G2 X14.5395 Y120.1466 I0.0 J-0.0043
G3 X14.6644 Y120.0268 Z-0.3766 I0.1249 J0.0052
G1 X16.2102 Z-0.3804
G3 X16.3351 Y120.1461 Z-0.3809 I0.0 J0.125
G2 X16.34 Y120.1508 I0.0049 J-0.0002
G3 X16.3402 I0.0001 J0.125
G2 X16.3447 Y120.1465 I0.0 J-0.0045
G3 X16.3464 Y120.1309 Z-0.381 I0.1249 J0.0054
G1 Y119.9018 Z-0.3815
G3 X16.4714 Y119.7768 Z-0.382 I0.125 J0.0
G1 X17.4401 Z-0.3844
G3 X17.5651 Y119.9018 Z-0.3849 I0.0 J0.125
G1 Y120.1311 Z-0.3854
G3 X17.5667 Y120.1467 Z-0.3855 I-0.1233 J0.0207
G2 X17.571 Y120.1508 I0.0042 J-0.0002
G3 X17.5718 I0.0004 J0.125
G2 X17.5763 Y120.1464 I0.0 J-0.0046
G3 X17.7012 Y120.0268 Z-0.386 I0.1249 J0.0054
G1 X20.1875 Z-0.392
G0 Z-0.3
G1 X20.6875
G1 F10.0 Z-0.3933
G1 F30.0 X22.9054 Z-0.3987
G3 X23.0303 Y120.1467 Z-0.3992 I0.0 J0.125
G2 X23.0345 Y120.1508 I0.0042 J-0.0002
G3 X23.0353 I0.0004 J0.125
G2 X23.0399 Y120.1464 I0.0 J-0.0046
G3 X23.0415 Y120.1311 I0.1249 J0.0054
G1 Y119.9018 Z-0.3998
G3 X23.1665 Y119.7768 Z-0.4003 I0.125 J0.0
G1 X24.1318 Z-0.4026
G3 X24.2564 Y119.9115 Z-0.4031 I0.0 J0.125
G1 Y120.1459 Z-0.4037
G3 Y120.1464 I-0.125 J0.0
G2 X24.2608 Y120.1508 I0.0044 J0.0
G3 X24.2615 I0.0004 J0.125
G2 X24.2659 Y120.1466 I0.0 J-0.0044
G3 X24.3908 Y120.0268 Z-0.4042 I0.1249 J0.0053
G1 X25.9366 Z-0.408
G3 X26.0615 Y120.1461 Z-0.4085 I0.0 J0.125
G2 X26.0664 Y120.1508 I0.0049 J-0.0002
G3 X26.0666 I0.0001 J0.125
G2 X26.0711 Y120.1464 I0.0 J-0.0046
G3 X26.0727 Y120.1311 I0.1249 J0.0054
G1 Y119.9018 Z-0.4091
G3 X26.1977 Y119.7768 Z-0.4096 I0.125 J0.0
G1 X27.1665 Z-0.4119
G3 X27.2915 Y119.9018 Z-0.4124 I0.0 J0.125
G1 Y120.1311 Z-0.413
G3 X27.2931 Y120.1467 I-0.1233 J0.0208
G2 X27.2974 Y120.1508 I0.0042 J-0.0002
G3 X27.2982 I0.0004 J0.125
G2 X27.3027 Y120.1464 Z-0.4131 I0.0 J-0.0046
G3 X27.4276 Y120.0268 Z-0.4135 I0.1249 J0.0054
G1 X29.3769 Z-0.4183
G3 X29.5019 Y120.1518 Z-0.4188 I0.0 J0.125
G1 Y121.764 Z-0.4227
G3 X29.3827 Y121.8888 Z-0.4232 I-0.125 J0.0
G2 X29.3783 Y121.8934 I0.0002 J0.0046
G3 Y121.894 I-0.125 J0.0001
G2 X29.3825 Y121.8985 I0.0044 J0.0
G3 X29.3976 Y121.9001 Z-0.4233 I-0.0056 J0.1249
G1 X29.837 Z-0.4243
G3 X29.962 Y122.0251 Z-0.4248 I0.0 J0.125
G1 Y122.9935 Z-0.4272
G3 X29.837 Y123.1185 Z-0.4277 I-0.125 J0.0
G1 X29.662 Z-0.4281
G3 X29.6369 Y123.1178 Z-0.4282 I-0.009 J-0.1247
G1 X29.6151 Y123.115
G1 X29.3831 Z-0.4288
G3 X29.3829 I0.0 J-0.125
G2 X29.3783 Y123.1196 I0.0 J0.0046
G3 Y123.1202 I-0.125 J0.0003
G2 X29.3825 Y123.1245 I0.0043 J0.0
G3 X29.5019 Y123.2494 Z-0.4293 I-0.0056 J0.1249
G1 Y124.0108 Z-0.4311
G0 Z-0.3
G1 Y124.5108
G1 F10.0 Z-0.4324
G1 F30.0 Y124.7952 Z-0.4331
G3 X29.3826 Y124.9201 Z-0.4335 I-0.125 J0.0
G2 X29.3783 Y124.9246 I0.0002 J0.0045
G3 Y124.9253 I-0.125 J0.0005
G2 X29.3825 Y124.9297 Z-0.4336 I0.0044 J0.0
G3 X29.3976 Y124.9313 I-0.0056 J0.1249
G1 X29.837 Z-0.4347
G3 X29.962 Y125.0563 Z-0.4352 I0.0 J0.125
G1 Y126.0251 Z-0.4375
G3 X29.837 Y126.1501 Z-0.438 I-0.125 J0.0
G1 X29.3977 Z-0.4391
G3 X29.3826 Y126.1517 I-0.0208 J-0.1233
G2 X29.3783 Y126.1562 I0.0002 J0.0044
G3 Y126.1569 I-0.125 J0.0002
G2 X29.3825 Y126.1613 Z-0.4392 I0.0044 J0.0
G3 X29.5019 Y126.2862 Z-0.4396 I-0.0056 J0.1249
G1 Y130.2664 Z-0.4494
G3 X29.3825 Y130.3913 Z-0.4498 I-0.125 J0.0
G2 X29.3783 Y130.3957 I0.0002 J0.0044
G3 Y130.3965 I-0.125 J0.0002
G2 X29.3825 Y130.4009 Z-0.4499 I0.0044 J0.0
G3 X29.3977 Y130.4025 I-0.0056 J0.1249
G1 X29.837 Z-0.451
G3 X29.962 Y130.5275 Z-0.4515 I0.0 J0.125
G1 Y131.4959 Z-0.4538
G3 X29.837 Y131.6209 Z-0.4543 I-0.125 J0.0
G1 X29.6625 Z-0.4547
G3 X29.637 Y131.6202 Z-0.4548 I-0.0096 J-0.1246
G1 X29.6151 Y131.6174
G1 X29.3831 Z-0.4554
G3 X29.3829 I0.0 J-0.125
G2 X29.3783 Y131.622 I0.0 J0.0046
G3 Y131.6226 I-0.125 J0.0003
G2 X29.3825 Y131.6269 Z-0.4555 I0.0044 J0.0
G3 X29.5019 Y131.7518 Z-0.4559 I-0.0056 J0.1249
G1 Y133.2977 Z-0.4597
G3 X29.383 Y133.4225 Z-0.4602 I-0.125 J0.0
G2 X29.3783 Y133.4275 I0.0002 J0.0049
G3 Y133.4279 I-0.125 J0.0
G2 X29.3823 Y133.4321 I0.0042 J0.0
G3 X29.3981 Y133.4338 I-0.0054 J0.1249
G1 X29.837 Z-0.4613
G3 X29.962 Y133.5588 Z-0.4618 I0.0 J0.125
G1 Y134.5275 Z-0.4642
G3 X29.837 Y134.6525 Z-0.4646 I-0.125 J0.0
G1 X29.3977 Z-0.4657
G3 X29.3826 Y134.6541 Z-0.4658 I-0.0208 J-0.1233
G2 X29.3783 Y134.6586 I0.0002 J0.0045
G3 Y134.6593 I-0.125 J0.0002
G2 X29.3825 Y134.6637 I0.0043 J0.0
G3 X29.5019 Y134.7886 Z-0.4663 I-0.0056 J0.1249
G1 Y135.3125 Z-0.4675
G0 Z-0.3
G1 Y135.8125
G1 F10.0 Z-0.4688
G1 F30.0 Y136.4004 Z-0.4702
G3 X29.3769 Y136.5254 Z-0.4707 I-0.125 J0.0
G1 X27.4276 Z-0.4755
G3 X27.3027 Y136.4061 Z-0.4759 I0.0 J-0.125
G2 X27.2983 Y136.4018 I-0.0045 J0.0002
G3 X27.2974 I-0.0005 J-0.125
G2 X27.2931 Y136.4059 Z-0.476 I0.0 J0.0043
G3 X27.2915 Y136.4212 I-0.1249 J-0.0055
G1 Y136.8605 Z-0.4771
G3 X27.1665 Y136.9855 Z-0.4775 I-0.125 J0.0
G1 X26.1977 Z-0.4799
G3 X26.0727 Y136.8605 Z-0.4804 I0.0 J-0.125
G1 Y136.4212 Z-0.4815
G3 X26.0711 Y136.406 I0.1233 J-0.0208
G2 X26.0667 Y136.4018 I-0.0044 J0.0002
G3 X26.0664 I-0.0002 J-0.125
G2 X26.0615 Y136.4065 I0.0 J0.0049
G3 X25.9366 Y136.5254 Z-0.482 I-0.1249 J-0.006
G1 X24.3908 Z-0.4858
G3 X24.2659 Y136.4061 Z-0.4863 I0.0 J-0.125
G2 X24.2614 Y136.4018 I-0.0045 J0.0002
G3 X24.2608 I-0.0002 J-0.125
G2 X24.2564 Y136.4062 I0.0 J0.0043
G3 Y136.4066 I-0.125 J0.0005
G1 Y136.6457 Z-0.4869
G3 X24.2599 Y136.6896 Z-0.487 I-0.1253 J0.0322
G1 Y136.8605 Z-0.4874
G3 X24.1349 Y136.9855 Z-0.4879 I-0.125 J0.0
G1 X23.1665 Z-0.4903
G3 X23.0415 Y136.8605 Z-0.4907 I0.0 J-0.125
G1 Y136.4212 Z-0.4918
G3 X23.0399 Y136.4066 I0.1233 J-0.0208
G2 X23.0349 Y136.4018 Z-0.4919 I-0.005 J0.0002
G3 X23.0346 I0.0 J-0.125
G2 X23.0303 Y136.406 I0.0 J0.0043
G3 X22.9054 Y136.5254 Z-0.4923 I-0.1249 J-0.0055
G1 X20.3338 Z-0.4986
G0 Z-0.3
G1 X19.8338
G1 F10.0 Z-0.4999
G1 F30.0 X17.7012 Z-0.5051
G3 X17.5764 Y136.4066 Z-0.5055 I0.0 J-0.125
G2 X17.5714 Y136.4018 Z-0.5056 I-0.005 J0.0002
G3 X17.571 I0.0 J-0.125
G2 X17.5668 Y136.4059 I0.0 J0.0042
G3 X17.5655 Y136.4192 I-0.1249 J-0.0055
G1 Y136.8605 Z-0.5067
G3 X17.4405 Y136.9855 Z-0.5072 I-0.125 J0.0
G1 X16.4717 Z-0.5095
G3 X16.3467 Y136.8605 Z-0.51 I0.0 J-0.125
G1 Y136.423 Z-0.5111
G3 X16.3448 Y136.4061 I0.1229 J-0.0226
G2 X16.3403 Y136.4018 Z-0.5112 I-0.0045 J0.0002
G3 X16.3395 I-0.0002 J-0.125
G2 X16.3352 Y136.4059 I0.0 J0.0043
G3 X16.2103 Y136.5254 Z-0.5116 I-0.1249 J-0.0055
G1 X14.6644 Z-0.5154
G3 X14.5396 Y136.406 Z-0.5159 I0.0 J-0.125
G2 X14.5351 Y136.4018 I-0.0044 J0.0002
G3 X14.5344 I-0.0002 J-0.125
G2 X14.53 Y136.4062 I0.0 J0.0043
G3 Y136.4066 I-0.125 J0.0005
G1 Y136.6463 Z-0.5165
G3 X14.5339 Y136.6772 Z-0.5166 I-0.1211 J0.0308
G1 Y136.8605 Z-0.517
G3 X14.4089 Y136.9855 Z-0.5175 I-0.125 J0.0
G1 X13.4405 Z-0.5199
G3 X13.3155 Y136.8605 Z-0.5204 I0.0 J-0.125
G1 Y136.4231 Z-0.5214
G3 X13.3136 Y136.4066 Z-0.5215 I0.1229 J-0.0226
G2 X13.3086 Y136.4018 I-0.005 J0.0002
G3 X13.3081 I0.0 J-0.125
G2 X13.3039 Y136.4058 I0.0 J0.0042
G3 X13.179 Y136.5254 Z-0.522 I-0.1249 J-0.0054
G1 X10.25 Z-0.5291
G0 Z-0.3
G1 X9.75
G1 F10.0 Z-0.5304
G1 F30.0 X7.9748 Z-0.5347
G3 X7.8499 Y136.406 Z-0.5352 I0.0 J-0.125
G2 X7.8456 Y136.4018 I-0.0044 J0.0002
G3 X7.8446 I-0.0006 J-0.125
G2 X7.8404 Y136.4058 I0.0 J0.0042
G3 X7.8391 Y136.4193 I-0.1249 J-0.0054
G1 Y136.8605 Z-0.5363
G3 X7.7141 Y136.9855 Z-0.5368 I-0.125 J0.0
G1 X6.7453 Z-0.5392
G3 X6.6203 Y136.8605 Z-0.5397 I0.0 J-0.125
G1 Y136.423 Z-0.5407
G3 X6.6184 Y136.4061 Z-0.5408 I0.1229 J-0.0226
G2 X6.6139 Y136.4018 I-0.0044 J0.0002
G3 X6.6131 I-0.0002 J-0.125
G2 X6.6088 Y136.4059 I0.0 J0.0043
G3 X6.4839 Y136.5254 Z-0.5413 I-0.1249 J-0.0055
G1 X4.938 Z-0.5451
G3 X4.8132 Y136.406 Z-0.5455 I0.0 J-0.125
G2 X4.8087 Y136.4018 I-0.0044 J0.0002
G3 X4.808 I-0.0002 J-0.125
G2 X4.8037 Y136.4061 Z-0.5456 I0.0 J0.0043
G3 Y136.4066 I-0.125 J0.0005
G1 Y136.6466 Z-0.5461
G1 Y136.6467
G3 X4.8075 Y136.6775 Z-0.5462 I-0.1212 J0.0308
G1 Y136.8605 Z-0.5467
G3 X4.6825 Y136.9855 Z-0.5471 I-0.125 J0.0
G1 X3.714 Z-0.5495
G3 X3.589 Y136.8605 Z-0.55 I0.0 J-0.125
G1 Y136.423
G3 X3.5871 Y136.4061 I0.1229 J-0.0226
G2 X3.5826 Y136.4018 I-0.0045 J0.0002
G3 X3.5817 I-0.0005 J-0.125
G2 X3.5775 Y136.4059 I0.0 J0.0042
G3 X3.4526 Y136.5254 I-0.1249 J-0.0055
G1 X1.5033
G3 X1.3783 Y136.4004 I0.0 J-0.125
G1 Y135.875
G0 Z-0.3
G1 Y135.375
G1 F10.0 Z-0.55
G1 F30.0 Y134.7886
G3 X1.4973 Y134.6637 I0.125 J0.0
G2 X1.5019 Y134.6589 I-0.0002 J-0.0049
G3 Y134.6586 I0.125 J-0.0001
G2 X1.4976 Y134.6541 I-0.0045 J0.0
G3 X1.4825 Y134.6525 I0.0057 J-0.1249
G1 X1.0432
G3 X0.9182 Y134.5275 I0.0 J-0.125
G1 Y133.5588
G3 X1.0432 Y133.4338 I0.125 J0.0
G1 X1.4821
G3 X1.4978 Y133.4321 I0.0212 J0.1232
G2 X1.5019 Y133.4277 I-0.0002 J-0.0043
G3 Y133.4271 I0.125 J-0.0003
G2 X1.4976 Y133.4225 I-0.0046 J0.0
G3 X1.3783 Y133.2977 I0.0057 J-0.1249
G1 Y131.7518
G3 X1.4978 Y131.6269 I0.125 J0.0
G2 X1.5019 Y131.6226 I-0.0002 J-0.0043
G3 Y131.6219 I0.125 J-0.0003
G2 X1.4974 Y131.6174 I-0.0045 J0.0
G3 X1.497 I-0.0004 J-0.125
G1 X1.2579
G3 X1.2176 Y131.6209 I-0.0307 J-0.1212
G1 X1.0432
G3 X0.9182 Y131.4959 I0.0 J-0.125
G1 Y130.5275
G3 X1.0432 Y130.4025 I0.125 J0.0
G1 X1.4825
G3 X1.4972 Y130.4009 I0.0208 J0.1233
G2 X1.5019 Y130.396 I-0.0002 J-0.0049
G3 Y130.3958 I0.125 J-0.0001
G2 X1.4976 Y130.3913 I-0.0045 J0.0
G3 X1.3783 Y130.2664 I0.0056 J-0.1249
G1 Y126.2862
G3 X1.4972 Y126.1613 I0.125 J0.0
G2 X1.5019 Y126.1564 I-0.0002 J-0.0049
G3 Y126.1562 I0.125 J-0.0001
G2 X1.4977 Y126.1517 I-0.0044 J0.0
G3 X1.4824 Y126.1501 I0.0056 J-0.1249
G1 X1.0432
G3 X0.9182 Y126.0251 I0.0 J-0.125
G1 Y125.0563
G3 X1.0432 Y124.9313 I0.125 J0.0
G1 X1.4826
G3 X1.4978 Y124.9297 I0.0207 J0.1233
G2 X1.5019 Y124.9254 I-0.0002 J-0.0043
G3 Y124.9246 I0.125 J-0.0003
G2 X1.4976 Y124.9201 I-0.0045 J0.0
G3 X1.3783 Y124.7952 I0.0056 J-0.1249
G1 Y123.2494
G3 X1.4978 Y123.1245 I0.125 J0.0
G2 X1.5019 Y123.1202 I-0.0002 J-0.0043
G3 Y123.1195 I0.125 J-0.0003
G2 X1.4973 Y123.115 I-0.0046 J0.0
G3 X1.497 I-0.0003 J-0.125
G1 X1.258
G3 X1.2182 Y123.1185 I-0.0308 J-0.1211
G1 X1.0432
G3 X0.9182 Y122.9935 I0.0 J-0.125
G1 Y122.0251
G3 X1.0432 Y121.9001 I0.125 J0.0
G1 X1.4826
G3 X1.4973 Y121.8985 I0.0207 J0.1233
G2 X1.5019 Y121.8937 I-0.0002 J-0.0048
G3 Y121.8932 I0.125 J-0.0001
G2 X1.4977 Y121.8888 I-0.0043 J0.0
G3 X1.3783 Y121.764 I0.0055 J-0.1249
G1 Y121.3125
G0 Z-0.3
G1 Y120.8125
G1 F10.0 Z-0.55
G1 F30.0 Y120.1518
G3 X1.5033 Y120.0268 I0.125 J0.0
G1 X3.4526
G3 X3.5775 Y120.1467 I0.0 J0.125
G2 X3.5817 Y120.1508 I0.0042 J-0.0002
G3 X3.5825 I0.0004 J0.125
G2 X3.5871 Y120.1464 I0.0 J-0.0046
G3 X3.5887 Y120.1311 I0.1249 J0.0054
G1 Y119.9018
G3 X3.7137 Y119.7768 I0.125 J0.0
G1 X4.679
G3 X4.8036 Y119.9118 I0.0 J0.125
G1 Y120.1459
G3 Y120.1463 I-0.125 J0.0
G2 X4.8081 Y120.1508 I0.0045 J0.0
G3 X4.8086 I0.0004 J0.125
G2 X4.8131 Y120.1465 I0.0 J-0.0044
G3 X4.938 Y120.0268 I0.1249 J0.0053
G1 X6.4838
G3 X6.6087 Y120.1461 I0.0 J0.125
G2 X6.6136 Y120.1508 I0.0049 J-0.0002
G3 X6.6138 I0.0002 J0.125
G2 X6.6183 Y120.1464 I0.0 J-0.0046
G3 X6.62 Y120.1311 I0.1249 J0.0054
G1 Y119.9018
G3 X6.745 Y119.7768 I0.125 J0.0
G1 X7.7137
G3 X7.8387 Y119.9018 I0.0 J0.125
G1 Y120.1311
G3 X7.8403 Y120.1468 I-0.1233 J0.0208
G2 X7.8445 Y120.1508 I0.0042 J-0.0002
G3 X7.8454 I0.0004 J0.125
G2 X7.8499 Y120.1464 I0.0 J-0.0046
G3 X7.9748 Y120.0268 I0.1249 J0.0054
G1 X10.125
G0 Z-0.3
G1 X10.625
G1 F10.0 Z-0.55
G1 F30.0 X13.179
G3 X13.3039 Y120.1468 I0.0 J0.125
G2 X13.3081 Y120.1508 I0.0042 J-0.0002
G3 X13.3089 I0.0004 J0.125
G2 X13.3135 Y120.1465 I0.0 J-0.0045
G3 X13.3151 Y120.1309 I0.1249 J0.0054
G1 Y119.9018
G3 X13.4401 Y119.7768 I0.125 J0.0
G1 X14.4054
G3 X14.53 Y119.9117 I0.0 J0.125
G1 Y120.1459
G3 Y120.1463 I-0.125 J0.0
G2 X14.5345 Y120.1508 I0.0045 J0.0
G3 X14.5352 I0.0004 J0.125
G2 X14.5395 Y120.1466 I0.0 J-0.0043
G3 X14.6644 Y120.0268 I0.1249 J0.0052
G1 X16.2102
G3 X16.3351 Y120.1461 I0.0 J0.125
G2 X16.34 Y120.1508 I0.0049 J-0.0002
G3 X16.3402 I0.0001 J0.125
G2 X16.3447 Y120.1465 I0.0 J-0.0045
G3 X16.3464 Y120.1309 I0.1249 J0.0054
G1 Y119.9018
G3 X16.4714 Y119.7768 I0.125 J0.0
G1 X17.4401
G3 X17.5651 Y119.9018 I0.0 J0.125
G1 Y120.1311
G3 X17.5667 Y120.1467 I-0.1233 J0.0207
G2 X17.571 Y120.1508 I0.0042 J-0.0002
G3 X17.5718 I0.0004 J0.125
G2 X17.5763 Y120.1464 I0.0 J-0.0046
G3 X17.7012 Y120.0268 I0.1249 J0.0054
G1 X20.1875
G0 Z-0.3
G1 X20.6875
G1 F10.0 Z-0.55
G1 F30.0 X22.9054
G3 X23.0303 Y120.1467 I0.0 J0.125
G2 X23.0345 Y120.1508 I0.0042 J-0.0002
G3 X23.0353 I0.0004 J0.125
G2 X23.0399 Y120.1464 I0.0 J-0.0046
G3 X23.0415 Y120.1311 I0.1249 J0.0054
G1 Y119.9018
G3 X23.1665 Y119.7768 I0.125 J0.0
G1 X24.1318
G3 X24.2564 Y119.9115 I0.0 J0.125
G1 Y120.1459
G3 Y120.1464 I-0.125 J0.0
G2 X24.2608 Y120.1508 I0.0044 J0.0
G3 X24.2615 I0.0004 J0.125
G2 X24.2659 Y120.1466 I0.0 J-0.0044
G3 X24.3908 Y120.0268 I0.1249 J0.0053
G1 X25.9366
G3 X26.0615 Y120.1461 I0.0 J0.125
G2 X26.0664 Y120.1508 I0.0049 J-0.0002
G3 X26.0666 I0.0001 J0.125
G2 X26.0711 Y120.1464 I0.0 J-0.0046
G3 X26.0727 Y120.1311 I0.1249 J0.0054
G1 Y119.9018
G3 X26.1977 Y119.7768 I0.125 J0.0
G1 X27.1665
G3 X27.2915 Y119.9018 I0.0 J0.125
G1 Y120.1311
G3 X27.2931 Y120.1467 I-0.1233 J0.0208
G2 X27.2974 Y120.1508 I0.0042 J-0.0002
G3 X27.2982 I0.0004 J0.125
G2 X27.3027 Y120.1464 I0.0 J-0.0046
G3 X27.4276 Y120.0268 I0.1249 J0.0054
G1 X29.3769
G3 X29.5019 Y120.1518 I0.0 J0.125
G1 Y121.764
G3 X29.3827 Y121.8888 I-0.125 J0.0
G2 X29.3783 Y121.8934 I0.0002 J0.0046
G3 Y121.894 I-0.125 J0.0001
G2 X29.3825 Y121.8985 I0.0044 J0.0
G3 X29.3976 Y121.9001 I-0.0056 J0.1249
G1 X29.837
G3 X29.962 Y122.0251 I0.0 J0.125
G1 Y122.9935
G3 X29.837 Y123.1185 I-0.125 J0.0
G1 X29.662
G3 X29.6369 Y123.1178 I-0.009 J-0.1247
G1 X29.6151 Y123.115
G1 X29.3831
G3 X29.3829 I0.0 J-0.125
G2 X29.3783 Y123.1196 I0.0 J0.0046
G3 Y123.1202 I-0.125 J0.0003
G2 X29.3825 Y123.1245 I0.0043 J0.0
G3 X29.5019 Y123.2494 I-0.0056 J0.1249
G1 Y124.0108
G0 Z-0.3
G1 Y124.5108
G1 F10.0 Z-0.55
G1 F30.0 Y124.7952
G3 X29.3826 Y124.9201 I-0.125 J0.0
G2 X29.3783 Y124.9246 I0.0002 J0.0045
G3 Y124.9253 I-0.125 J0.0005
G2 X29.3825 Y124.9297 I0.0044 J0.0
G3 X29.3976 Y124.9313 I-0.0056 J0.1249
G1 X29.837
G3 X29.962 Y125.0563 I0.0 J0.125
G1 Y126.0251
G3 X29.837 Y126.1501 I-0.125 J0.0
G1 X29.3977
G3 X29.3826 Y126.1517 I-0.0208 J-0.1233
G2 X29.3783 Y126.1562 I0.0002 J0.0044
G3 Y126.1569 I-0.125 J0.0002
G2 X29.3825 Y126.1613 I0.0044 J0.0
G3 X29.5019 Y126.2862 I-0.0056 J0.1249
G1 Y130.2664
G3 X29.3825 Y130.3913 I-0.125 J0.0
G2 X29.3783 Y130.3957 I0.0002 J0.0044
G3 Y130.3965 I-0.125 J0.0002
G2 X29.3825 Y130.4009 I0.0044 J0.0
G3 X29.3977 Y130.4025 I-0.0056 J0.1249
G1 X29.837
G3 X29.962 Y130.5275 I0.0 J0.125
G1 Y131.4959
G3 X29.837 Y131.6209 I-0.125 J0.0
G1 X29.6625
G3 X29.637 Y131.6202 I-0.0096 J-0.1246
G1 X29.6151 Y131.6174
G1 X29.3831
G3 X29.3829 I0.0 J-0.125
G2 X29.3783 Y131.622 I0.0 J0.0046
G3 Y131.6226 I-0.125 J0.0003
G2 X29.3825 Y131.6269 I0.0044 J0.0
G3 X29.5019 Y131.7518 I-0.0056 J0.1249
G1 Y133.2977
G3 X29.383 Y133.4225 I-0.125 J0.0
G2 X29.3783 Y133.4275 I0.0002 J0.0049
G3 Y133.4279 I-0.125 J0.0
G2 X29.3823 Y133.4321 I0.0042 J0.0
G3 X29.3981 Y133.4338 I-0.0054 J0.1249
G1 X29.837
G3 X29.962 Y133.5588 I0.0 J0.125
G1 Y134.5275
G3 X29.837 Y134.6525 I-0.125 J0.0
G1 X29.3977
G3 X29.3826 Y134.6541 I-0.0208 J-0.1233
G2 X29.3783 Y134.6586 I0.0002 J0.0045
G3 Y134.6593 I-0.125 J0.0002
G2 X29.3825 Y134.6637 I0.0043 J0.0
G3 X29.5019 Y134.7886 I-0.0056 J0.1249
G1 Y135.3125
G0 Z-0.3
G1 Y135.8125
G1 F10.0 Z-0.55
G1 F30.0 Y136.4004
G3 X29.3769 Y136.5254 I-0.125 J0.0
G1 X27.4276
G3 X27.3027 Y136.4061 I0.0 J-0.125
G2 X27.2983 Y136.4018 I-0.0045 J0.0002
G3 X27.2974 I-0.0005 J-0.125
G2 X27.2931 Y136.4059 I0.0 J0.0043
G3 X27.2915 Y136.4212 I-0.1249 J-0.0055
G1 Y136.8605
G3 X27.1665 Y136.9855 I-0.125 J0.0
G1 X26.1977
G3 X26.0727 Y136.8605 I0.0 J-0.125
G1 Y136.4212
G3 X26.0711 Y136.406 I0.1233 J-0.0208
G2 X26.0667 Y136.4018 I-0.0044 J0.0002
G3 X26.0664 I-0.0002 J-0.125
G2 X26.0615 Y136.4065 I0.0 J0.0049
G3 X25.9366 Y136.5254 I-0.1249 J-0.006
G1 X24.3908
G3 X24.2659 Y136.4061 I0.0 J-0.125
G2 X24.2614 Y136.4018 I-0.0045 J0.0002
G3 X24.2608 I-0.0002 J-0.125
G2 X24.2564 Y136.4062 I0.0 J0.0043
G3 Y136.4066 I-0.125 J0.0005
G1 Y136.6457
G3 X24.2599 Y136.6896 I-0.1253 J0.0322
G1 Y136.8605
G3 X24.1349 Y136.9855 I-0.125 J0.0
G1 X23.1665
G3 X23.0415 Y136.8605 I0.0 J-0.125
G1 Y136.4212
G3 X23.0399 Y136.4066 I0.1233 J-0.0208
G2 X23.0349 Y136.4018 I-0.005 J0.0002
G3 X23.0346 I0.0 J-0.125
G2 X23.0303 Y136.406 I0.0 J0.0043
G3 X22.9054 Y136.5254 I-0.1249 J-0.0055
G1 X20.3338
G0 Z-0.3
G1 X19.8338
G1 F10.0 Z-0.55
G1 F30.0 X17.7012
G3 X17.5764 Y136.4066 I0.0 J-0.125
G2 X17.5714 Y136.4018 I-0.005 J0.0002
G3 X17.571 I0.0 J-0.125
G2 X17.5668 Y136.4059 I0.0 J0.0042
G3 X17.5655 Y136.4192 I-0.1249 J-0.0055
G1 Y136.8605
G3 X17.4405 Y136.9855 I-0.125 J0.0
G1 X16.4717
G3 X16.3467 Y136.8605 I0.0 J-0.125
G1 Y136.423
G3 X16.3448 Y136.4061 I0.1229 J-0.0226
G2 X16.3403 Y136.4018 I-0.0045 J0.0002
G3 X16.3395 I-0.0002 J-0.125
G2 X16.3352 Y136.4059 I0.0 J0.0043
G3 X16.2103 Y136.5254 I-0.1249 J-0.0055
G1 X14.6644
G3 X14.5396 Y136.406 I0.0 J-0.125
G2 X14.5351 Y136.4018 I-0.0044 J0.0002
G3 X14.5344 I-0.0002 J-0.125
G2 X14.53 Y136.4062 I0.0 J0.0043
G3 Y136.4066 I-0.125 J0.0005
G1 Y136.6463
G3 X14.5339 Y136.6772 I-0.1211 J0.0308
G1 Y136.8605
G3 X14.4089 Y136.9855 I-0.125 J0.0
G1 X13.4405
G3 X13.3155 Y136.8605 I0.0 J-0.125
G1 Y136.4231
G3 X13.3136 Y136.4066 I0.1229 J-0.0226
G2 X13.3086 Y136.4018 I-0.005 J0.0002
G3 X13.3081 I0.0 J-0.125
G2 X13.3039 Y136.4058 I0.0 J0.0042
G3 X13.179 Y136.5254 I-0.1249 J-0.0054
G1 X10.25
G0 Z-0.3
G1 X9.75
G1 F10.0 Z-0.55
G1 F30.0 X7.9748
G3 X7.8499 Y136.406 I0.0 J-0.125
G2 X7.8456 Y136.4018 I-0.0044 J0.0002
G3 X7.8446 I-0.0006 J-0.125
G2 X7.8404 Y136.4058 I0.0 J0.0042
G3 X7.8391 Y136.4193 I-0.1249 J-0.0054
G1 Y136.8605
G3 X7.7141 Y136.9855 I-0.125 J0.0
G1 X6.7453
G3 X6.6203 Y136.8605 I0.0 J-0.125
G1 Y136.423
G3 X6.6184 Y136.4061 I0.1229 J-0.0226
G2 X6.6139 Y136.4018 I-0.0044 J0.0002
G3 X6.6131 I-0.0002 J-0.125
G2 X6.6088 Y136.4059 I0.0 J0.0043
G3 X6.4839 Y136.5254 I-0.1249 J-0.0055
G1 X4.938
G3 X4.8132 Y136.406 I0.0 J-0.125
G2 X4.8087 Y136.4018 I-0.0044 J0.0002
G3 X4.808 I-0.0002 J-0.125
G2 X4.8037 Y136.4061 I0.0 J0.0043
G3 Y136.4066 I-0.125 J0.0005
G1 Y136.6466
G1 Y136.6467
G3 X4.8075 Y136.6775 I-0.1212 J0.0308
G1 Y136.8605
G3 X4.6825 Y136.9855 I-0.125 J0.0
G1 X3.714
G3 X3.589 Y136.8605 I0.0 J-0.125
G0 Z0.5
G0 Y138.0215
G1 F10.0 Z0.0
G1 F30.0 X3.6982 Z-0.0004
G3 X3.8232 Y138.1465 Z-0.0012 I0.0 J0.125
G1 Y138.4378 Z-0.0023
G3 X3.784 Y138.5287 Z-0.0027 I-0.125 J0.0
G2 X3.783 Y138.5311 I0.0023 J0.0024
G3 Y138.5322 I-0.125 J0.0008
G2 X3.7875 Y138.5367 I0.0045 J0.0
G3 X3.7889 I0.0003 J0.125
G2 X3.7911 Y138.5358 I0.0 J-0.0032
G3 X3.8788 Y138.5 Z-0.0031 I0.0876 J0.0891
G1 X4.5173 Z-0.0055
G3 X4.6043 Y138.5352 Z-0.0059 I0.0 J0.125
G2 X4.6082 Y138.5367 I0.0038 J-0.004
G3 X4.6085 I0.0002 J0.125
G2 X4.6135 Y138.5321 I0.0 J-0.005
G2 X4.6115 Y138.5278 Z-0.006 I-0.0066 J0.0005
G3 X4.5732 Y138.4378 Z-0.0063 I0.0867 J-0.09
G1 Y138.1465 Z-0.0074
G3 X4.6982 Y138.0215 Z-0.0082 I0.125 J0.0
G1 X6.7295 Z-0.0159
G3 X6.8545 Y138.1465 Z-0.0167 I0.0 J0.125
G1 Y138.4378 Z-0.0178
G3 X6.8152 Y138.5287 Z-0.0182 I-0.125 J0.0
G2 X6.8142 Y138.5311 I0.0023 J0.0024
G3 Y138.5322 I-0.125 J0.0008
G2 X6.8187 Y138.5367 I0.0045 J0.0
G3 X6.8201 I0.0003 J0.125
G2 X6.8224 Y138.5358 I0.0 J-0.0032
G3 X6.91 Y138.5 Z-0.0186 I0.0876 J0.0891
G1 X7.5486 Z-0.021
G3 X7.6352 Y138.5349 Z-0.0214 I0.0 J0.125
G2 X7.6399 Y138.5367 I0.0046 J-0.0048
G3 X7.6403 I-0.0003 J0.125
G2 X7.6447 Y138.5323 Z-0.0215 I0.0 J-0.0044
G2 X7.6428 Y138.5279 I-0.0062 J0.0001
G3 X7.6045 Y138.4378 Z-0.0219 I0.0866 J-0.0901
G1 Y138.1465 Z-0.023
G3 X7.7295 Y138.0215 Z-0.0237 I0.125 J0.0
G1 X13.4246 Z-0.0454
G3 X13.5496 Y138.1465 Z-0.0462 I0.0 J0.125
G1 Y138.4378 Z-0.0473
G3 X13.5104 Y138.5287 Z-0.0477 I-0.125 J0.0
G2 X13.5094 Y138.5311 I0.0022 J0.0024
G3 Y138.5323 I-0.125 J0.0008
G2 X13.5138 Y138.5367 I0.0045 J0.0
G3 X13.5149 I0.0003 J0.125
G2 X13.5178 Y138.5356 I0.0 J-0.0042
G3 X13.6052 Y138.5 Z-0.0481 I0.0873 J0.0894
G1 X14.2437 Z-0.0505
G3 X14.3309 Y138.5354 Z-0.0509 I0.0 J0.125
G2 X14.3342 Y138.5367 I0.0033 J-0.0033
G3 X14.335 I0.0005 J0.125
G2 X14.3399 Y138.5321 I0.0 J-0.0049
G2 X14.338 Y138.5279 Z-0.051 I-0.0062 J0.0003
G3 X14.2996 Y138.4378 Z-0.0513 I0.0866 J-0.0901
G1 Y138.1465 Z-0.0524
G3 X14.4246 Y138.0215 Z-0.0532 I0.125 J0.0
G1 X16.4559 Z-0.0609
G3 X16.5809 Y138.1465 Z-0.0617 I0.0 J0.125
G1 Y138.4378 Z-0.0628
G3 X16.5415 Y138.5288 Z-0.0632 I-0.125 J0.0
G2 X16.5406 Y138.5311 I0.0021 J0.0022
G3 Y138.5322 I-0.125 J0.0009
G2 X16.5451 Y138.5367 I0.0046 J0.0
G3 X16.5461 I0.0003 J0.125
G2 X16.5491 Y138.5356 I0.0 J-0.0042
G3 X16.6364 Y138.5 Z-0.0636 I0.0873 J0.0894
G1 X17.275 Z-0.066
G3 X17.362 Y138.5352 Z-0.0664 I0.0 J0.125
G2 X17.3658 Y138.5367 I0.0038 J-0.0039
G3 X17.3662 I0.0001 J0.125
G2 X17.3711 Y138.5321 Z-0.0665 I0.0 J-0.0049
G2 X17.3692 Y138.5279 I-0.0062 J0.0003
G3 X17.3309 Y138.4378 Z-0.0669 I0.0866 J-0.0901
G1 Y138.1465 Z-0.068
G3 X17.4559 Y138.0215 Z-0.0687 I0.125 J0.0
G1 X23.1506 Z-0.0904
G3 X23.2756 Y138.1465 Z-0.0912 I0.0 J0.125
G1 Y138.4378 Z-0.0923
G3 X23.2364 Y138.5287 Z-0.0927 I-0.125 J0.0
G2 X23.2354 Y138.5311 I0.0022 J0.0023
G3 Y138.5321 I-0.125 J0.0008
G2 X23.24 Y138.5367 I0.0046 J0.0
G3 X23.2408 I0.0002 J0.125
G2 X23.244 Y138.5354 I0.0 J-0.0046
G3 X23.3312 Y138.5 Z-0.0931 I0.0872 J0.0895
G1 X23.9698 Z-0.0955
G3 X24.0568 Y138.5352 Z-0.0959 I0.0 J0.125
G2 X24.0605 Y138.5367 I0.0038 J-0.0039
G3 X24.061 I0.0002 J0.125
G2 X24.0659 Y138.5321 I0.0 J-0.005
G2 X24.064 Y138.5279 I-0.0065 J0.0004
G3 X24.0256 Y138.4378 Z-0.0963 I0.0867 J-0.0901
G1 Y138.1465 Z-0.0974
G3 X24.1506 Y138.0215 Z-0.0982 I0.125 J0.0
G1 X26.1819 Z-0.1059
G3 X26.3069 Y138.1465 Z-0.1067 I0.0 J0.125
G1 Y138.4378 Z-0.1078
G3 X26.2678 Y138.5286 Z-0.1082 I-0.125 J0.0
G2 X26.2666 Y138.5313 I0.0025 J0.0027
G3 Y138.5322 I-0.125 J0.0006
G2 X26.2711 Y138.5367 I0.0045 J0.0
G3 X26.2725 I0.0003 J0.125
G2 X26.2749 Y138.5358 I0.0 J-0.0033
G3 X26.3625 Y138.5 Z-0.1086 I0.0876 J0.0892
G1 X27.001 Z-0.111
G3 X27.088 Y138.5352 Z-0.1114 I0.0 J0.125
G2 X27.0918 Y138.5367 I0.0038 J-0.0039
G3 X27.0922 I0.0002 J0.125
G2 X27.0972 Y138.5321 I0.0 J-0.005
G2 X27.0952 Y138.5278 Z-0.1115 I-0.0067 J0.0005
G3 X27.0569 Y138.4378 Z-0.1119 I0.0867 J-0.09
G1 Y138.1465 Z-0.113
G3 X27.1819 Y138.0215 Z-0.1137 I0.125 J0.0
G1 X29.8444 Z-0.1239
G3 X29.9694 Y138.1465 Z-0.1246 I0.0 J0.125
G1 Y139.3333 Z-0.1291
G3 X29.8444 Y139.4583 Z-0.1299 I-0.125 J0.0
G1 X29.5531 Z-0.131
G3 X29.4631 Y139.4201 Z-0.1314 I0.0 J-0.125
G2 X29.4585 Y139.418 I-0.0049 J0.0047
G2 X29.4541 Y139.4225 I0.0002 J0.0045
G3 Y139.4232 I-0.125 J0.0004
G2 X29.4556 Y139.4268 I0.0052 J0.0
G3 X29.4909 Y139.5139 Z-0.1318 I-0.0897 J0.0871
G1 Y140.1523 Z-0.1342
G3 X29.4551 Y140.2399 Z-0.1346 I-0.125 J0.0
G2 X29.4541 Y140.2424 I0.0025 J0.0025
G3 Y140.2441 I-0.125 J0.001
G2 X29.4584 Y140.2485 I0.0045 J0.0
G2 X29.4633 Y140.2463 Z-0.1347 I-0.0003 J-0.0073
G3 X29.5531 Y140.2083 Z-0.135 I0.0898 J0.087
G1 X29.8444 Z-0.1362
G3 X29.9694 Y140.3333 Z-0.1369 I0.0 J0.125
G1 Y141.5201 Z-0.1414
G3 X29.8444 Y141.6451 Z-0.1422 I-0.125 J0.0
G1 X1.0357 Z-0.2519
G3 X0.9107 Y141.5201 Z-0.2527 I0.0 J-0.125
G1 Y140.3333 Z-0.2572
G3 X1.0357 Y140.2083 Z-0.258 I0.125 J0.0
G1 X1.327 Z-0.2591
G3 X1.4183 Y140.2479 Z-0.2595 I0.0 J0.125
G2 X1.4199 Y140.2486 I0.0016 J-0.0015
G3 X1.4215 Y140.2485 I0.0013 J0.125
G2 X1.426 Y140.244 I0.0 J-0.0046
G3 Y140.2433 I0.125 J-0.0003
G2 X1.4247 Y140.24 I-0.0047 J0.0
G3 X1.3892 Y140.1528 Z-0.2599 I0.0895 J-0.0873
G1 Y139.5142 Z-0.2623
G3 X1.4245 Y139.4271 Z-0.2627 I0.125 J0.0
G2 X1.426 Y139.4233 I-0.0039 J-0.0037
G3 Y139.4226 I0.125 J-0.0002
G2 X1.4214 Y139.418 I-0.0046 J0.0
G3 X1.4202 I-0.0003 J-0.125
G2 X1.4182 Y139.4188 Z-0.2628 I0.0 J0.0026
G3 X1.327 Y139.4583 Z-0.2631 I-0.0912 J-0.0855
G1 X1.0357 Z-0.2643
G3 X0.9107 Y139.3333 Z-0.265 I0.0 J-0.125
G1 Y138.1465 Z-0.2695
G3 X1.0357 Y138.0215 Z-0.2703 I0.125 J0.0
G1 X3.589 Z-0.28
G1 X3.6982 Z-0.2804
G3 X3.8232 Y138.1465 Z-0.2811 I0.0 J0.125
G1 Y138.4378 Z-0.2822
G3 X3.784 Y138.5287 Z-0.2826 I-0.125 J0.0
G2 X3.783 Y138.5311 I0.0023 J0.0024
G3 Y138.5322 I-0.125 J0.0008
G2 X3.7875 Y138.5367 I0.0045 J0.0
G3 X3.7889 I0.0003 J0.125
G2 X3.7911 Y138.5358 I0.0 J-0.0032
G3 X3.8788 Y138.5 Z-0.283 I0.0876 J0.0891
G1 X4.5173 Z-0.2853
G3 X4.6043 Y138.5352 Z-0.2857 I0.0 J0.125
G2 X4.6082 Y138.5367 I0.0038 J-0.004
G3 X4.6085 I0.0002 J0.125
G2 X4.6135 Y138.5321 I0.0 J-0.005
G2 X4.6115 Y138.5278 I-0.0066 J0.0005
G3 X4.5732 Y138.4378 Z-0.2861 I0.0867 J-0.09
G1 Y138.1465 Z-0.2872
G3 X4.6982 Y138.0215 Z-0.2879 I0.125 J0.0
G1 X6.7295 Z-0.2954
G3 X6.8545 Y138.1465 Z-0.2961 I0.0 J0.125
G1 Y138.4378 Z-0.2972
G3 X6.8152 Y138.5287 Z-0.2975 I-0.125 J0.0
G2 X6.8142 Y138.5311 I0.0023 J0.0024
G3 Y138.5322 I-0.125 J0.0008
G2 X6.8187 Y138.5367 Z-0.2976 I0.0045 J0.0
G3 X6.8201 I0.0003 J0.125
G2 X6.8224 Y138.5358 I0.0 J-0.0032
G3 X6.91 Y138.5 Z-0.2979 I0.0876 J0.0891
G1 X7.5486 Z-0.3003
G3 X7.6352 Y138.5349 Z-0.3006 I0.0 J0.125
G2 X7.6399 Y138.5367 Z-0.3007 I0.0046 J-0.0048
G3 X7.6403 I-0.0003 J0.125
G2 X7.6447 Y138.5323 I0.0 J-0.0044
G2 X7.6428 Y138.5279 I-0.0062 J0.0001
G3 X7.6045 Y138.4378 Z-0.3011 I0.0866 J-0.0901
G1 Y138.1465 Z-0.3021
G3 X7.7295 Y138.0215 Z-0.3029 I0.125 J0.0
G1 X12.2875 Z-0.3196
G0 Z-0.3
G1 X12.7875
G1 F10.0 Z-0.3215
G1 F30.0 X13.4246 Z-0.3238
G3 X13.5496 Y138.1465 Z-0.3245 I0.0 J0.125
G1 Y138.4378 Z-0.3256
G3 X13.5104 Y138.5287 Z-0.326 I-0.125 J0.0
G2 X13.5094 Y138.5311 I0.0022 J0.0024
G3 Y138.5323 I-0.125 J0.0008
G2 X13.5138 Y138.5367 I0.0045 J0.0
G3 X13.5149 I0.0003 J0.125
G2 X13.5178 Y138.5356 I0.0 J-0.0042
G3 X13.6052 Y138.5 Z-0.3264 I0.0873 J0.0894
G1 X14.2437 Z-0.3287
G3 X14.3309 Y138.5354 Z-0.3291 I0.0 J0.125
G2 X14.3342 Y138.5367 I0.0033 J-0.0033
G3 X14.335 I0.0005 J0.125
G2 X14.3399 Y138.5321 I0.0 J-0.0049
G2 X14.338 Y138.5279 I-0.0062 J0.0003
G3 X14.2996 Y138.4378 Z-0.3295 I0.0866 J-0.0901
G1 Y138.1465 Z-0.3306
G3 X14.4246 Y138.0215 Z-0.3313 I0.125 J0.0
G1 X16.4559 Z-0.3388
G3 X16.5809 Y138.1465 Z-0.3395 I0.0 J0.125
G1 Y138.4378 Z-0.3405
G3 X16.5415 Y138.5288 Z-0.3409 I-0.125 J0.0
G2 X16.5406 Y138.5311 I0.0021 J0.0022
G3 Y138.5322 I-0.125 J0.0009
G2 X16.5451 Y138.5367 Z-0.341 I0.0046 J0.0
G3 X16.5461 I0.0003 J0.125
G2 X16.5491 Y138.5356 I0.0 J-0.0042
G3 X16.6364 Y138.5 Z-0.3413 I0.0873 J0.0894
G1 X17.275 Z-0.3437
G3 X17.362 Y138.5352 Z-0.344 I0.0 J0.125
G2 X17.3658 Y138.5367 I0.0038 J-0.0039
G3 X17.3662 Z-0.3441 I0.0001 J0.125
G2 X17.3711 Y138.5321 I0.0 J-0.0049
G2 X17.3692 Y138.5279 I-0.0062 J0.0003
G3 X17.3309 Y138.4378 Z-0.3445 I0.0866 J-0.0901
G1 Y138.1465 Z-0.3455
G3 X17.4559 Y138.0215 Z-0.3463 I0.125 J0.0
G1 X22.2049 Z-0.3637
G0 Z-0.3
G1 X22.7049
G1 F10.0 Z-0.3655
G1 F30.0 X23.1506 Z-0.3672
G3 X23.2756 Y138.1465 Z-0.3679 I0.0 J0.125
G1 Y138.4378 Z-0.369
G3 X23.2364 Y138.5287 Z-0.3693 I-0.125 J0.0
G2 X23.2354 Y138.5311 Z-0.3694 I0.0022 J0.0023
G3 Y138.5321 I-0.125 J0.0008
G2 X23.24 Y138.5367 I0.0046 J0.0
G3 X23.2408 I0.0002 J0.125
G2 X23.244 Y138.5354 I0.0 J-0.0046
G3 X23.3312 Y138.5 Z-0.3698 I0.0872 J0.0895
G1 X23.9698 Z-0.3721
G3 X24.0568 Y138.5352 Z-0.3725 I0.0 J0.125
G2 X24.0605 Y138.5367 I0.0038 J-0.0039
G3 X24.061 I0.0002 J0.125
G2 X24.0659 Y138.5321 I0.0 J-0.005
G2 X24.064 Y138.5279 I-0.0065 J0.0004
G3 X24.0256 Y138.4378 Z-0.3729 I0.0867 J-0.0901
G1 Y138.1465 Z-0.374
G3 X24.1506 Y138.0215 Z-0.3747 I0.125 J0.0
G1 X26.1819 Z-0.3821
G3 X26.3069 Y138.1465 Z-0.3829 I0.0 J0.125
G1 Y138.4378 Z-0.3839
G3 X26.2678 Y138.5286 Z-0.3843 I-0.125 J0.0
G2 X26.2666 Y138.5313 I0.0025 J0.0027
G3 Y138.5322 I-0.125 J0.0006
G2 X26.2711 Y138.5367 Z-0.3844 I0.0045 J0.0
G3 X26.2725 I0.0003 J0.125
G2 X26.2749 Y138.5358 I0.0 J-0.0033
G3 X26.3625 Y138.5 Z-0.3847 I0.0876 J0.0892
G1 X27.001 Z-0.3871
G3 X27.088 Y138.5352 Z-0.3874 I0.0 J0.125
G2 X27.0918 Y138.5367 I0.0038 J-0.0039
G3 X27.0922 I0.0002 J0.125
G2 X27.0972 Y138.5321 Z-0.3875 I0.0 J-0.005
G2 X27.0952 Y138.5278 I-0.0067 J0.0005
G3 X27.0569 Y138.4378 Z-0.3879 I0.0867 J-0.09
G1 Y138.1465 Z-0.3889
G3 X27.1819 Y138.0215 Z-0.3896 I0.125 J0.0
G1 X29.8444 Z-0.3994
G3 X29.9694 Y138.1465 Z-0.4002 I0.0 J0.125
G1 Y139.3333 Z-0.4045
G3 X29.8444 Y139.4583 Z-0.4052 I-0.125 J0.0
G1 X29.5531 Z-0.4063
G3 X29.4631 Y139.4201 Z-0.4067 I0.0 J-0.125
G2 X29.4585 Y139.418 I-0.0049 J0.0047
G2 X29.4541 Y139.4225 I0.0002 J0.0045
G3 Y139.4232 I-0.125 J0.0004
G2 X29.4556 Y139.4268 I0.0052 J0.0
G3 X29.4909 Y139.5139 Z-0.4071 I-0.0897 J0.0871
G1 Y140.1523 Z-0.4094
G3 X29.4551 Y140.2399 Z-0.4098 I-0.125 J0.0
G2 X29.4541 Y140.2424 I0.0025 J0.0025
G3 Y140.2441 I-0.125 J0.001
G2 X29.4584 Y140.2485 I0.0045 J0.0
G2 X29.4633 Y140.2463 Z-0.4099 I-0.0003 J-0.0073
G3 X29.5531 Y140.2083 Z-0.4102 I0.0898 J0.087
G1 X29.8444 Z-0.4113
G3 X29.9694 Y140.3333 Z-0.412 I0.0 J0.125
G1 Y140.625 Z-0.4131
G0 Z-0.3
G1 Y141.125
G1 F10.0 Z-0.4149
G1 F30.0 Y141.5201 Z-0.4164
G3 X29.8444 Y141.6451 Z-0.4171 I-0.125 J0.0
G1 X19.9816 Z-0.4533
G0 Z-0.3
G1 X19.4816
G1 F10.0 Z-0.4552
G1 F30.0 X7.9816 Z-0.4974
G0 Z-0.3
G1 X7.4816
G1 F10.0 Z-0.4993
G1 F30.0 X1.0357 Z-0.523
G3 X0.9107 Y141.5201 Z-0.5237 I0.0 J-0.125
G1 Y140.3333 Z-0.528
G3 X1.0357 Y140.2083 Z-0.5288 I0.125 J0.0
G1 X1.327 Z-0.5298
G3 X1.4183 Y140.2479 Z-0.5302 I0.0 J0.125
G2 X1.4199 Y140.2486 I0.0016 J-0.0015
G3 X1.4215 Y140.2485 I0.0013 J0.125
G2 X1.426 Y140.244 I0.0 J-0.0046
G3 Y140.2433 I0.125 J-0.0003
G2 X1.4247 Y140.24 Z-0.5303 I-0.0047 J0.0
G3 X1.3892 Y140.1528 Z-0.5306 I0.0895 J-0.0873
G1 Y139.5142 Z-0.533
G3 X1.4245 Y139.4271 Z-0.5333 I0.125 J0.0
G2 X1.426 Y139.4233 I-0.0039 J-0.0037
G3 Y139.4226 I0.125 J-0.0002
G2 X1.4214 Y139.418 Z-0.5334 I-0.0046 J0.0
G3 X1.4202 I-0.0003 J-0.125
G2 X1.4182 Y139.4188 I0.0 J0.0026
G3 X1.327 Y139.4583 Z-0.5337 I-0.0912 J-0.0855
G1 X1.0357 Z-0.5348
G3 X0.9107 Y139.3333 Z-0.5355 I0.0 J-0.125
G1 Y138.1465 Z-0.5399
G3 X1.0357 Y138.0215 Z-0.5406 I0.125 J0.0
G1 X2.3703 Z-0.5455
G0 Z-0.3
G1 X2.8703
G1 F10.0 Z-0.5474
G1 F30.0 X3.589 Z-0.55
G1 X3.6982
G3 X3.8232 Y138.1465 I0.0 J0.125
G1 Y138.4378
G3 X3.784 Y138.5287 I-0.125 J0.0
G2 X3.783 Y138.5311 I0.0023 J0.0024
G3 Y138.5322 I-0.125 J0.0008
G2 X3.7875 Y138.5367 I0.0045 J0.0
G3 X3.7889 I0.0003 J0.125
G2 X3.7911 Y138.5358 I0.0 J-0.0032
G3 X3.8788 Y138.5 I0.0876 J0.0891
G1 X4.5173
G3 X4.6043 Y138.5352 I0.0 J0.125
G2 X4.6082 Y138.5367 I0.0038 J-0.004
G3 X4.6085 I0.0002 J0.125
G2 X4.6135 Y138.5321 I0.0 J-0.005
G2 X4.6115 Y138.5278 I-0.0066 J0.0005
G3 X4.5732 Y138.4378 I0.0867 J-0.09
G1 Y138.1465
G3 X4.6982 Y138.0215 I0.125 J0.0
G1 X6.7295
G3 X6.8545 Y138.1465 I0.0 J0.125
G1 Y138.4378
G3 X6.8152 Y138.5287 I-0.125 J0.0
G2 X6.8142 Y138.5311 I0.0023 J0.0024
G3 Y138.5322 I-0.125 J0.0008
G2 X6.8187 Y138.5367 I0.0045 J0.0
G3 X6.8201 I0.0003 J0.125
G2 X6.8224 Y138.5358 I0.0 J-0.0032
G3 X6.91 Y138.5 I0.0876 J0.0891
G1 X7.5486
G3 X7.6352 Y138.5349 I0.0 J0.125
G2 X7.6399 Y138.5367 I0.0046 J-0.0048
G3 X7.6403 I-0.0003 J0.125
G2 X7.6447 Y138.5323 I0.0 J-0.0044
G2 X7.6428 Y138.5279 I-0.0062 J0.0001
G3 X7.6045 Y138.4378 I0.0866 J-0.0901
G1 Y138.1465
G3 X7.7295 Y138.0215 I0.125 J0.0
G1 X12.2875
G0 Z-0.3
G1 X12.7875
G1 F10.0 Z-0.55
G1 F30.0 X13.4246
G3 X13.5496 Y138.1465 I0.0 J0.125
G1 Y138.4378
G3 X13.5104 Y138.5287 I-0.125 J0.0
G2 X13.5094 Y138.5311 I0.0022 J0.0024
G3 Y138.5323 I-0.125 J0.0008
G2 X13.5138 Y138.5367 I0.0045 J0.0
G3 X13.5149 I0.0003 J0.125
G2 X13.5178 Y138.5356 I0.0 J-0.0042
G3 X13.6052 Y138.5 I0.0873 J0.0894
G1 X14.2437
G3 X14.3309 Y138.5354 I0.0 J0.125
G2 X14.3342 Y138.5367 I0.0033 J-0.0033
G3 X14.335 I0.0005 J0.125
G2 X14.3399 Y138.5321 I0.0 J-0.0049
G2 X14.338 Y138.5279 I-0.0062 J0.0003
G3 X14.2996 Y138.4378 I0.0866 J-0.0901
G1 Y138.1465
G3 X14.4246 Y138.0215 I0.125 J0.0
G1 X16.4559
G3 X16.5809 Y138.1465 I0.0 J0.125
G1 Y138.4378
G3 X16.5415 Y138.5288 I-0.125 J0.0
G2 X16.5406 Y138.5311 I0.0021 J0.0022
G3 Y138.5322 I-0.125 J0.0009
G2 X16.5451 Y138.5367 I0.0046 J0.0
G3 X16.5461 I0.0003 J0.125
G2 X16.5491 Y138.5356 I0.0 J-0.0042
G3 X16.6364 Y138.5 I0.0873 J0.0894
G1 X17.275
G3 X17.362 Y138.5352 I0.0 J0.125
G2 X17.3658 Y138.5367 I0.0038 J-0.0039
G3 X17.3662 I0.0001 J0.125
G2 X17.3711 Y138.5321 I0.0 J-0.0049
G2 X17.3692 Y138.5279 I-0.0062 J0.0003
G3 X17.3309 Y138.4378 I0.0866 J-0.0901
G1 Y138.1465
G3 X17.4559 Y138.0215 I0.125 J0.0
G1 X22.2049
G0 Z-0.3
G1 X22.7049
G1 F10.0 Z-0.55
G1 F30.0 X23.1506
G3 X23.2756 Y138.1465 I0.0 J0.125
G1 Y138.4378
G3 X23.2364 Y138.5287 I-0.125 J0.0
G2 X23.2354 Y138.5311 I0.0022 J0.0023
G3 Y138.5321 I-0.125 J0.0008
G2 X23.24 Y138.5367 I0.0046 J0.0
G3 X23.2408 I0.0002 J0.125
G2 X23.244 Y138.5354 I0.0 J-0.0046
G3 X23.3312 Y138.5 I0.0872 J0.0895
G1 X23.9698
G3 X24.0568 Y138.5352 I0.0 J0.125
G2 X24.0605 Y138.5367 I0.0038 J-0.0039
G3 X24.061 I0.0002 J0.125
G2 X24.0659 Y138.5321 I0.0 J-0.005
G2 X24.064 Y138.5279 I-0.0065 J0.0004
G3 X24.0256 Y138.4378 I0.0867 J-0.0901
G1 Y138.1465
G3 X24.1506 Y138.0215 I0.125 J0.0
G1 X26.1819
G3 X26.3069 Y138.1465 I0.0 J0.125
G1 Y138.4378
G3 X26.2678 Y138.5286 I-0.125 J0.0
G2 X26.2666 Y138.5313 I0.0025 J0.0027
G3 Y138.5322 I-0.125 J0.0006
G2 X26.2711 Y138.5367 I0.0045 J0.0
G3 X26.2725 I0.0003 J0.125
G2 X26.2749 Y138.5358 I0.0 J-0.0033
G3 X26.3625 Y138.5 I0.0876 J0.0892
G1 X27.001
G3 X27.088 Y138.5352 I0.0 J0.125
G2 X27.0918 Y138.5367 I0.0038 J-0.0039
G3 X27.0922 I0.0002 J0.125
G2 X27.0972 Y138.5321 I0.0 J-0.005
G2 X27.0952 Y138.5278 I-0.0067 J0.0005
G3 X27.0569 Y138.4378 I0.0867 J-0.09
G1 Y138.1465
G3 X27.1819 Y138.0215 I0.125 J0.0
G1 X29.8444
G3 X29.9694 Y138.1465 I0.0 J0.125
G1 Y139.3333
G3 X29.8444 Y139.4583 I-0.125 J0.0
G1 X29.5531
G3 X29.4631 Y139.4201 I0.0 J-0.125
G2 X29.4585 Y139.418 I-0.0049 J0.0047
G2 X29.4541 Y139.4225 I0.0002 J0.0045
G3 Y139.4232 I-0.125 J0.0004
G2 X29.4556 Y139.4268 I0.0052 J0.0
G3 X29.4909 Y139.5139 I-0.0897 J0.0871
G1 Y140.1523
G3 X29.4551 Y140.2399 I-0.125 J0.0
G2 X29.4541 Y140.2424 I0.0025 J0.0025
G3 Y140.2441 I-0.125 J0.001
G2 X29.4584 Y140.2485 I0.0045 J0.0
G2 X29.4633 Y140.2463 I-0.0003 J-0.0073
G3 X29.5531 Y140.2083 I0.0898 J0.087
G1 X29.8444
G3 X29.9694 Y140.3333 I0.0 J0.125
G1 Y140.625
G0 Z-0.3
G1 Y141.125
G1 F10.0 Z-0.55
G1 F30.0 Y141.5201
G3 X29.8444 Y141.6451 I-0.125 J0.0
G1 X19.9816
G0 Z-0.3
G1 X19.4816
G1 F10.0 Z-0.55
G1 F30.0 X7.9816
G0 Z-0.3
G1 X7.4816
G1 F10.0 Z-0.55
G1 F30.0 X1.0357
G3 X0.9107 Y141.5201 I0.0 J-0.125
G1 Y140.3333
G3 X1.0357 Y140.2083 I0.125 J0.0
G1 X1.327
G3 X1.4183 Y140.2479 I0.0 J0.125
G2 X1.4199 Y140.2486 I0.0016 J-0.0015
G3 X1.4215 Y140.2485 I0.0013 J0.125
G2 X1.426 Y140.244 I0.0 J-0.0046
G3 Y140.2433 I0.125 J-0.0003
G2 X1.4247 Y140.24 I-0.0047 J0.0
G3 X1.3892 Y140.1528 I0.0895 J-0.0873
G1 Y139.5142
G3 X1.4245 Y139.4271 I0.125 J0.0
G2 X1.426 Y139.4233 I-0.0039 J-0.0037
G3 Y139.4226 I0.125 J-0.0002
G2 X1.4214 Y139.418 I-0.0046 J0.0
G3 X1.4202 I-0.0003 J-0.125
G2 X1.4182 Y139.4188 I0.0 J0.0026
G3 X1.327 Y139.4583 I-0.0912 J-0.0855
G1 X1.0357
G3 X0.9107 Y139.3333 I0.0 J-0.125
G1 Y138.1465
G3 X1.0357 Y138.0215 I0.125 J0.0
G1 X2.3703
G0 Z-0.3
G1 X2.8703
G1 F10.0 Z-0.55
G1 F30.0 X3.589
G0 Z0.5
G0 Y142.6811
G1 F10.0 Z0.0
G1 F30.0 X29.8444 Z-0.0974
G3 X29.9694 Y142.8061 Z-0.0981 I0.0 J0.125
G1 Y144.4929 Z-0.1044
G3 X29.8444 Y144.6179 Z-0.1051 I-0.125 J0.0
G1 X29.5531 Z-0.1062
G3 X29.462 Y144.5785 Z-0.1066 I0.0 J-0.125
G2 X29.46 Y144.5776 I-0.002 J0.0019
G3 X29.4585 I-0.001 J-0.125
G2 X29.4541 Y144.5819 I0.0 J0.0043
G3 Y144.5835 I-0.125 J0.0005
G2 X29.455 Y144.5857 I0.0031 J0.0
G3 X29.4909 Y144.6734 Z-0.107 I-0.0891 J0.0877
G1 Y145.312 Z-0.1094
G3 X29.4559 Y145.3988 Z-0.1097 I-0.125 J0.0
G2 X29.4541 Y145.4031 I0.0045 J0.0044
G3 Y145.4035 I-0.125 J-0.0002
G2 X29.4588 Y145.4082 Z-0.1098 I0.0046 J0.0
G3 X29.4602 I0.0002 J0.125
G2 X29.4618 Y145.4075 I0.0 J-0.0021
G3 X29.5531 Y145.3679 Z-0.1101 I0.0913 J0.0853
G1 X29.8444 Z-0.1112
G3 X29.9694 Y145.4929 Z-0.112 I0.0 J0.125
G1 Y147.1796 Z-0.1182
G3 X29.8444 Y147.3046 Z-0.1189 I-0.125 J0.0
G1 X27.1819 Z-0.1288
G3 X27.0569 Y147.1796 Z-0.1295 I0.0 J-0.125
G1 Y146.8884 Z-0.1306
G3 X27.0963 Y146.7973 Z-0.131 I0.125 J0.0
G2 X27.0972 Y146.7952 I-0.0019 J-0.002
G3 Y146.7941 I0.125 J-0.001
G2 X27.0925 Y146.7894 I-0.0047 J0.0
G3 X27.0918 I-0.0002 J-0.125
G2 X27.0886 Y146.7907 Z-0.1311 I0.0 J0.0046
G3 X27.0013 Y146.8262 Z-0.1314 I-0.0872 J-0.0895
G1 X26.3628 Z-0.1338
G3 X26.2756 Y146.7907 Z-0.1341 I0.0 J-0.125
G2 X26.2723 Y146.7894 Z-0.1342 I-0.0033 J0.0034
G3 X26.2715 I-0.0005 J-0.125
G2 X26.2666 Y146.794 I0.0 J0.0049
G2 X26.2686 Y146.7983 I0.0064 J-0.0003
G3 X26.3069 Y146.8884 Z-0.1346 I-0.0867 J0.09
G1 Y147.1796 Z-0.1357
G3 X26.1819 Y147.3046 Z-0.1364 I-0.125 J0.0
G1 X24.1506 Z-0.1439
G3 X24.0256 Y147.1796 Z-0.1447 I0.0 J-0.125
G1 Y146.8884 Z-0.1457
G3 X24.0651 Y146.7973 Z-0.1461 I0.125 J0.0
G2 X24.066 Y146.7952 I-0.0019 J-0.002
G3 Y146.7941 I0.125 J-0.001
G2 X24.0613 Y146.7894 Z-0.1462 I-0.0047 J0.0
G3 X24.0605 I-0.0002 J-0.125
G2 X24.0573 Y146.7907 I0.0 J0.0046
G3 X23.9701 Y146.8262 Z-0.1465 I-0.0872 J-0.0895
G1 X23.3316 Z-0.1489
G3 X23.2444 Y146.7907 Z-0.1493 I0.0 J-0.125
G2 X23.2411 Y146.7894 I-0.0033 J0.0034
G3 X23.2404 I-0.0005 J-0.125
G2 X23.2354 Y146.7941 I0.0 J0.005
G2 X23.2374 Y146.7983 I0.0064 J-0.0004
G3 X23.2756 Y146.8884 Z-0.1497 I-0.0867 J0.09
G1 Y147.1796 Z-0.1508
G3 X23.1506 Y147.3046 Z-0.1515 I-0.125 J0.0
G1 X17.4556 Z-0.1726
G3 X17.3306 Y147.1796 Z-0.1734 I0.0 J-0.125
G1 Y146.8884 Z-0.1744
G3 X17.3696 Y146.7976 Z-0.1748 I0.125 J0.0
G2 X17.3708 Y146.7949 I-0.0026 J-0.0027
G3 Y146.794 I0.125 J-0.0006
G2 X17.3662 Y146.7894 Z-0.1749 I-0.0046 J0.0
G3 X17.3655 I-0.0002 J-0.125
G2 X17.3622 Y146.7907 I0.0 J0.0046
G3 X17.275 Y146.8262 Z-0.1752 I-0.0872 J-0.0895
G1 X16.6364 Z-0.1776
G3 X16.5492 Y146.7907 Z-0.178 I0.0 J-0.125
G2 X16.546 Y146.7894 I-0.0032 J0.0033
G3 X16.5453 I-0.0005 J-0.125
G2 X16.5403 Y146.7939 I0.0 J0.005
G2 X16.5424 Y146.7985 I0.0072 J-0.0007
G3 X16.5806 Y146.8884 Z-0.1784 I-0.0869 J0.0899
G1 Y147.1796 Z-0.1795
G3 X16.4556 Y147.3046 Z-0.1802 I-0.125 J0.0
G1 X14.4243 Z-0.1877
G3 X14.2993 Y147.1796 Z-0.1885 I0.0 J-0.125
G1 Y146.8884 Z-0.1895
G3 X14.3384 Y146.7976 Z-0.1899 I0.125 J0.0
G2 X14.3396 Y146.7949 I-0.0026 J-0.0027
G3 Y146.794 I0.125 J-0.0006
G2 X14.3349 Y146.7894 Z-0.19 I-0.0046 J0.0
G3 X14.3342 I-0.0002 J-0.125
G2 X14.331 Y146.7907 I0.0 J0.0046
G3 X14.2437 Y146.8262 Z-0.1903 I-0.0872 J-0.0895
G1 X13.6052 Z-0.1927
G3 X13.5179 Y146.7907 Z-0.1931 I0.0 J-0.125
G2 X13.5147 Y146.7894 I-0.0032 J0.0032
G3 X13.514 I-0.0006 J-0.125
G2 X13.509 Y146.794 I0.0 J0.005
G2 X13.5111 Y146.7984 I0.0069 J-0.0006
G3 X13.5493 Y146.8884 Z-0.1935 I-0.0868 J0.09
G1 Y147.1796 Z-0.1946
G3 X13.4243 Y147.3046 Z-0.1953 I-0.125 J0.0
G1 X7.7295 Z-0.2164
G3 X7.6045 Y147.1796 Z-0.2172 I0.0 J-0.125
G1 Y146.8884 Z-0.2182
G3 X7.6439 Y146.7973 Z-0.2186 I0.125 J0.0
G2 X7.6448 Y146.7952 I-0.0019 J-0.0021
G3 Y146.794 I0.125 J-0.001
G2 X7.6402 Y146.7894 Z-0.2187 I-0.0046 J0.0
G3 X7.6396 I-0.0003 J-0.125
G2 X7.636 Y146.7909 I0.0 J0.0052
G3 X7.5489 Y146.8262 Z-0.219 I-0.0871 J-0.0897
G1 X6.9104 Z-0.2214
G3 X6.8231 Y146.7906 Z-0.2218 I0.0 J-0.125
G2 X6.8201 Y146.7894 I-0.003 J0.0031
G3 X6.8191 I-0.0006 J-0.125
G2 X6.8142 Y146.794 I0.0 J0.0049
G2 X6.8162 Y146.7983 I0.0064 J-0.0003
G3 X6.8545 Y146.8884 Z-0.2222 I-0.0867 J0.09
G1 Y147.1796 Z-0.2233
G3 X6.7295 Y147.3046 Z-0.224 I-0.125 J0.0
G1 X4.6982 Z-0.2315
G3 X4.5732 Y147.1796 Z-0.2323 I0.0 J-0.125
G1 Y146.8884 Z-0.2333
G3 X4.6127 Y146.7973 Z-0.2337 I0.125 J0.0
G2 X4.6135 Y146.7952 I-0.0019 J-0.0021
G3 Y146.794 I0.125 J-0.001
G2 X4.6089 Y146.7894 Z-0.2338 I-0.0046 J0.0
G3 X4.6084 I-0.0003 J-0.125
G2 X4.6047 Y146.7909 I0.0 J0.0052
G3 X4.5177 Y146.8262 Z-0.2341 I-0.0871 J-0.0897
G1 X3.8792 Z-0.2365
G3 X3.7919 Y146.7906 Z-0.2369 I0.0 J-0.125
G2 X3.7888 Y146.7894 I-0.003 J0.0031
G3 X3.7879 I-0.0006 J-0.125
G2 X3.783 Y146.7941 I0.0 J0.0049
G2 X3.7849 Y146.7983 I0.0064 J-0.0003
G3 X3.8232 Y146.8884 Z-0.2373 I-0.0867 J0.09
G1 Y147.1796 Z-0.2384
G3 X3.6982 Y147.3046 Z-0.2391 I-0.125 J0.0
G1 X1.0357 Z-0.249
G3 X0.9107 Y147.1796 Z-0.2497 I0.0 J-0.125
G1 Y145.4929 Z-0.256
G3 X1.0357 Y145.3679 Z-0.2567 I0.125 J0.0
G1 X1.3271 Z-0.2578
G3 X1.4184 Y145.4075 Z-0.2582 I0.0 J0.125
G2 X1.4201 Y145.4082 I0.0017 J-0.0016
G3 X1.4215 I0.0011 J0.125
G2 X1.426 Y145.4036 I0.0 J-0.0046
G3 Y145.4031 I0.125 J-0.0003
G2 X1.4245 Y145.3994 I-0.0054 J0.0
G3 X1.3892 Y145.3123 Z-0.2586 I0.0897 J-0.0871
G1 Y144.6738 Z-0.2609
G3 X1.4252 Y144.5861 Z-0.2613 I0.125 J0.0
G2 X1.426 Y144.5839 I-0.0022 J-0.0021
G3 Y144.5826 I0.125 J-0.0011
G2 X1.4214 Y144.5776 I-0.005 J0.0
G2 X1.4171 Y144.5796 Z-0.2614 I0.0004 J0.0065
G3 X1.3271 Y144.6179 Z-0.2617 I-0.09 J-0.0867
G1 X1.0357 Z-0.2628
G3 X0.9107 Y144.4929 Z-0.2635 I0.0 J-0.125
G1 Y142.8061 Z-0.2698
G3 X1.0357 Y142.6811 Z-0.2705 I0.125 J0.0
G1 X3.589 Z-0.28
G1 X8.8996 Z-0.299
G1 X9.3996 Z-0.3
G1 F10.0 Z-0.3008
G1 F30.0 X20.8996 Z-0.3419
G0 Z-0.3
G1 X21.3996
G1 F10.0 Z-0.3437
G1 F30.0 X29.8444 Z-0.3739
G3 X29.9694 Y142.8061 Z-0.3746 I0.0 J0.125
G1 Y144.4929 Z-0.3807
G3 X29.8444 Y144.6179 Z-0.3814 I-0.125 J0.0
G1 X29.5531 Z-0.3824
G3 X29.462 Y144.5785 Z-0.3828 I0.0 J-0.125
G2 X29.46 Y144.5776 I-0.002 J0.0019
G3 X29.4585 I-0.001 J-0.125
G2 X29.4541 Y144.5819 I0.0 J0.0043
G3 Y144.5835 I-0.125 J0.0005
G2 X29.455 Y144.5857 I0.0031 J0.0
G3 X29.4909 Y144.6734 Z-0.3832 I-0.0891 J0.0877
G1 Y145.312 Z-0.3854
G3 X29.4559 Y145.3988 Z-0.3858 I-0.125 J0.0
G2 X29.4541 Y145.4031 I0.0045 J0.0044
G3 Y145.4035 I-0.125 J-0.0002
G2 X29.4588 Y145.4082 I0.0046 J0.0
G3 X29.4602 I0.0002 J0.125
G2 X29.4618 Y145.4075 I0.0 J-0.0021
G3 X29.5531 Y145.3679 Z-0.3862 I0.0913 J0.0853
G1 X29.8444 Z-0.3873
G3 X29.9694 Y145.4929 Z-0.388 I0.0 J0.125
G1 Y147.1796 Z-0.394
G3 X29.8444 Y147.3046 Z-0.3947 I-0.125 J0.0
G1 X29.5099 Z-0.3959
G0 Z-0.3
G1 X29.0099
G1 F10.0 Z-0.3977
G1 F30.0 X27.1819 Z-0.4042
G3 X27.0569 Y147.1796 Z-0.4049 I0.0 J-0.125
G1 Y146.8884 Z-0.406
G3 X27.0963 Y146.7973 Z-0.4063 I0.125 J0.0
G2 X27.0972 Y146.7952 I-0.0019 J-0.002
G3 Y146.7941 I0.125 J-0.001
G2 X27.0925 Y146.7894 Z-0.4064 I-0.0047 J0.0
G3 X27.0918 I-0.0002 J-0.125
G2 X27.0886 Y146.7907 I0.0 J0.0046
G3 X27.0013 Y146.8262 Z-0.4067 I-0.0872 J-0.0895
G1 X26.3628 Z-0.409
G3 X26.2756 Y146.7907 Z-0.4094 I0.0 J-0.125
G2 X26.2723 Y146.7894 I-0.0033 J0.0034
G3 X26.2715 I-0.0005 J-0.125
G2 X26.2666 Y146.794 I0.0 J0.0049
G2 X26.2686 Y146.7983 I0.0064 J-0.0003
G3 X26.3069 Y146.8884 Z-0.4098 I-0.0867 J0.09
G1 Y147.1796 Z-0.4108
G3 X26.1819 Y147.3046 Z-0.4115 I-0.125 J0.0
G1 X24.1506 Z-0.4188
G3 X24.0256 Y147.1796 Z-0.4195 I0.0 J-0.125
G1 Y146.8884 Z-0.4205
G3 X24.0651 Y146.7973 Z-0.4209 I0.125 J0.0
G2 X24.066 Y146.7952 I-0.0019 J-0.002
G3 Y146.7941 I0.125 J-0.001
G2 X24.0613 Y146.7894 I-0.0047 J0.0
G3 X24.0605 I-0.0002 J-0.125
G2 X24.0573 Y146.7907 I0.0 J0.0046
G3 X23.9701 Y146.8262 Z-0.4213 I-0.0872 J-0.0895
G1 X23.3316 Z-0.4236
G3 X23.2444 Y146.7907 Z-0.4239 I0.0 J-0.125
G2 X23.2411 Y146.7894 I-0.0033 J0.0034
G3 X23.2404 I-0.0005 J-0.125
G2 X23.2354 Y146.7941 Z-0.424 I0.0 J0.005
G2 X23.2374 Y146.7983 I0.0064 J-0.0004
G3 X23.2756 Y146.8884 Z-0.4243 I-0.0867 J0.09
G1 Y147.1796 Z-0.4254
G3 X23.1506 Y147.3046 Z-0.4261 I-0.125 J0.0
G1 X19.5922 Z-0.4388
G0 Z-0.3
G1 X19.0922
G1 F10.0 Z-0.4406
G1 F30.0 X17.4556 Z-0.4465
G3 X17.3306 Y147.1796 Z-0.4472 I0.0 J-0.125
G1 Y146.8884 Z-0.4482
G3 X17.3696 Y146.7976 Z-0.4486 I0.125 J0.0
G2 X17.3708 Y146.7949 I-0.0026 J-0.0027
G3 Y146.794 I0.125 J-0.0006
G2 X17.3662 Y146.7894 I-0.0046 J0.0
G3 X17.3655 I-0.0002 J-0.125
G2 X17.3622 Y146.7907 I0.0 J0.0046
G3 X17.275 Y146.8262 Z-0.449 I-0.0872 J-0.0895
G1 X16.6364 Z-0.4513
G3 X16.5492 Y146.7907 Z-0.4516 I0.0 J-0.125
G2 X16.546 Y146.7894 I-0.0032 J0.0033
G3 X16.5453 I-0.0005 J-0.125
G2 X16.5403 Y146.7939 I0.0 J0.005
G2 X16.5424 Y146.7985 Z-0.4517 I0.0072 J-0.0007
G3 X16.5806 Y146.8884 Z-0.452 I-0.0869 J0.0899
G1 Y147.1796 Z-0.4531
G3 X16.4556 Y147.3046 Z-0.4538 I-0.125 J0.0
G1 X14.4243 Z-0.461
G3 X14.2993 Y147.1796 Z-0.4617 I0.0 J-0.125
G1 Y146.8884 Z-0.4628
G3 X14.3384 Y146.7976 Z-0.4631 I0.125 J0.0
G2 X14.3396 Y146.7949 I-0.0026 J-0.0027
G3 Y146.794 I0.125 J-0.0006
G2 X14.3349 Y146.7894 Z-0.4632 I-0.0046 J0.0
G3 X14.3342 I-0.0002 J-0.125
G2 X14.331 Y146.7907 I0.0 J0.0046
G3 X14.2437 Y146.8262 Z-0.4635 I-0.0872 J-0.0895
G1 X13.6052 Z-0.4658
G3 X13.5179 Y146.7907 Z-0.4662 I0.0 J-0.125
G2 X13.5147 Y146.7894 I-0.0032 J0.0032
G3 X13.514 I-0.0006 J-0.125
G2 X13.509 Y146.794 I0.0 J0.005
G2 X13.5111 Y146.7984 I0.0069 J-0.0006
G3 X13.5493 Y146.8884 Z-0.4666 I-0.0868 J0.09
G1 Y147.1796 Z-0.4676
G3 X13.4243 Y147.3046 Z-0.4683 I-0.125 J0.0
G1 X9.6744 Z-0.4817
G0 Z-0.3
G1 X9.1744
G1 F10.0 Z-0.4835
G1 F30.0 X7.7295 Z-0.4887
G3 X7.6045 Y147.1796 Z-0.4894 I0.0 J-0.125
G1 Y146.8884 Z-0.4904
G3 X7.6439 Y146.7973 Z-0.4908 I0.125 J0.0
G2 X7.6448 Y146.7952 I-0.0019 J-0.0021
G3 Y146.794 I0.125 J-0.001
G2 X7.6402 Y146.7894 I-0.0046 J0.0
G3 X7.6396 I-0.0003 J-0.125
G2 X7.636 Y146.7909 Z-0.4909 I0.0 J0.0052
G3 X7.5489 Y146.8262 Z-0.4912 I-0.0871 J-0.0897
G1 X6.9104 Z-0.4935
G3 X6.8231 Y146.7906 Z-0.4938 I0.0 J-0.125
G2 X6.8201 Y146.7894 I-0.003 J0.0031
G3 X6.8191 Z-0.4939 I-0.0006 J-0.125
G2 X6.8142 Y146.794 I0.0 J0.0049
G2 X6.8162 Y146.7983 I0.0064 J-0.0003
G3 X6.8545 Y146.8884 Z-0.4943 I-0.0867 J0.09
G1 Y147.1796 Z-0.4953
G3 X6.7295 Y147.3046 Z-0.496 I-0.125 J0.0
G1 X4.6982 Z-0.5033
G3 X4.5732 Y147.1796 Z-0.504 I0.0 J-0.125
G1 Y146.8884 Z-0.505
G3 X4.6127 Y146.7973 Z-0.5054 I0.125 J0.0
G2 X4.6135 Y146.7952 I-0.0019 J-0.0021
G3 Y146.794 I0.125 J-0.001
G2 X4.6089 Y146.7894 I-0.0046 J0.0
G3 X4.6084 I-0.0003 J-0.125
G2 X4.6047 Y146.7909 I0.0 J0.0052
G3 X4.5177 Y146.8262 Z-0.5058 I-0.0871 J-0.0897
G1 X3.8792 Z-0.5081
G3 X3.7919 Y146.7906 Z-0.5084 I0.0 J-0.125
G2 X3.7888 Y146.7894 I-0.003 J0.0031
G3 X3.7879 I-0.0006 J-0.125
G2 X3.783 Y146.7941 I0.0 J0.0049
G2 X3.7849 Y146.7983 Z-0.5085 I0.0064 J-0.0003
G3 X3.8232 Y146.8884 Z-0.5088 I-0.0867 J0.09
G1 Y147.1796 Z-0.5099
G3 X3.6982 Y147.3046 Z-0.5106 I-0.125 J0.0
G1 X1.0357 Z-0.5201
G3 X0.9107 Y147.1796 Z-0.5208 I0.0 J-0.125
G1 Y146.625 Z-0.5228
G0 Z-0.3
G1 Y146.125
G1 F10.0 Z-0.5246
G1 F30.0 Y145.4929 Z-0.5268
G3 X1.0357 Y145.3679 Z-0.5275 I0.125 J0.0
G1 X1.3271 Z-0.5286
G3 X1.4184 Y145.4075 Z-0.5289 I0.0 J0.125
G2 X1.4201 Y145.4082 I0.0017 J-0.0016
G3 X1.4215 Z-0.529 I0.0011 J0.125
G2 X1.426 Y145.4036 I0.0 J-0.0046
G3 Y145.4031 I0.125 J-0.0003
G2 X1.4245 Y145.3994 I-0.0054 J0.0
G3 X1.3892 Y145.3123 Z-0.5293 I0.0897 J-0.0871
G1 Y144.6738 Z-0.5316
G3 X1.4252 Y144.5861 Z-0.532 I0.125 J0.0
G2 X1.426 Y144.5839 I-0.0022 J-0.0021
G3 Y144.5826 I0.125 J-0.0011
G2 X1.4214 Y144.5776 I-0.005 J0.0
G2 X1.4171 Y144.5796 I0.0004 J0.0065
G3 X1.3271 Y144.6179 Z-0.5324 I-0.09 J-0.0867
G1 X1.0357 Z-0.5334
G3 X0.9107 Y144.4929 Z-0.5341 I0.0 J-0.125
G1 Y142.8061 Z-0.5402
G3 X1.0357 Y142.6811 Z-0.5409 I0.125 J0.0
G1 X3.589 Z-0.55
G1 X8.8996
G0 Z-0.3
G1 X9.3996
G1 F10.0 Z-0.55
G1 F30.0 X20.8996
G0 Z-0.3
G1 X21.3996
G1 F10.0 Z-0.55
G1 F30.0 X29.8444
G3 X29.9694 Y142.8061 I0.0 J0.125
G1 Y144.4929
G3 X29.8444 Y144.6179 I-0.125 J0.0
G1 X29.5531
G3 X29.462 Y144.5785 I0.0 J-0.125
G2 X29.46 Y144.5776 I-0.002 J0.0019
G3 X29.4585 I-0.001 J-0.125
G2 X29.4541 Y144.5819 I0.0 J0.0043
G3 Y144.5835 I-0.125 J0.0005
G2 X29.455 Y144.5857 I0.0031 J0.0
G3 X29.4909 Y144.6734 I-0.0891 J0.0877
G1 Y145.312
G3 X29.4559 Y145.3988 I-0.125 J0.0
G2 X29.4541 Y145.4031 I0.0045 J0.0044
G3 Y145.4035 I-0.125 J-0.0002
G2 X29.4588 Y145.4082 I0.0046 J0.0
G3 X29.4602 I0.0002 J0.125
G2 X29.4618 Y145.4075 I0.0 J-0.0021
G3 X29.5531 Y145.3679 I0.0913 J0.0853
G1 X29.8444
G3 X29.9694 Y145.4929 I0.0 J0.125
G1 Y147.1796
G3 X29.8444 Y147.3046 I-0.125 J0.0
G1 X29.5099
G0 Z-0.3
G1 X29.0099
G1 F10.0 Z-0.55
G1 F30.0 X27.1819
G3 X27.0569 Y147.1796 I0.0 J-0.125
G1 Y146.8884
G3 X27.0963 Y146.7973 I0.125 J0.0
G2 X27.0972 Y146.7952 I-0.0019 J-0.002
G3 Y146.7941 I0.125 J-0.001
G2 X27.0925 Y146.7894 I-0.0047 J0.0
G3 X27.0918 I-0.0002 J-0.125
G2 X27.0886 Y146.7907 I0.0 J0.0046
G3 X27.0013 Y146.8262 I-0.0872 J-0.0895
G1 X26.3628
G3 X26.2756 Y146.7907 I0.0 J-0.125
G2 X26.2723 Y146.7894 I-0.0033 J0.0034
G3 X26.2715 I-0.0005 J-0.125
G2 X26.2666 Y146.794 I0.0 J0.0049
G2 X26.2686 Y146.7983 I0.0064 J-0.0003
G3 X26.3069 Y146.8884 I-0.0867 J0.09
G1 Y147.1796
G3 X26.1819 Y147.3046 I-0.125 J0.0
G1 X24.1506
G3 X24.0256 Y147.1796 I0.0 J-0.125
G1 Y146.8884
G3 X24.0651 Y146.7973 I0.125 J0.0
G2 X24.066 Y146.7952 I-0.0019 J-0.002
G3 Y146.7941 I0.125 J-0.001
G2 X24.0613 Y146.7894 I-0.0047 J0.0
G3 X24.0605 I-0.0002 J-0.125
G2 X24.0573 Y146.7907 I0.0 J0.0046
G3 X23.9701 Y146.8262 I-0.0872 J-0.0895
G1 X23.3316
G3 X23.2444 Y146.7907 I0.0 J-0.125
G2 X23.2411 Y146.7894 I-0.0033 J0.0034
G3 X23.2404 I-0.0005 J-0.125
G2 X23.2354 Y146.7941 I0.0 J0.005
G2 X23.2374 Y146.7983 I0.0064 J-0.0004
G3 X23.2756 Y146.8884 I-0.0867 J0.09
G1 Y147.1796
G3 X23.1506 Y147.3046 I-0.125 J0.0
G1 X19.5922
G0 Z-0.3
G1 X19.0922
G1 F10.0 Z-0.55
G1 F30.0 X17.4556
G3 X17.3306 Y147.1796 I0.0 J-0.125
G1 Y146.8884
G3 X17.3696 Y146.7976 I0.125 J0.0
G2 X17.3708 Y146.7949 I-0.0026 J-0.0027
G3 Y146.794 I0.125 J-0.0006
G2 X17.3662 Y146.7894 I-0.0046 J0.0
G3 X17.3655 I-0.0002 J-0.125
G2 X17.3622 Y146.7907 I0.0 J0.0046
G3 X17.275 Y146.8262 I-0.0872 J-0.0895
G1 X16.6364
G3 X16.5492 Y146.7907 I0.0 J-0.125
G2 X16.546 Y146.7894 I-0.0032 J0.0033
G3 X16.5453 I-0.0005 J-0.125
G2 X16.5403 Y146.7939 I0.0 J0.005
G2 X16.5424 Y146.7985 I0.0072 J-0.0007
G3 X16.5806 Y146.8884 I-0.0869 J0.0899
G1 Y147.1796
G3 X16.4556 Y147.3046 I-0.125 J0.0
G1 X14.4243
G3 X14.2993 Y147.1796 I0.0 J-0.125
G1 Y146.8884
G3 X14.3384 Y146.7976 I0.125 J0.0
G2 X14.3396 Y146.7949 I-0.0026 J-0.0027
G3 Y146.794 I0.125 J-0.0006
G2 X14.3349 Y146.7894 I-0.0046 J0.0
G3 X14.3342 I-0.0002 J-0.125
G2 X14.331 Y146.7907 I0.0 J0.0046
G3 X14.2437 Y146.8262 I-0.0872 J-0.0895
G1 X13.6052
G3 X13.5179 Y146.7907 I0.0 J-0.125
G2 X13.5147 Y146.7894 I-0.0032 J0.0032
G3 X13.514 I-0.0006 J-0.125
G2 X13.509 Y146.794 I0.0 J0.005
G2 X13.5111 Y146.7984 I0.0069 J-0.0006
G3 X13.5493 Y146.8884 I-0.0868 J0.09
G1 Y147.1796
G3 X13.4243 Y147.3046 I-0.125 J0.0
G1 X9.6744
G0 Z-0.3
G1 X9.1744
G1 F10.0 Z-0.55
G1 F30.0 X7.7295
G3 X7.6045 Y147.1796 I0.0 J-0.125
G1 Y146.8884
G3 X7.6439 Y146.7973 I0.125 J0.0
G2 X7.6448 Y146.7952 I-0.0019 J-0.0021
G3 Y146.794 I0.125 J-0.001
G2 X7.6402 Y146.7894 I-0.0046 J0.0
G3 X7.6396 I-0.0003 J-0.125
G2 X7.636 Y146.7909 I0.0 J0.0052
G3 X7.5489 Y146.8262 I-0.0871 J-0.0897
G1 X6.9104
G3 X6.8231 Y146.7906 I0.0 J-0.125
G2 X6.8201 Y146.7894 I-0.003 J0.0031
G3 X6.8191 I-0.0006 J-0.125
G2 X6.8142 Y146.794 I0.0 J0.0049
G2 X6.8162 Y146.7983 I0.0064 J-0.0003
G3 X6.8545 Y146.8884 I-0.0867 J0.09
G1 Y147.1796
G3 X6.7295 Y147.3046 I-0.125 J0.0
G1 X4.6982
G3 X4.5732 Y147.1796 I0.0 J-0.125
G1 Y146.8884
G3 X4.6127 Y146.7973 I0.125 J0.0
G2 X4.6135 Y146.7952 I-0.0019 J-0.0021
G3 Y146.794 I0.125 J-0.001
G2 X4.6089 Y146.7894 I-0.0046 J0.0
G3 X4.6084 I-0.0003 J-0.125
G2 X4.6047 Y146.7909 I0.0 J0.0052
G3 X4.5177 Y146.8262 I-0.0871 J-0.0897
G1 X3.8792
G3 X3.7919 Y146.7906 I0.0 J-0.125
G2 X3.7888 Y146.7894 I-0.003 J0.0031
G3 X3.7879 I-0.0006 J-0.125
G2 X3.783 Y146.7941 I0.0 J0.0049
G2 X3.7849 Y146.7983 I0.0064 J-0.0003
G3 X3.8232 Y146.8884 I-0.0867 J0.09
G1 Y147.1796
G3 X3.6982 Y147.3046 I-0.125 J0.0
G1 X1.0357
G3 X0.9107 Y147.1796 I0.0 J-0.125
G1 Y146.625
G0 Z-0.3
G1 Y146.125
G1 F10.0 Z-0.55
G1 F30.0 Y145.4929
G3 X1.0357 Y145.3679 I0.125 J0.0
G1 X1.3271
G3 X1.4184 Y145.4075 I0.0 J0.125
G2 X1.4201 Y145.4082 I0.0017 J-0.0016
G3 X1.4215 I0.0011 J0.125
G2 X1.426 Y145.4036 I0.0 J-0.0046
G3 Y145.4031 I0.125 J-0.0003
G2 X1.4245 Y145.3994 I-0.0054 J0.0
G3 X1.3892 Y145.3123 I0.0897 J-0.0871
G1 Y144.6738
G3 X1.4252 Y144.5861 I0.125 J0.0
G2 X1.426 Y144.5839 I-0.0022 J-0.0021
G3 Y144.5826 I0.125 J-0.0011
G2 X1.4214 Y144.5776 I-0.005 J0.0
G2 X1.4171 Y144.5796 I0.0004 J0.0065
G3 X1.3271 Y144.6179 I-0.09 J-0.0867
G1 X1.0357
G3 X0.9107 Y144.4929 I0.0 J-0.125
G1 Y142.8061
G3 X1.0357 Y142.6811 I0.125 J0.0
G1 X3.589
G0 Z0.5
G0 X3.7134 Y118.7409
G1 F10.0 Z0.0
G3 F30.0 X3.589 Y118.6159 Z-0.0005 I0.0006 J-0.125
G1 Y118.1784 Z-0.0016
G3 X3.5871 Y118.1615 I0.1229 J-0.0226
G2 X3.5826 Y118.1572 Z-0.0017 I-0.0045 J0.0002
G3 X3.5817 I-0.0005 J-0.125
G2 X3.5775 Y118.1613 I0.0 J0.0043
G3 X3.4526 Y118.2808 Z-0.0022 I-0.1249 J-0.0055
G1 X1.5033 Z-0.0071
G3 X1.3783 Y118.1558 Z-0.0076 I0.0 J-0.125
G1 Y116.544 Z-0.0117
G3 X1.4972 Y116.4191 Z-0.0122 I0.125 J0.0
G2 X1.5019 Y116.4142 I-0.0002 J-0.0049
G3 Y116.4139 I0.125 J-0.0001
G2 X1.4977 Y116.4095 I-0.0043 J0.0
G3 X1.4825 Y116.4079 Z-0.0123 I0.0055 J-0.1249
G1 X1.0432 Z-0.0134
G3 X0.9182 Y116.2829 Z-0.0139 I0.0 J-0.125
G1 Y115.3141 Z-0.0163
G3 X1.0432 Y115.1891 Z-0.0168 I0.125 J0.0
G1 X1.4825 Z-0.0179
G3 X1.4976 Y115.1875 Z-0.018 I0.0208 J0.1233
G2 X1.5019 Y115.1831 I-0.0002 J-0.0045
G3 Y115.1824 I0.125 J-0.0002
G2 X1.4976 Y115.1779 I-0.0045 J0.0
G3 X1.3783 Y115.053 Z-0.0185 I0.0056 J-0.1249
G1 Y113.5072 Z-0.0224
G3 X1.4978 Y113.3823 Z-0.0229 I0.125 J0.0
G2 X1.5019 Y113.378 I-0.0002 J-0.0043
G3 Y113.3773 I0.125 J-0.0003
G2 X1.4974 Y113.3728 I-0.0045 J0.0
G3 X1.497 Z-0.023 I-0.0004 J-0.125
G1 X1.258 Z-0.0236
G3 X1.2181 Y113.3763 Z-0.0237 I-0.0308 J-0.1212
G1 X1.0432 Z-0.0241
G3 X0.9182 Y113.2513 Z-0.0246 I0.0 J-0.125
G1 Y112.2829 Z-0.0271
G3 X1.0432 Y112.1579 Z-0.0276 I0.125 J0.0
G1 X1.4825 Z-0.0287
G3 X1.4971 Y112.1563 I0.0208 J0.1233
G2 X1.5019 Y112.1513 I-0.0002 J-0.005
G3 Y112.1512 I0.125 J0.0
G2 X1.4976 Y112.1467 I-0.0045 J0.0
G3 X1.3783 Y112.0218 Z-0.0292 I0.0057 J-0.1249
G1 Y108.0416 Z-0.0393
G3 X1.4971 Y107.9167 Z-0.0398 I0.125 J0.0
G2 X1.5019 Y107.9117 I-0.0002 J-0.005
G3 Y107.9116 I0.125 J0.0
G2 X1.4976 Y107.9071 I-0.0045 J0.0
G3 X1.4825 Y107.9055 Z-0.0399 I0.0057 J-0.1249
G1 X1.0432 Z-0.041
G3 X0.9182 Y107.7805 Z-0.0415 I0.0 J-0.125
G1 Y106.8117 Z-0.044
G3 X1.0432 Y106.6867 Z-0.0445 I0.125 J0.0
G1 X1.4825 Z-0.0456
G3 X1.4978 Y106.6851 I0.0208 J0.1233
G2 X1.5019 Y106.6808 I-0.0002 J-0.0043
G3 Y106.6801 I0.125 J-0.0003
G2 X1.4975 Y106.6754 I-0.0046 J0.0
G3 X1.3783 Y106.5506 Z-0.0461 I0.0057 J-0.1249
G1 Y105.0047 Z-0.0501
G3 X1.4977 Y104.8799 Z-0.0505 I0.125 J0.0
G2 X1.5019 Y104.8754 Z-0.0506 I-0.0002 J-0.0044
G3 Y104.8751 I0.125 J-0.0002
G2 X1.4972 Y104.8704 I-0.0047 J0.0
G3 X1.497 I-0.0002 J-0.125
G1 X1.2578 Z-0.0512
G3 X1.2183 Y104.8739 Z-0.0513 I-0.0306 J-0.1212
G1 X1.0432 Z-0.0517
G3 X0.9182 Y104.7489 Z-0.0522 I0.0 J-0.125
G1 Y103.7805 Z-0.0547
G3 X1.0432 Y103.6555 Z-0.0552 I0.125 J0.0
G1 X1.4825 Z-0.0563
G3 X1.4972 Y103.6539 I0.0208 J0.1233
G2 X1.5019 Y103.649 Z-0.0564 I-0.0002 J-0.0049
G3 Y103.6487 I0.125 J-0.0001
G2 X1.4977 Y103.6443 I-0.0044 J0.0
G3 X1.3783 Y103.5194 Z-0.0569 I0.0056 J-0.1249
G1 Y101.9072 Z-0.0609
G3 X1.5033 Y101.7822 Z-0.0614 I0.125 J0.0
G1 X3.4526 Z-0.0664
G3 X3.5775 Y101.9021 Z-0.0669 I0.0 J0.125
G2 X3.5818 Y101.9062 I0.0043 J-0.0002
G3 X3.5825 I0.0003 J0.125
G2 X3.5871 Y101.9018 I0.0 J-0.0046
G3 X3.5887 Y101.8864 I0.1249 J0.0054
G1 Y101.6572 Z-0.0675
G3 X3.7137 Y101.5322 Z-0.068 I0.125 J0.0
G1 X4.679 Z-0.0705
G3 X4.8036 Y101.6672 Z-0.071 I0.0 J0.125
G1 Y101.9013 Z-0.0716
G3 Y101.9016 I-0.125 J0.0
G2 X4.8082 Y101.9062 I0.0046 J0.0
G3 X4.8087 I0.0003 J0.125
G2 X4.8131 Y101.9019 I0.0 J-0.0044
G3 X4.938 Y101.7822 Z-0.0721 I0.1249 J0.0053
G1 X6.4838 Z-0.076
G3 X6.6087 Y101.9015 Z-0.0765 I0.0 J0.125
G2 X6.6136 Y101.9062 I0.0049 J-0.0002
G3 X6.6138 I0.0001 J0.125
G2 X6.6183 Y101.9018 Z-0.0766 I0.0 J-0.0046
G3 X6.62 Y101.8864 I0.1249 J0.0054
G1 Y101.6572 Z-0.0772
G3 X6.745 Y101.5322 Z-0.0777 I0.125 J0.0
G1 X7.7137 Z-0.0801
G3 X7.8387 Y101.6572 Z-0.0806 I0.0 J0.125
G1 Y101.8864 Z-0.0812
G3 X7.8403 Y101.9021 Z-0.0813 I-0.1233 J0.0208
G2 X7.8446 Y101.9062 I0.0042 J-0.0002
G3 X7.8454 I0.0004 J0.125
G2 X7.8499 Y101.9018 I0.0 J-0.0045
G3 X7.9748 Y101.7822 Z-0.0818 I0.1249 J0.0054
G1 X13.179 Z-0.095
G3 X13.3039 Y101.9021 Z-0.0955 I0.0 J0.125
G2 X13.3081 Y101.9062 I0.0042 J-0.0002
G3 X13.3089 I0.0004 J0.125
G2 X13.3135 Y101.9019 I0.0 J-0.0045
G3 X13.3151 Y101.8863 I0.1249 J0.0054
G1 Y101.6572 Z-0.0961
G3 X13.4401 Y101.5322 Z-0.0966 I0.125 J0.0
G1 X14.4054 Z-0.0991
G3 X14.53 Y101.6671 Z-0.0996 I0.0 J0.125
G1 Y101.9013 Z-0.1002
G3 Y101.9016 I-0.125 J0.0
G2 X14.5346 Y101.9062 I0.0046 J0.0
G3 X14.5352 I0.0003 J0.125
G2 X14.5395 Y101.902 I0.0 J-0.0043
G3 X14.6644 Y101.7822 Z-0.1007 I0.1249 J0.0052
G1 X16.2102 Z-0.1046
G3 X16.3351 Y101.9014 Z-0.1051 I0.0 J0.125
G2 X16.34 Y101.9062 I0.0049 J-0.0002
G3 X16.3402 I0.0001 J0.125
G2 X16.3447 Y101.9019 Z-0.1052 I0.0 J-0.0045
G3 X16.3464 Y101.8863 I0.1249 J0.0054
G1 Y101.6572 Z-0.1058
G3 X16.4714 Y101.5322 Z-0.1063 I0.125 J0.0
G1 X17.4401 Z-0.1087
G3 X17.5651 Y101.6572 Z-0.1092 I0.0 J0.125
G1 Y101.8865 Z-0.1098
G3 X17.5667 Y101.9021 Z-0.1099 I-0.1233 J0.0207
G2 X17.571 Y101.9062 I0.0043 J-0.0002
G3 X17.5718 I0.0003 J0.125
G2 X17.5763 Y101.9018 I0.0 J-0.0045
G3 X17.7012 Y101.7822 Z-0.1104 I0.1249 J0.0054
G1 X22.9054 Z-0.1236
G3 X23.0303 Y101.9021 Z-0.1241 I0.0 J0.125
G2 X23.0346 Y101.9062 I0.0043 J-0.0002
G3 X23.0353 I0.0003 J0.125
G2 X23.0399 Y101.9018 I0.0 J-0.0045
G3 X23.0415 Y101.8864 I0.1249 J0.0054
G1 Y101.6572 Z-0.1247
G3 X23.1665 Y101.5322 Z-0.1252 I0.125 J0.0
G1 X24.1318 Z-0.1277
G3 X24.2564 Y101.6669 Z-0.1282 I0.0 J0.125
G1 Y101.9013 Z-0.1288
G3 Y101.9016 I-0.125 J0.0
G2 X24.2609 Y101.9062 I0.0045 J0.0
G3 X24.2615 I0.0003 J0.125
G2 X24.2659 Y101.902 I0.0 J-0.0044
G3 X24.3908 Y101.7822 Z-0.1293 I0.1249 J0.0053
G1 X25.9366 Z-0.1332
G3 X26.0615 Y101.9015 Z-0.1337 I0.0 J0.125
G2 X26.0664 Y101.9062 I0.0049 J-0.0002
G3 X26.0666 I0.0001 J0.125
G2 X26.0711 Y101.9018 Z-0.1338 I0.0 J-0.0045
G3 X26.0727 Y101.8864 I0.1249 J0.0054
G1 Y101.6572 Z-0.1344
G3 X26.1977 Y101.5322 Z-0.1349 I0.125 J0.0
G1 X27.1665 Z-0.1373
G3 X27.2915 Y101.6572 Z-0.1378 I0.0 J0.125
G1 Y101.8864 Z-0.1384
G3 X27.2931 Y101.9021 I-0.1233 J0.0208
G2 X27.2974 Y101.9062 Z-0.1385 I0.0043 J-0.0002
G3 X27.2982 I0.0003 J0.125
G2 X27.3027 Y101.9018 I0.0 J-0.0045
G3 X27.4276 Y101.7822 Z-0.139 I0.1249 J0.0054
G1 X29.3769 Z-0.1439
G3 X29.5019 Y101.9072 Z-0.1444 I0.0 J0.125
G1 Y103.5194 Z-0.1485
G3 X29.3825 Y103.6443 Z-0.149 I-0.125 J0.0
G2 X29.3783 Y103.6487 I0.0002 J0.0044
G3 Y103.6495 I-0.125 J0.0002
G2 X29.3825 Y103.6539 I0.0044 J0.0
G3 X29.3977 Y103.6555 Z-0.1491 I-0.0056 J0.1249
G1 X29.837 Z-0.1502
G3 X29.962 Y103.7805 Z-0.1507 I0.0 J0.125
G1 Y104.7489 Z-0.1531
G3 X29.837 Y104.8739 Z-0.1536 I-0.125 J0.0
G1 X29.6619 Z-0.1541
G3 X29.6372 Y104.8732 I-0.0089 J-0.1247
G1 X29.6152 Y104.8704 Z-0.1542
G1 X29.3831 Z-0.1548
G3 X29.3827 I0.0 J-0.125
G2 X29.3783 Y104.8748 I0.0 J0.0044
G3 Y104.8757 I-0.125 J0.0004
G2 X29.3822 Y104.8799 I0.0041 J0.0
G3 X29.5019 Y105.0047 Z-0.1553 I-0.0053 J0.1249
G1 Y106.5506 Z-0.1592
G3 X29.3831 Y106.6754 Z-0.1597 I-0.125 J0.0
G2 X29.3783 Y106.6805 I0.0003 J0.0051
G3 Y106.6807 I-0.125 J0.0
G2 X29.3825 Y106.6851 I0.0044 J0.0
G3 X29.3977 Y106.6867 Z-0.1598 I-0.0056 J0.1249
G1 X29.837 Z-0.1609
G3 X29.962 Y106.8117 Z-0.1614 I0.0 J0.125
G1 Y107.7805 Z-0.1639
G3 X29.837 Y107.9055 Z-0.1644 I-0.125 J0.0
G1 X29.3977 Z-0.1655
G3 X29.3825 Y107.9071 I-0.0208 J-0.1233
G2 X29.3783 Y107.9114 I0.0002 J0.0044
G3 Y107.9118 I-0.125 J0.0002
G2 X29.383 Y107.9167 I0.0049 J0.0
G3 X29.5019 Y108.0416 Z-0.166 I-0.0061 J0.1249
G1 Y112.0218 Z-0.1761
G3 X29.3825 Y112.1467 Z-0.1766 I-0.125 J0.0
G2 X29.3783 Y112.151 I0.0002 J0.0044
G3 Y112.1514 I-0.125 J0.0002
G2 X29.383 Y112.1563 I0.0049 J0.0
G3 X29.3977 Y112.1579 Z-0.1767 I-0.0061 J0.1249
G1 X29.837 Z-0.1778
G3 X29.962 Y112.2829 Z-0.1783 I0.0 J0.125
G1 Y113.2513 Z-0.1808
G3 X29.837 Y113.3763 Z-0.1813 I-0.125 J0.0
G1 X29.6621 Z-0.1817
G3 X29.637 Y113.3756 Z-0.1818 I-0.0091 J-0.1247
G1 X29.6151 Y113.3728
G1 X29.3831 Z-0.1824
G3 X29.3829 I0.0 J-0.125
G2 X29.3783 Y113.3774 I0.0 J0.0046
G3 Y113.3779 I-0.125 J0.0003
G2 X29.3825 Y113.3823 I0.0044 J0.0
G3 X29.5019 Y113.5072 Z-0.1829 I-0.0056 J0.1249
G1 Y115.053 Z-0.1869
G3 X29.383 Y115.1779 Z-0.1873 I-0.125 J0.0
G2 X29.3783 Y115.1829 Z-0.1874 I0.0002 J0.005
G3 Y115.1833 I-0.125 J0.0
G2 X29.3823 Y115.1875 I0.0042 J0.0
G3 X29.3977 Y115.1891 I-0.0054 J0.1249
G1 X29.837 Z-0.1885
G3 X29.962 Y115.3141 Z-0.189 I0.0 J0.125
G1 Y116.2829 Z-0.1915
G3 X29.837 Y116.4079 Z-0.192 I-0.125 J0.0
G1 X29.3977 Z-0.1931
G3 X29.3826 Y116.4095 I-0.0208 J-0.1233
G2 X29.3783 Y116.414 I0.0002 J0.0045
G3 Y116.4148 Z-0.1932 I-0.125 J0.0001
G2 X29.3824 Y116.4191 I0.0043 J0.0
G3 X29.5019 Y116.544 Z-0.1937 I-0.0055 J0.1249
G1 Y118.1558 Z-0.1977
G3 X29.3769 Y118.2808 Z-0.1982 I-0.125 J0.0
G1 X27.4276 Z-0.2032
G3 X27.3028 Y118.162 Z-0.2037 I0.0 J-0.125
G2 X27.2977 Y118.1572 I-0.005 J0.0002
G3 X27.2974 I0.0 J-0.125
G2 X27.2931 Y118.1613 I0.0 J0.0043
G3 X27.2915 Y118.1766 I-0.1249 J-0.0055
G1 Y118.6159 Z-0.2049
G3 X27.1665 Y118.7409 Z-0.2054 I-0.125 J0.0
G1 X26.1977 Z-0.2078
G3 X26.0727 Y118.6159 Z-0.2083 I0.0 J-0.125
G1 Y118.1766 Z-0.2094
G3 X26.0711 Y118.1614 Z-0.2095 I0.1233 J-0.0208
G2 X26.0668 Y118.1572 I-0.0044 J0.0002
G3 X26.0664 I-0.0003 J-0.125
G2 X26.0615 Y118.1619 I0.0 J0.0049
G3 X25.9366 Y118.2808 Z-0.21 I-0.1249 J-0.0061
G1 X24.3908 Z-0.2139
G3 X24.2659 Y118.1615 Z-0.2144 I0.0 J-0.125
G2 X24.2615 Y118.1572 I-0.0044 J0.0002
G3 X24.2607 I-0.0002 J-0.125
G2 X24.2564 Y118.1615 I0.0 J0.0043
G3 Y118.162 I-0.125 J0.0005
G1 Y118.4011 Z-0.215
G3 X24.2599 Y118.4444 Z-0.2151 I-0.126 J0.0321
G1 Y118.6159 Z-0.2156
G3 X24.1349 Y118.7409 Z-0.2161 I-0.125 J0.0
G1 X23.1665 Z-0.2185
G3 X23.0415 Y118.6159 Z-0.219 I0.0 J-0.125
G1 Y118.1766 Z-0.2202
G3 X23.0399 Y118.1619 I0.1233 J-0.0208
G2 X23.035 Y118.1572 I-0.0049 J0.0002
G3 X23.0346 I0.0 J-0.125
G2 X23.0303 Y118.1614 I0.0 J0.0044
G3 X22.9054 Y118.2808 Z-0.2207 I-0.1249 J-0.0056
G1 X17.7012 Z-0.2339
G3 X17.5764 Y118.1619 Z-0.2344 I0.0 J-0.125
G2 X17.5714 Y118.1572 I-0.0049 J0.0002
G3 X17.571 I0.0 J-0.125
G2 X17.5668 Y118.1613 I0.0 J0.0043
G3 X17.5655 Y118.1746 Z-0.2345 I-0.1249 J-0.0055
G1 Y118.6159 Z-0.2356
G3 X17.4405 Y118.7409 Z-0.2361 I-0.125 J0.0
G1 X16.4717 Z-0.2385
G3 X16.3467 Y118.6159 Z-0.239 I0.0 J-0.125
G1 Y118.1784 Z-0.2402
G3 X16.3448 Y118.1614 I0.1229 J-0.0226
G2 X16.3403 Y118.1572 I-0.0044 J0.0002
G3 X16.3395 I-0.0002 J-0.125
G2 X16.3352 Y118.1614 I0.0 J0.0043
G3 X16.2103 Y118.2808 Z-0.2407 I-0.1249 J-0.0055
G1 X14.6644 Z-0.2446
G3 X14.5396 Y118.1614 Z-0.2451 I0.0 J-0.125
G2 X14.5352 Y118.1572 I-0.0044 J0.0002
G3 X14.5344 I-0.0003 J-0.125
G2 X14.53 Y118.1615 Z-0.2452 I0.0 J0.0043
G3 Y118.162 I-0.125 J0.0005
G1 Y118.4017 Z-0.2458
G3 X14.5339 Y118.4325 I-0.1211 J0.0308
G1 Y118.6159 Z-0.2463
G3 X14.4089 Y118.7409 Z-0.2468 I-0.125 J0.0
G1 X13.4405 Z-0.2493
G3 X13.3155 Y118.6159 Z-0.2498 I0.0 J-0.125
G1 Y118.1784 Z-0.2509
G3 X13.3136 Y118.1619 I0.1229 J-0.0226
G2 X13.3086 Y118.1572 I-0.005 J0.0002
G3 X13.3082 I-0.0001 J-0.125
G2 X13.3039 Y118.1613 Z-0.251 I0.0 J0.0042
G3 X13.179 Y118.2808 Z-0.2514 I-0.1249 J-0.0055
G1 X7.9748 Z-0.2646
G3 X7.85 Y118.1619 Z-0.2651 I0.0 J-0.125
G2 X7.845 Y118.1572 I-0.005 J0.0002
G3 X7.8446 I0.0 J-0.125
G2 X7.8404 Y118.1613 Z-0.2652 I0.0 J0.0042
G3 X7.8391 Y118.1747 I-0.1249 J-0.0054
G1 Y118.6159 Z-0.2663
G3 X7.7141 Y118.7409 Z-0.2668 I-0.125 J0.0
G1 X6.7453 Z-0.2693
G3 X6.6203 Y118.6159 Z-0.2698 I0.0 J-0.125
G1 Y118.1784 Z-0.2709
G3 X6.6184 Y118.1614 I0.1229 J-0.0226
G2 X6.614 Y118.1572 I-0.0044 J0.0002
G3 X6.6131 I-0.0003 J-0.125
G2 X6.6088 Y118.1614 Z-0.271 I0.0 J0.0043
G3 X6.4839 Y118.2808 Z-0.2714 I-0.1249 J-0.0055
G1 X4.938 Z-0.2754
G3 X4.8132 Y118.1614 Z-0.2759 I0.0 J-0.125
G2 X4.8088 Y118.1572 I-0.0044 J0.0002
G3 X4.808 I-0.0002 J-0.125
G2 X4.8037 Y118.1615 I0.0 J0.0043
G3 Y118.162 I-0.125 J0.0005
G1 Y118.3995 Z-0.2765
G2 X4.8046 Y118.4059 I0.0413 J-0.0025
G3 X4.8075 Y118.4328 Z-0.2766 I-0.1221 J0.027
G1 Y118.6159 Z-0.277
G3 X4.6825 Y118.7409 Z-0.2775 I-0.125 J0.0
G1 X3.714 Z-0.28
G3 X3.7134 I0.0 J-0.125
G3 X3.589 Y118.6159 Z-0.2805 I0.0006 J-0.125
G1 Y118.1784 Z-0.2815
G3 X3.5871 Y118.1615 Z-0.2816 I0.1229 J-0.0226
G2 X3.5826 Y118.1572 I-0.0045 J0.0002
G3 X3.5817 I-0.0005 J-0.125
G2 X3.5775 Y118.1613 I0.0 J0.0043
G3 X3.4526 Y118.2808 Z-0.2821 I-0.1249 J-0.0055
G1 X1.5033 Z-0.2869
G3 X1.3783 Y118.1558 Z-0.2873 I0.0 J-0.125
G1 Y116.544 Z-0.2913
G3 X1.4972 Y116.4191 Z-0.2918 I0.125 J0.0
G2 X1.5019 Y116.4142 I-0.0002 J-0.0049
G3 Y116.4139 I0.125 J-0.0001
G2 X1.4977 Y116.4095 I-0.0043 J0.0
G3 X1.4825 Y116.4079 I0.0055 J-0.1249
G1 X1.0432 Z-0.2929
G3 X0.9182 Y116.2829 Z-0.2934 I0.0 J-0.125
G1 Y115.3141 Z-0.2958
G3 X1.0432 Y115.1891 Z-0.2962 I0.125 J0.0
G1 X1.4825 Z-0.2973
G3 X1.4976 Y115.1875 I0.0208 J0.1233
G2 X1.5019 Y115.1831 Z-0.2974 I-0.0002 J-0.0045
G3 Y115.1824 I0.125 J-0.0002
G2 X1.4976 Y115.1779 I-0.0045 J0.0
G3 X1.3783 Y115.053 Z-0.2978 I0.0056 J-0.1249
G1 Y114.625 Z-0.2989
G1 Y114.125 Z-0.3
G1 F10.0 Z-0.3001
G1 F30.0 Y113.5072 Z-0.3016
G3 X1.4978 Y113.3823 Z-0.3021 I0.125 J0.0
G2 X1.5019 Y113.378 I-0.0002 J-0.0043
G3 Y113.3773 I0.125 J-0.0003
G2 X1.4974 Y113.3728 I-0.0045 J0.0
G3 X1.497 I-0.0004 J-0.125
G1 X1.258 Z-0.3027
G3 X1.2181 Y113.3763 Z-0.3028 I-0.0308 J-0.1212
G1 X1.0432 Z-0.3032
G3 X0.9182 Y113.2513 Z-0.3037 I0.0 J-0.125
G1 Y112.2829 Z-0.3061
G3 X1.0432 Y112.1579 Z-0.3066 I0.125 J0.0
G1 X1.4825 Z-0.3076
G3 X1.4971 Y112.1563 Z-0.3077 I0.0208 J0.1233
G2 X1.5019 Y112.1513 I-0.0002 J-0.005
G3 Y112.1512 I0.125 J0.0
G2 X1.4976 Y112.1467 I-0.0045 J0.0
G3 X1.3783 Y112.0218 Z-0.3082 I0.0057 J-0.1249
G1 Y108.0416 Z-0.3179
G3 X1.4971 Y107.9167 Z-0.3184 I0.125 J0.0
G2 X1.5019 Y107.9117 I-0.0002 J-0.005
G3 Y107.9116 I0.125 J0.0
G2 X1.4976 Y107.9071 I-0.0045 J0.0
G3 X1.4825 Y107.9055 Z-0.3185 I0.0057 J-0.1249
G1 X1.0432 Z-0.3195
G3 X0.9182 Y107.7805 Z-0.32 I0.0 J-0.125
G1 Y106.8117 Z-0.3224
G3 X1.0432 Y106.6867 Z-0.3229 I0.125 J0.0
G1 X1.4825 Z-0.3239
G3 X1.4978 Y106.6851 Z-0.324 I0.0208 J0.1233
G2 X1.5019 Y106.6808 I-0.0002 J-0.0043
G3 Y106.6801 I0.125 J-0.0003
G2 X1.4975 Y106.6754 I-0.0046 J0.0
G3 X1.3783 Y106.5506 Z-0.3245 I0.0057 J-0.1249
G1 Y105.0047 Z-0.3283
G3 X1.4977 Y104.8799 Z-0.3287 I0.125 J0.0
G2 X1.5019 Y104.8754 I-0.0002 J-0.0044
G3 Y104.8751 I0.125 J-0.0002
G2 X1.4972 Y104.8704 Z-0.3288 I-0.0047 J0.0
G3 X1.497 I-0.0002 J-0.125
G1 X1.2578 Z-0.3294
G3 X1.2183 Y104.8739 Z-0.3295 I-0.0306 J-0.1212
G1 X1.0432 Z-0.3299
G3 X0.9182 Y104.7489 Z-0.3304 I0.0 J-0.125
G1 Y103.7805 Z-0.3327
G3 X1.0432 Y103.6555 Z-0.3332 I0.125 J0.0
G1 X1.4825 Z-0.3343
G3 X1.4972 Y103.6539 I0.0208 J0.1233
G2 X1.5019 Y103.649 I-0.0002 J-0.0049
G3 Y103.6487 I0.125 J-0.0001
G2 X1.4977 Y103.6443 Z-0.3344 I-0.0044 J0.0
G3 X1.3783 Y103.5194 Z-0.3348 I0.0056 J-0.1249
G1 Y102.9375 Z-0.3362
G0 Z-0.3
G1 Y102.4375
G1 F10.0 Z-0.3375
G1 F30.0 Y101.9072 Z-0.3388
G3 X1.5033 Y101.7822 Z-0.3392 I0.125 J0.0
G1 X3.4526 Z-0.344
G3 X3.5775 Y101.9021 Z-0.3445 I0.0 J0.125
G2 X3.5818 Y101.9062 I0.0043 J-0.0002
G3 X3.5825 I0.0003 J0.125
G2 X3.5871 Y101.9018 I0.0 J-0.0046
G3 X3.5887 Y101.8864 Z-0.3446 I0.1249 J0.0054
G1 Y101.6572 Z-0.3451
G3 X3.7137 Y101.5322 Z-0.3456 I0.125 J0.0
G1 X4.679 Z-0.348
G3 X4.8036 Y101.6672 Z-0.3485 I0.0 J0.125
G1 Y101.9013 Z-0.349
G3 Y101.9016 I-0.125 J0.0
G2 X4.8082 Y101.9062 Z-0.3491 I0.0046 J0.0
G3 X4.8087 I0.0003 J0.125
G2 X4.8131 Y101.9019 I0.0 J-0.0044
G3 X4.938 Y101.7822 Z-0.3495 I0.1249 J0.0053
G1 X6.4838 Z-0.3533
G3 X6.6087 Y101.9015 Z-0.3538 I0.0 J0.125
G2 X6.6136 Y101.9062 I0.0049 J-0.0002
G3 X6.6138 I0.0001 J0.125
G2 X6.6183 Y101.9018 I0.0 J-0.0046
G3 X6.62 Y101.8864 Z-0.3539 I0.1249 J0.0054
G1 Y101.6572 Z-0.3544
G3 X6.745 Y101.5322 Z-0.3549 I0.125 J0.0
G1 X7.7137 Z-0.3573
G3 X7.8387 Y101.6572 Z-0.3578 I0.0 J0.125
G1 Y101.8864 Z-0.3583
G3 X7.8403 Y101.9021 Z-0.3584 I-0.1233 J0.0208
G2 X7.8446 Y101.9062 I0.0042 J-0.0002
G3 X7.8454 I0.0004 J0.125
G2 X7.8499 Y101.9018 I0.0 J-0.0045
G3 X7.9748 Y101.7822 Z-0.3589 I0.1249 J0.0054
G1 X10.125 Z-0.3641
G0 Z-0.3
G1 X10.625
G1 F10.0 Z-0.3653
G1 F30.0 X13.179 Z-0.3716
G3 X13.3039 Y101.9021 Z-0.3721 I0.0 J0.125
G2 X13.3081 Y101.9062 I0.0042 J-0.0002
G3 X13.3089 I0.0004 J0.125
G2 X13.3135 Y101.9019 I0.0 J-0.0045
G3 X13.3151 Y101.8863 I0.1249 J0.0054
G1 Y101.6572 Z-0.3727
G3 X13.4401 Y101.5322 Z-0.3732 I0.125 J0.0
G1 X14.4054 Z-0.3755
G3 X14.53 Y101.6671 Z-0.376 I0.0 J0.125
G1 Y101.9013 Z-0.3766
G3 Y101.9016 I-0.125 J0.0
G2 X14.5346 Y101.9062 I0.0046 J0.0
G3 X14.5352 I0.0003 J0.125
G2 X14.5395 Y101.902 I0.0 J-0.0043
G3 X14.6644 Y101.7822 Z-0.3771 I0.1249 J0.0052
G1 X16.2102 Z-0.3809
G3 X16.3351 Y101.9014 Z-0.3814 I0.0 J0.125
G2 X16.34 Y101.9062 I0.0049 J-0.0002
G3 X16.3402 I0.0001 J0.125
G2 X16.3447 Y101.9019 I0.0 J-0.0045
G3 X16.3464 Y101.8863 I0.1249 J0.0054
G1 Y101.6572 Z-0.382
G3 X16.4714 Y101.5322 Z-0.3825 I0.125 J0.0
G1 X17.4401 Z-0.3849
G3 X17.5651 Y101.6572 Z-0.3853 I0.0 J0.125
G1 Y101.8865 Z-0.3859
G3 X17.5667 Y101.9021 I-0.1233 J0.0207
G2 X17.571 Y101.9062 I0.0043 J-0.0002
G3 X17.5718 I0.0003 J0.125
G2 X17.5763 Y101.9018 Z-0.386 I0.0 J-0.0045
G3 X17.7012 Y101.7822 Z-0.3864 I0.1249 J0.0054
G1 X21.5 Z-0.3957
G0 Z-0.3
G1 X22.0
G1 F10.0 Z-0.397
G1 F30.0 X22.9054 Z-0.3992
G3 X23.0303 Y101.9021 Z-0.3996 I0.0 J0.125
G2 X23.0346 Y101.9062 Z-0.3997 I0.0043 J-0.0002
G3 X23.0353 I0.0003 J0.125
G2 X23.0399 Y101.9018 I0.0 J-0.0045
G3 X23.0415 Y101.8864 I0.1249 J0.0054
G1 Y101.6572 Z-0.4003
G3 X23.1665 Y101.5322 Z-0.4007 I0.125 J0.0
G1 X24.1318 Z-0.4031
G3 X24.2564 Y101.6669 Z-0.4036 I0.0 J0.125
G1 Y101.9013 Z-0.4042
G3 Y101.9016 I-0.125 J0.0
G2 X24.2609 Y101.9062 I0.0045 J0.0
G3 X24.2615 I0.0003 J0.125
G2 X24.2659 Y101.902 I0.0 J-0.0044
G3 X24.3908 Y101.7822 Z-0.4047 I0.1249 J0.0053
G1 X25.9366 Z-0.4085
G3 X26.0615 Y101.9015 Z-0.4089 I0.0 J0.125
G2 X26.0664 Y101.9062 Z-0.409 I0.0049 J-0.0002
G3 X26.0666 I0.0001 J0.125
G2 X26.0711 Y101.9018 I0.0 J-0.0045
G3 X26.0727 Y101.8864 I0.1249 J0.0054
G1 Y101.6572 Z-0.4096
G3 X26.1977 Y101.5322 Z-0.4101 I0.125 J0.0
G1 X27.1665 Z-0.4124
G3 X27.2915 Y101.6572 Z-0.4129 I0.0 J0.125
G1 Y101.8864 Z-0.4135
G3 X27.2931 Y101.9021 I-0.1233 J0.0208
G2 X27.2974 Y101.9062 I0.0043 J-0.0002
G3 X27.2982 I0.0003 J0.125
G2 X27.3027 Y101.9018 I0.0 J-0.0045
G3 X27.4276 Y101.7822 Z-0.414 I0.1249 J0.0054
G1 X29.3769 Z-0.4188
G3 X29.5019 Y101.9072 Z-0.4193 I0.0 J0.125
G1 Y103.5194 Z-0.4232
G3 X29.3825 Y103.6443 Z-0.4237 I-0.125 J0.0
G2 X29.3783 Y103.6487 I0.0002 J0.0044
G3 Y103.6495 I-0.125 J0.0002
G2 X29.3825 Y103.6539 I0.0044 J0.0
G3 X29.3977 Y103.6555 I-0.0056 J0.1249
G1 X29.837 Z-0.4248
G3 X29.962 Y103.7805 Z-0.4253 I0.0 J0.125
G1 Y104.7489 Z-0.4277
G3 X29.837 Y104.8739 Z-0.4281 I-0.125 J0.0
G1 X29.6619 Z-0.4286
G3 X29.6372 Y104.8732 I-0.0089 J-0.1247
G1 X29.6152 Y104.8704 Z-0.4287
G1 X29.3831 Z-0.4293
G3 X29.3827 I0.0 J-0.125
G2 X29.3783 Y104.8748 I0.0 J0.0044
G3 Y104.8757 I-0.125 J0.0004
G2 X29.3822 Y104.8799 I0.0041 J0.0
G3 X29.5019 Y105.0047 Z-0.4298 I-0.0053 J0.1249
G1 Y106.5506 Z-0.4335
G3 X29.3831 Y106.6754 Z-0.434 I-0.125 J0.0
G2 X29.3783 Y106.6805 I0.0003 J0.0051
G3 Y106.6807 I-0.125 J0.0
G2 X29.3825 Y106.6851 I0.0044 J0.0
G3 X29.3977 Y106.6867 Z-0.4341 I-0.0056 J0.1249
G1 X29.837 Z-0.4352
G3 X29.962 Y106.8117 Z-0.4356 I0.0 J0.125
G1 Y107.7805 Z-0.438
G3 X29.837 Y107.9055 Z-0.4385 I-0.125 J0.0
G1 X29.3977 Z-0.4396
G3 X29.3825 Y107.9071 I-0.0208 J-0.1233
G2 X29.3783 Y107.9114 I0.0002 J0.0044
G3 Y107.9118 I-0.125 J0.0002
G2 X29.383 Y107.9167 I0.0049 J0.0
G3 X29.5019 Y108.0416 Z-0.4401 I-0.0061 J0.1249
G1 Y110.125 Z-0.4452
G0 Z-0.3
G1 Y110.625
G1 F10.0 Z-0.4464
G1 F30.0 Y112.0218 Z-0.4498
G3 X29.3825 Y112.1467 Z-0.4503 I-0.125 J0.0
G2 X29.3783 Y112.151 I0.0002 J0.0044
G3 Y112.1514 I-0.125 J0.0002
G2 X29.383 Y112.1563 I0.0049 J0.0
G3 X29.3977 Y112.1579 Z-0.4504 I-0.0061 J0.1249
G1 X29.837 Z-0.4515
G3 X29.962 Y112.2829 Z-0.4519 I0.0 J0.125
G1 Y113.2513 Z-0.4543
G3 X29.837 Y113.3763 Z-0.4548 I-0.125 J0.0
G1 X29.6621 Z-0.4552
G3 X29.637 Y113.3756 Z-0.4553 I-0.0091 J-0.1247
G1 X29.6151 Y113.3728
G1 X29.3831 Z-0.4559
G3 X29.3829 I0.0 J-0.125
G2 X29.3783 Y113.3774 I0.0 J0.0046
G3 Y113.3779 I-0.125 J0.0003
G2 X29.3825 Y113.3823 I0.0044 J0.0
G3 X29.5019 Y113.5072 Z-0.4564 I-0.0056 J0.1249
G1 Y115.053 Z-0.4602
G3 X29.383 Y115.1779 Z-0.4606 I-0.125 J0.0
G2 X29.3783 Y115.1829 Z-0.4607 I0.0002 J0.005
G3 Y115.1833 I-0.125 J0.0
G2 X29.3823 Y115.1875 I0.0042 J0.0
G3 X29.3977 Y115.1891 I-0.0054 J0.1249
G1 X29.837 Z-0.4618
G3 X29.962 Y115.3141 Z-0.4623 I0.0 J0.125
G1 Y116.2829 Z-0.4646
G3 X29.837 Y116.4079 Z-0.4651 I-0.125 J0.0
G1 X29.3977 Z-0.4662
G3 X29.3826 Y116.4095 I-0.0208 J-0.1233
G2 X29.3783 Y116.414 Z-0.4663 I0.0002 J0.0045
G3 Y116.4148 I-0.125 J0.0001
G2 X29.3824 Y116.4191 I0.0043 J0.0
G3 X29.5019 Y116.544 Z-0.4667 I-0.0055 J0.1249
G1 Y117.0625 Z-0.468
G0 Z-0.3
G1 Y117.5625
G1 F10.0 Z-0.4692
G1 F30.0 Y118.1558 Z-0.4707
G3 X29.3769 Y118.2808 Z-0.4712 I-0.125 J0.0
G1 X27.4276 Z-0.4759
G3 X27.3028 Y118.162 Z-0.4764 I0.0 J-0.125
G2 X27.2977 Y118.1572 I-0.005 J0.0002
G3 X27.2974 I0.0 J-0.125
G2 X27.2931 Y118.1613 I0.0 J0.0043
G3 X27.2915 Y118.1766 Z-0.4765 I-0.1249 J-0.0055
G1 Y118.6159 Z-0.4775
G3 X27.1665 Y118.7409 Z-0.478 I-0.125 J0.0
G1 X26.1977 Z-0.4804
G3 X26.0727 Y118.6159 Z-0.4809 I0.0 J-0.125
G1 Y118.1766 Z-0.4819
G3 X26.0711 Y118.1614 Z-0.482 I0.1233 J-0.0208
G2 X26.0668 Y118.1572 I-0.0044 J0.0002
G3 X26.0664 I-0.0003 J-0.125
G2 X26.0615 Y118.1619 I0.0 J0.0049
G3 X25.9366 Y118.2808 Z-0.4825 I-0.1249 J-0.0061
G1 X24.3908 Z-0.4863
G3 X24.2659 Y118.1615 Z-0.4867 I0.0 J-0.125
G2 X24.2615 Y118.1572 Z-0.4868 I-0.0044 J0.0002
G3 X24.2607 I-0.0002 J-0.125
G2 X24.2564 Y118.1615 I0.0 J0.0043
G3 Y118.162 I-0.125 J0.0005
G1 Y118.4011 Z-0.4874
G3 X24.2599 Y118.4444 Z-0.4875 I-0.126 J0.0321
G1 Y118.6159 Z-0.4879
G3 X24.1349 Y118.7409 Z-0.4884 I-0.125 J0.0
G1 X23.1665 Z-0.4907
G3 X23.0415 Y118.6159 Z-0.4912 I0.0 J-0.125
G1 Y118.1766 Z-0.4923
G3 X23.0399 Y118.1619 I0.1233 J-0.0208
G2 X23.035 Y118.1572 I-0.0049 J0.0002
G3 X23.0346 I0.0 J-0.125
G2 X23.0303 Y118.1614 Z-0.4924 I0.0 J0.0044
G3 X22.9054 Y118.2808 Z-0.4928 I-0.1249 J-0.0056
G1 X20.3338 Z-0.4991
G0 Z-0.3
G1 X19.8338
G1 F10.0 Z-0.5003
G1 F30.0 X17.7012 Z-0.5056
G3 X17.5764 Y118.1619 Z-0.506 I0.0 J-0.125
G2 X17.5714 Y118.1572 I-0.0049 J0.0002
G3 X17.571 I0.0 J-0.125
G2 X17.5668 Y118.1613 Z-0.5061 I0.0 J0.0043
G3 X17.5655 Y118.1746 I-0.1249 J-0.0055
G1 Y118.6159 Z-0.5072
G3 X17.4405 Y118.7409 Z-0.5077 I-0.125 J0.0
G1 X16.4717 Z-0.51
G3 X16.3467 Y118.6159 Z-0.5105 I0.0 J-0.125
G1 Y118.1784 Z-0.5116
G3 X16.3448 Y118.1614 I0.1229 J-0.0226
G2 X16.3403 Y118.1572 I-0.0044 J0.0002
G3 X16.3395 I-0.0002 J-0.125
G2 X16.3352 Y118.1614 Z-0.5117 I0.0 J0.0043
G3 X16.2103 Y118.2808 Z-0.5121 I-0.1249 J-0.0055
G1 X14.6644 Z-0.5159
G3 X14.5396 Y118.1614 Z-0.5164 I0.0 J-0.125
G2 X14.5352 Y118.1572 I-0.0044 J0.0002
G3 X14.5344 I-0.0003 J-0.125
G2 X14.53 Y118.1615 I0.0 J0.0043
G3 Y118.162 I-0.125 J0.0005
G1 Y118.4017 Z-0.517
G3 X14.5339 Y118.4325 Z-0.5171 I-0.1211 J0.0308
G1 Y118.6159 Z-0.5175
G3 X14.4089 Y118.7409 Z-0.518 I-0.125 J0.0
G1 X13.4405 Z-0.5204
G3 X13.3155 Y118.6159 Z-0.5208 I0.0 J-0.125
G1 Y118.1784 Z-0.5219
G3 X13.3136 Y118.1619 Z-0.522 I0.1229 J-0.0226
G2 X13.3086 Y118.1572 I-0.005 J0.0002
G3 X13.3082 I-0.0001 J-0.125
G2 X13.3039 Y118.1613 I0.0 J0.0042
G3 X13.179 Y118.2808 Z-0.5225 I-0.1249 J-0.0055
G1 X9.0217 Z-0.5326
G0 Z-0.3
G1 X8.5217
G1 F10.0 Z-0.5339
G1 F30.0 X7.9748 Z-0.5352
G3 X7.85 Y118.1619 Z-0.5357 I0.0 J-0.125
G2 X7.845 Y118.1572 I-0.005 J0.0002
G3 X7.8446 I0.0 J-0.125
G2 X7.8404 Y118.1613 I0.0 J0.0042
G3 X7.8391 Y118.1747 I-0.1249 J-0.0054
G1 Y118.6159 Z-0.5368
G3 X7.7141 Y118.7409 Z-0.5373 I-0.125 J0.0
G1 X6.7453 Z-0.5397
G3 X6.6203 Y118.6159 Z-0.5401 I0.0 J-0.125
G1 Y118.1784 Z-0.5412
G3 X6.6184 Y118.1614 Z-0.5413 I0.1229 J-0.0226
G2 X6.614 Y118.1572 I-0.0044 J0.0002
G3 X6.6131 I-0.0003 J-0.125
G2 X6.6088 Y118.1614 I0.0 J0.0043
G3 X6.4839 Y118.2808 Z-0.5418 I-0.1249 J-0.0055
G1 X4.938 Z-0.5455
G3 X4.8132 Y118.1614 Z-0.546 I0.0 J-0.125
G2 X4.8088 Y118.1572 I-0.0044 J0.0002
G3 X4.808 I-0.0002 J-0.125
G2 X4.8037 Y118.1615 I0.0 J0.0043
G3 Y118.162 I-0.125 J0.0005
G1 Y118.3995 Z-0.5466
G2 X4.8046 Y118.4059 I0.0413 J-0.0025
G3 X4.8075 Y118.4328 Z-0.5467 I-0.1221 J0.027
G1 Y118.6159 Z-0.5471
G3 X4.6825 Y118.7409 Z-0.5476 I-0.125 J0.0
G1 X3.714 Z-0.55
G3 X3.7134 I0.0 J-0.125
G3 X3.589 Y118.6159 I0.0006 J-0.125
G1 Y118.1784
G3 X3.5871 Y118.1615 I0.1229 J-0.0226
G2 X3.5826 Y118.1572 I-0.0045 J0.0002
G3 X3.5817 I-0.0005 J-0.125
G2 X3.5775 Y118.1613 I0.0 J0.0043
G3 X3.4526 Y118.2808 I-0.1249 J-0.0055
G1 X1.5033
G3 X1.3783 Y118.1558 I0.0 J-0.125
G1 Y116.544
G3 X1.4972 Y116.4191 I0.125 J0.0
G2 X1.5019 Y116.4142 I-0.0002 J-0.0049
G3 Y116.4139 I0.125 J-0.0001
G2 X1.4977 Y116.4095 I-0.0043 J0.0
G3 X1.4825 Y116.4079 I0.0055 J-0.1249
G1 X1.0432
G3 X0.9182 Y116.2829 I0.0 J-0.125
G1 Y115.3141
G3 X1.0432 Y115.1891 I0.125 J0.0
G1 X1.4825
G3 X1.4976 Y115.1875 I0.0208 J0.1233
G2 X1.5019 Y115.1831 I-0.0002 J-0.0045
G3 Y115.1824 I0.125 J-0.0002
G2 X1.4976 Y115.1779 I-0.0045 J0.0
G3 X1.3783 Y115.053 I0.0056 J-0.1249
G1 Y114.625
G0 Z-0.3
G1 Y114.125
G1 F10.0 Z-0.55
G1 F30.0 Y113.5072
G3 X1.4978 Y113.3823 I0.125 J0.0
G2 X1.5019 Y113.378 I-0.0002 J-0.0043
G3 Y113.3773 I0.125 J-0.0003
G2 X1.4974 Y113.3728 I-0.0045 J0.0
G3 X1.497 I-0.0004 J-0.125
G1 X1.258
G3 X1.2181 Y113.3763 I-0.0308 J-0.1212
G1 X1.0432
G3 X0.9182 Y113.2513 I0.0 J-0.125
G1 Y112.2829
G3 X1.0432 Y112.1579 I0.125 J0.0
G1 X1.4825
G3 X1.4971 Y112.1563 I0.0208 J0.1233
G2 X1.5019 Y112.1513 I-0.0002 J-0.005
G3 Y112.1512 I0.125 J0.0
G2 X1.4976 Y112.1467 I-0.0045 J0.0
G3 X1.3783 Y112.0218 I0.0057 J-0.1249
G1 Y108.0416
G3 X1.4971 Y107.9167 I0.125 J0.0
G2 X1.5019 Y107.9117 I-0.0002 J-0.005
G3 Y107.9116 I0.125 J0.0
G2 X1.4976 Y107.9071 I-0.0045 J0.0
G3 X1.4825 Y107.9055 I0.0057 J-0.1249
G1 X1.0432
G3 X0.9182 Y107.7805 I0.0 J-0.125
G1 Y106.8117
G3 X1.0432 Y106.6867 I0.125 J0.0
G1 X1.4825
G3 X1.4978 Y106.6851 I0.0208 J0.1233
G2 X1.5019 Y106.6808 I-0.0002 J-0.0043
G3 Y106.6801 I0.125 J-0.0003
G2 X1.4975 Y106.6754 I-0.0046 J0.0
G3 X1.3783 Y106.5506 I0.0057 J-0.1249
G1 Y105.0047
G3 X1.4977 Y104.8799 I0.125 J0.0
G2 X1.5019 Y104.8754 I-0.0002 J-0.0044
G3 Y104.8751 I0.125 J-0.0002
G2 X1.4972 Y104.8704 I-0.0047 J0.0
G3 X1.497 I-0.0002 J-0.125
G1 X1.2578
G3 X1.2183 Y104.8739 I-0.0306 J-0.1212
G1 X1.0432
G3 X0.9182 Y104.7489 I0.0 J-0.125
G1 Y103.7805
G3 X1.0432 Y103.6555 I0.125 J0.0
G1 X1.4825
G3 X1.4972 Y103.6539 I0.0208 J0.1233
G2 X1.5019 Y103.649 I-0.0002 J-0.0049
G3 Y103.6487 I0.125 J-0.0001
G2 X1.4977 Y103.6443 I-0.0044 J0.0
G3 X1.3783 Y103.5194 I0.0056 J-0.1249
G1 Y102.9375
G0 Z-0.3
G1 Y102.4375
G1 F10.0 Z-0.55
G1 F30.0 Y101.9072
G3 X1.5033 Y101.7822 I0.125 J0.0
G1 X3.4526
G3 X3.5775 Y101.9021 I0.0 J0.125
G2 X3.5818 Y101.9062 I0.0043 J-0.0002
G3 X3.5825 I0.0003 J0.125
G2 X3.5871 Y101.9018 I0.0 J-0.0046
G3 X3.5887 Y101.8864 I0.1249 J0.0054
G1 Y101.6572
G3 X3.7137 Y101.5322 I0.125 J0.0
G1 X4.679
G3 X4.8036 Y101.6672 I0.0 J0.125
G1 Y101.9013
G3 Y101.9016 I-0.125 J0.0
G2 X4.8082 Y101.9062 I0.0046 J0.0
G3 X4.8087 I0.0003 J0.125
G2 X4.8131 Y101.9019 I0.0 J-0.0044
G3 X4.938 Y101.7822 I0.1249 J0.0053
G1 X6.4838
G3 X6.6087 Y101.9015 I0.0 J0.125
G2 X6.6136 Y101.9062 I0.0049 J-0.0002
G3 X6.6138 I0.0001 J0.125
G2 X6.6183 Y101.9018 I0.0 J-0.0046
G3 X6.62 Y101.8864 I0.1249 J0.0054
G1 Y101.6572
G3 X6.745 Y101.5322 I0.125 J0.0
G1 X7.7137
G3 X7.8387 Y101.6572 I0.0 J0.125
G1 Y101.8864
G3 X7.8403 Y101.9021 I-0.1233 J0.0208
G2 X7.8446 Y101.9062 I0.0042 J-0.0002
G3 X7.8454 I0.0004 J0.125
G2 X7.8499 Y101.9018 I0.0 J-0.0045
G3 X7.9748 Y101.7822 I0.1249 J0.0054
G1 X10.125
G0 Z-0.3
G1 X10.625
G1 F10.0 Z-0.55
G1 F30.0 X13.179
G3 X13.3039 Y101.9021 I0.0 J0.125
G2 X13.3081 Y101.9062 I0.0042 J-0.0002
G3 X13.3089 I0.0004 J0.125
G2 X13.3135 Y101.9019 I0.0 J-0.0045
G3 X13.3151 Y101.8863 I0.1249 J0.0054
G1 Y101.6572
G3 X13.4401 Y101.5322 I0.125 J0.0
G1 X14.4054
G3 X14.53 Y101.6671 I0.0 J0.125
G1 Y101.9013
G3 Y101.9016 I-0.125 J0.0
G2 X14.5346 Y101.9062 I0.0046 J0.0
G3 X14.5352 I0.0003 J0.125
G2 X14.5395 Y101.902 I0.0 J-0.0043
G3 X14.6644 Y101.7822 I0.1249 J0.0052
G1 X16.2102
G3 X16.3351 Y101.9014 I0.0 J0.125
G2 X16.34 Y101.9062 I0.0049 J-0.0002
G3 X16.3402 I0.0001 J0.125
G2 X16.3447 Y101.9019 I0.0 J-0.0045
G3 X16.3464 Y101.8863 I0.1249 J0.0054
G1 Y101.6572
G3 X16.4714 Y101.5322 I0.125 J0.0
G1 X17.4401
G3 X17.5651 Y101.6572 I0.0 J0.125
G1 Y101.8865
G3 X17.5667 Y101.9021 I-0.1233 J0.0207
G2 X17.571 Y101.9062 I0.0043 J-0.0002
G3 X17.5718 I0.0003 J0.125
G2 X17.5763 Y101.9018 I0.0 J-0.0045
G3 X17.7012 Y101.7822 I0.1249 J0.0054
G1 X21.5
G0 Z-0.3
G1 X22.0
G1 F10.0 Z-0.55
G1 F30.0 X22.9054
G3 X23.0303 Y101.9021 I0.0 J0.125
G2 X23.0346 Y101.9062 I0.0043 J-0.0002
