( Made using CamBam - http://www.cambam.co.uk )
( dust_bracket_r2 8/15/2012 10:45:54 PM )
( T0 : 0.25 )
G20 G90 G91.1 G64 G40
G0 Z1.0
( T0 : 0.25 )
T0 M6
( Profile7 )
G17
M3 S1000
G0 X5.0 Y8.75
G1 F10.0 Z-0.25
G2 F30.0 X2.5625 Y7.3427 I-1.625 J0.0
G2 Y10.1573 I0.8125 J1.4073
G2 X5.0 Y8.75 I0.8125 J-1.4073
G1 F10.0 Z-0.5
G2 F30.0 X4.8905 Y8.1637 I-1.625 J0.0
G2 X4.7823 Y7.9375 Z-0.25 I-1.5155 J0.5863
G2 X4.6405 Y7.7307 Z-0.5 I-1.4073 J0.8125
G2 X3.625 Y7.1443 I-1.2655 J1.0193
G2 X3.375 Y7.125 Z-0.25 I-0.25 J1.6057
G2 X3.125 Y7.1443 Z-0.5 I0.0 J1.625
G2 X2.5625 Y7.3427 I0.25 J1.6057
G2 X2.1095 Y7.7307 I0.8125 J1.4073
G2 X1.9677 Y7.9375 Z-0.25 I1.2655 J1.0193
G2 X1.8595 Y8.1637 Z-0.5 I1.4073 J0.8125
G2 Y9.3363 I1.5155 J0.5863
G2 X1.9677 Y9.5625 Z-0.25 I1.5155 J-0.5863
G2 X2.1095 Y9.7693 Z-0.5 I1.4073 J-0.8125
G2 X2.5625 Y10.1573 I1.2655 J-1.0193
G2 X3.125 Y10.3557 I0.8125 J-1.4073
G2 X3.375 Y10.375 Z-0.25 I0.25 J-1.6057
G2 X3.625 Y10.3557 Z-0.5 I0.0 J-1.625
G2 X4.6405 Y9.7693 I-0.25 J-1.6057
G2 X4.7823 Y9.5625 Z-0.25 I-1.2655 J-1.0193
G2 X4.8905 Y9.3363 Z-0.5 I-1.4073 J-0.8125
G2 X5.0 Y8.75 I-1.5155 J-0.5863
( Profile5 )
S1000
G0 Z1.0
G0 X1.75 Y0.25
G1 F10.0 Z-0.25
G1 F30.0 Y2.75
G2 X5.0 I1.625 J0.0
G0 Z1.0
G0 X1.75
G1 F10.0 Z-0.5
G2 F30.0 X1.8595 Y3.3363 I1.625 J0.0
G2 X1.9677 Y3.5625 Z-0.25 I1.5155 J-0.5863
G2 X2.1095 Y3.7693 Z-0.5 I1.4073 J-0.8125
G2 X3.125 Y4.3557 I1.2655 J-1.0193
G2 X3.375 Y4.375 Z-0.25 I0.25 J-1.6057
G2 X3.625 Y4.3557 Z-0.5 I0.0 J-1.625
G2 X4.6405 Y3.7693 I-0.25 J-1.6057
G2 X4.7823 Y3.5625 Z-0.25 I-1.2655 J-1.0193
G2 X4.8905 Y3.3363 Z-0.5 I-1.4073 J-0.8125
G2 X5.0 Y2.75 I-1.5155 J-0.5863
G0 Z1.0
G0 X1.75 Y0.25
G1 F10.0 Z-0.5
G1 F30.0 Y0.4167
G1 Y0.4375 Z-0.4792
G1 Y0.6667 Z-0.25
G1 Y0.6875
G1 Y0.9167 Z-0.4792
G1 Y0.9375 Z-0.5
G1 Y1.5
G1 Y1.75 Z-0.25
G1 Y2.0 Z-0.5
G1 Y2.75
( Profile6 )
S1000
G0 Z1.0
G0 X5.0
G1 F10.0 Z-0.25
G1 F30.0 Y2.0625
G1 Y1.8125 Z-0.2
G1 Y1.5625 Z-0.25
G1 Y0.9167
G1 Y0.6667 Z-0.2
G1 Y0.4167 Z-0.25
G1 Y0.25
G0 Z1.0
G0 Y2.75
G1 F10.0 Z-0.5
G1 F30.0 Y2.0625
G1 Y1.8125 Z-0.2
G1 Y1.5625 Z-0.5
G1 Y0.9167
G1 Y0.6667 Z-0.2
G1 Y0.4167 Z-0.5
G1 Y0.25
( Profile1 )
S1000
G0 Z1.0
G0 X0.25 Y0.125
G1 F10.0 Z-0.25
G1 F30.0 X6.5
G0 Z1.0
G0 X0.25
G1 F10.0 Z-0.5
G1 F30.0 X6.5
( Profile2 )
S1000
G0 Z1.0
G0 X0.125 Y11.5
G1 F10.0 Z-0.25
G1 F30.0 Y10.8125
G1 Y10.5625 Z-0.2
G1 Y10.3125 Z-0.25
G1 Y9.0
G1 Y8.9375 Z-0.2375
G1 Y8.75 Z-0.2
G1 Y8.6875
G1 Y8.5 Z-0.2375
G1 Y8.4375 Z-0.25
G1 Y5.1875
G1 Y5.125 Z-0.2375
G1 Y4.9375 Z-0.2
G1 Y4.875
G1 Y4.6875 Z-0.2375
G1 Y4.625 Z-0.25
G1 Y1.4375
G1 Y1.1875 Z-0.2
G1 Y0.9375 Z-0.25
G1 Y0.25
G0 Z1.0
G0 Y11.5
G1 F10.0 Z-0.5
G1 F30.0 Y10.8125
G1 Y10.5625 Z-0.2
G1 Y10.3125 Z-0.5
G1 Y9.0
G1 Y8.9375 Z-0.425
G1 Y8.75 Z-0.2
G1 Y8.6875
G1 Y8.5 Z-0.425
G1 Y8.4375 Z-0.5
G1 Y5.1875
G1 Y5.125 Z-0.425
G1 Y4.9375 Z-0.2
G1 Y4.875
G1 Y4.6875 Z-0.425
G1 Y4.625 Z-0.5
G1 Y1.4375
G1 Y1.1875 Z-0.2
G1 Y0.9375 Z-0.5
G1 Y0.25
( Profile3 )
S1000
G0 Z1.0
G0 X6.5 Y11.625
G1 F10.0 Z-0.25
G1 F30.0 X5.75
G1 X5.7083 Z-0.2417
G1 X5.5 Z-0.2
G1 X5.4583
G1 X5.25 Z-0.2417
G1 X5.2083 Z-0.25
G1 X1.5417
G1 X1.2917 Z-0.2
G1 X1.0417 Z-0.25
G1 X0.25
G0 Z1.0
G0 X6.5
G1 F10.0 Z-0.5
G1 F30.0 X5.75
G1 X5.7083 Z-0.45
G1 X5.5 Z-0.2
G1 X5.4583
G1 X5.25 Z-0.45
G1 X5.2083 Z-0.5
G1 X1.5417
G1 X1.2917 Z-0.2
G1 X1.0417 Z-0.5
G1 X0.25
( Profile4 )
S1000
G0 Z1.0
G0 X6.625 Y0.25
G1 F10.0 Z-0.25
G1 F30.0 Y0.9375
G1 Y1.1875 Z-0.2
G1 Y1.4375 Z-0.25
G1 Y2.75
G1 Y2.8125 Z-0.2375
G1 Y3.0 Z-0.2
G1 Y3.0625
G1 Y3.25 Z-0.2375
G1 Y3.3125 Z-0.25
G1 Y6.5625
G1 Y6.8125 Z-0.2
G1 Y7.0625 Z-0.25
G1 Y10.3125
G1 Y10.5625 Z-0.2
G1 Y10.8125 Z-0.25
G1 Y11.5
G0 Z1.0
G0 Y0.25
G1 F10.0 Z-0.5
G1 F30.0 Y0.9375
G1 Y1.1875 Z-0.2
G1 Y1.4375 Z-0.5
G1 Y2.75
G1 Y2.8125 Z-0.425
G1 Y3.0 Z-0.2
G1 Y3.0625
G1 Y3.25 Z-0.425
G1 Y3.3125 Z-0.5
G1 Y6.5625
G1 Y6.8125 Z-0.2
G1 Y7.0625 Z-0.5
G1 Y10.3125
G1 Y10.5625 Z-0.2
G1 Y10.8125 Z-0.5
G1 Y11.5
( Drill1 )
S1000
G0 Z1.0
G0 X0.75 Y0.75
G0 Z1.0
G0 X0.8125 Y0.75
G1 F10.0 Z0.0
G2 F30.0 X0.7188 Y0.6959 Z-0.0833 I-0.0625 J0.0
G2 Y0.8041 Z-0.1667 I0.0313 J0.0541
G2 X0.8125 Y0.75 Z-0.25 I0.0313 J-0.0541
G2 X0.7188 Y0.6959 Z-0.3333 I-0.0625 J0.0
G2 Y0.8041 Z-0.4167 I0.0312 J0.0541
G2 X0.8125 Y0.75 Z-0.5 I0.0313 J-0.0541
G2 X0.7188 Y0.6959 I-0.0625 J0.0
G2 Y0.8041 I0.0312 J0.0541
G2 X0.8125 Y0.75 I0.0313 J-0.0541
G0 Z1.0
G0 Y2.75
G1 F10.0 Z0.0
G2 F30.0 X0.7188 Y2.6959 Z-0.0833 I-0.0625 J0.0
G2 Y2.8041 Z-0.1667 I0.0313 J0.0541
G2 X0.8125 Y2.75 Z-0.25 I0.0313 J-0.0541
G2 X0.7188 Y2.6959 Z-0.3333 I-0.0625 J0.0
G2 Y2.8041 Z-0.4167 I0.0313 J0.0541
G2 X0.8125 Y2.75 Z-0.5 I0.0313 J-0.0541
G2 X0.7188 Y2.6959 I-0.0625 J0.0
G2 Y2.8041 I0.0313 J0.0541
G2 X0.8125 Y2.75 I0.0313 J-0.0541
G0 Z1.0
G0 Y4.25
G1 F10.0 Z0.0
G2 F30.0 X0.7188 Y4.1959 Z-0.0833 I-0.0625 J0.0
G2 Y4.3041 Z-0.1667 I0.0312 J0.0541
G2 X0.8125 Y4.25 Z-0.25 I0.0313 J-0.0541
G2 X0.7188 Y4.1959 Z-0.3333 I-0.0625 J0.0
G2 Y4.3041 Z-0.4167 I0.0312 J0.0541
G2 X0.8125 Y4.25 Z-0.5 I0.0313 J-0.0541
G2 X0.7188 Y4.1959 I-0.0625 J0.0
G2 Y4.3041 I0.0312 J0.0541
G2 X0.8125 Y4.25 I0.0313 J-0.0541
G0 Z1.0
G0 Y5.75
G1 F10.0 Z0.0
G2 F30.0 X0.7188 Y5.6959 Z-0.0833 I-0.0625 J0.0
G2 Y5.8041 Z-0.1667 I0.0312 J0.0541
G2 X0.8125 Y5.75 Z-0.25 I0.0313 J-0.0541
G2 X0.7188 Y5.6959 Z-0.3333 I-0.0625 J0.0
G2 Y5.8041 Z-0.4167 I0.0312 J0.0541
G2 X0.8125 Y5.75 Z-0.5 I0.0313 J-0.0541
G2 X0.7188 Y5.6959 I-0.0625 J0.0
G2 Y5.8041 I0.0312 J0.0541
G2 X0.8125 Y5.75 I0.0313 J-0.0541
G0 Z1.0
G0 X3.4375
G1 F10.0 Z0.0
G2 F30.0 X3.3438 Y5.6959 Z-0.0833 I-0.0625 J0.0
G2 Y5.8041 Z-0.1667 I0.0313 J0.0541
G2 X3.4375 Y5.75 Z-0.25 I0.0313 J-0.0541
G2 X3.3438 Y5.6959 Z-0.3333 I-0.0625 J0.0
G2 Y5.8041 Z-0.4167 I0.0313 J0.0541
G2 X3.4375 Y5.75 Z-0.5 I0.0313 J-0.0541
G2 X3.3438 Y5.6959 I-0.0625 J0.0
G2 Y5.8041 I0.0313 J0.0541
G2 X3.4375 Y5.75 I0.0313 J-0.0541
G0 Z1.0
G0 X6.0625
G1 F10.0 Z0.0
G2 F30.0 X5.9688 Y5.6959 Z-0.0833 I-0.0625 J0.0
G2 Y5.8041 Z-0.1667 I0.0313 J0.0541
G2 X6.0625 Y5.75 Z-0.25 I0.0313 J-0.0541
G2 X5.9688 Y5.6959 Z-0.3333 I-0.0625 J0.0
G2 Y5.8041 Z-0.4167 I0.0313 J0.0541
G2 X6.0625 Y5.75 Z-0.5 I0.0313 J-0.0541
G2 X5.9688 Y5.6959 I-0.0625 J0.0
G2 Y5.8041 I0.0313 J0.0541
G2 X6.0625 Y5.75 I0.0313 J-0.0541
G0 Z1.0
G0 Y4.25
G1 F10.0 Z0.0
G2 F30.0 X5.9688 Y4.1959 Z-0.0833 I-0.0625 J0.0
G2 Y4.3041 Z-0.1667 I0.0313 J0.0541
G2 X6.0625 Y4.25 Z-0.25 I0.0313 J-0.0541
G2 X5.9688 Y4.1959 Z-0.3333 I-0.0625 J0.0
G2 Y4.3041 Z-0.4167 I0.0313 J0.0541
G2 X6.0625 Y4.25 Z-0.5 I0.0313 J-0.0541
G2 X5.9688 Y4.1959 I-0.0625 J0.0
G2 Y4.3041 I0.0313 J0.0541
G2 X6.0625 Y4.25 I0.0313 J-0.0541
G0 Z1.0
G0 Y2.75
G1 F10.0 Z0.0
G2 F30.0 X5.9688 Y2.6959 Z-0.0833 I-0.0625 J0.0
G2 Y2.8041 Z-0.1667 I0.0313 J0.0541
G2 X6.0625 Y2.75 Z-0.25 I0.0313 J-0.0541
G2 X5.9688 Y2.6959 Z-0.3333 I-0.0625 J0.0
G2 Y2.8041 Z-0.4167 I0.0313 J0.0541
G2 X6.0625 Y2.75 Z-0.5 I0.0313 J-0.0541
G2 X5.9688 Y2.6959 I-0.0625 J0.0
G2 Y2.8041 I0.0313 J0.0541
G2 X6.0625 Y2.75 I0.0313 J-0.0541
G0 Z1.0
G0 Y0.75
G1 F10.0 Z0.0
G2 F30.0 X5.9688 Y0.6959 Z-0.0833 I-0.0625 J0.0
G2 Y0.8041 Z-0.1667 I0.0313 J0.0541
G2 X6.0625 Y0.75 Z-0.25 I0.0313 J-0.0541
G2 X5.9688 Y0.6959 Z-0.3333 I-0.0625 J0.0
G2 Y0.8041 Z-0.4167 I0.0313 J0.0541
G2 X6.0625 Y0.75 Z-0.5 I0.0313 J-0.0541
G2 X5.9688 Y0.6959 I-0.0625 J0.0
G2 Y0.8041 I0.0313 J0.0541
G2 X6.0625 Y0.75 I0.0313 J-0.0541
G0 Z1.0
G0 Y8.75
G1 F10.0 Z0.0
G2 F30.0 X5.9688 Y8.6959 Z-0.0833 I-0.0625 J0.0
G2 Y8.8041 Z-0.1667 I0.0313 J0.0541
G2 X6.0625 Y8.75 Z-0.25 I0.0313 J-0.0541
G2 X5.9688 Y8.6959 Z-0.3333 I-0.0625 J0.0
G2 Y8.8041 Z-0.4167 I0.0313 J0.0541
G2 X6.0625 Y8.75 Z-0.5 I0.0313 J-0.0541
G2 X5.9688 Y8.6959 I-0.0625 J0.0
G2 Y8.8041 I0.0313 J0.0541
G2 X6.0625 Y8.75 I0.0313 J-0.0541
G0 Z1.0
G0 Y11.0
G1 F10.0 Z0.0
G2 F30.0 X5.9688 Y10.9459 Z-0.0833 I-0.0625 J0.0
G2 Y11.0541 Z-0.1667 I0.0313 J0.0541
G2 X6.0625 Y11.0 Z-0.25 I0.0313 J-0.0541
G2 X5.9688 Y10.9459 Z-0.3333 I-0.0625 J0.0
G2 Y11.0541 Z-0.4167 I0.0313 J0.0541
G2 X6.0625 Y11.0 Z-0.5 I0.0313 J-0.0541
G2 X5.9688 Y10.9459 I-0.0625 J0.0
G2 Y11.0541 I0.0313 J0.0541
G2 X6.0625 Y11.0 I0.0313 J-0.0541
G0 Z1.0
G0 X3.4375
G1 F10.0 Z0.0
G2 F30.0 X3.3438 Y10.9459 Z-0.0833 I-0.0625 J0.0
G2 Y11.0541 Z-0.1667 I0.0313 J0.0541
G2 X3.4375 Y11.0 Z-0.25 I0.0313 J-0.0541
G2 X3.3438 Y10.9459 Z-0.3333 I-0.0625 J0.0
G2 Y11.0541 Z-0.4167 I0.0313 J0.0541
G2 X3.4375 Y11.0 Z-0.5 I0.0313 J-0.0541
G2 X3.3438 Y10.9459 I-0.0625 J0.0
G2 Y11.0541 I0.0313 J0.0541
G2 X3.4375 Y11.0 I0.0313 J-0.0541
G0 Z1.0
G0 X0.8125
G1 F10.0 Z0.0
G2 F30.0 X0.7188 Y10.9459 Z-0.0833 I-0.0625 J0.0
G2 Y11.0541 Z-0.1667 I0.0313 J0.0541
G2 X0.8125 Y11.0 Z-0.25 I0.0312 J-0.0541
G2 X0.7188 Y10.9459 Z-0.3333 I-0.0625 J0.0
G2 Y11.0541 Z-0.4167 I0.0313 J0.0541
G2 X0.8125 Y11.0 Z-0.5 I0.0312 J-0.0541
G2 X0.7188 Y10.9459 I-0.0625 J0.0
G2 Y11.0541 I0.0313 J0.0541
G2 X0.8125 Y11.0 I0.0312 J-0.0541
G0 Z1.0
G0 Y8.75
G1 F10.0 Z0.0
G2 F30.0 X0.7188 Y8.6959 Z-0.0833 I-0.0625 J0.0
G2 Y8.8041 Z-0.1667 I0.0313 J0.0541
G2 X0.8125 Y8.75 Z-0.25 I0.0312 J-0.0541
G2 X0.7188 Y8.6959 Z-0.3333 I-0.0625 J0.0
G2 Y8.8041 Z-0.4167 I0.0313 J0.0541
G2 X0.8125 Y8.75 Z-0.5 I0.0312 J-0.0541
G2 X0.7188 Y8.6959 I-0.0625 J0.0
G2 Y8.8041 I0.0313 J0.0541
G2 X0.8125 Y8.75 I0.0312 J-0.0541
( Profile9 )
S1000
G0 Z1.0
G0 X7.4375 Y0.4375
G1 F10.0 Z-0.25
G1 F30.0 X8.1875
G3 X8.2807 Y0.4792 I0.0 J0.125
G3 X8.3125 Y0.5625 I-0.0932 J0.0833
G1 Y0.7292
G1 Y0.9792
G1 Y2.3125
G1 Y2.5625 Z-0.2
G1 Y2.8125 Z-0.25
G1 Y4.1458
G1 Y4.3958 Z-0.2
G1 Y4.6458 Z-0.25
G1 Y5.3125
G3 X8.1875 Y5.4375 I-0.125 J0.0
G1 X7.4375
G3 X7.3443 Y5.3958 I0.0 J-0.125
G3 X7.3125 Y5.3125 I0.0932 J-0.0833
G1 Y5.1458
G1 Y4.8958
G1 Y3.5625
G1 Y3.3125 Z-0.2
G1 Y3.0625 Z-0.25
G1 Y1.7292
G1 Y1.4792 Z-0.2
G1 Y1.2292 Z-0.25
G1 Y0.5625
G3 X7.4375 Y0.4375 I0.125 J0.0
G1 F10.0 Z-0.5
G1 F30.0 X8.1875
G3 X8.2807 Y0.4792 I0.0 J0.125
G3 X8.3125 Y0.5625 I-0.0932 J0.0833
G1 Y0.7292
G1 Y0.9792
G1 Y2.3125
G1 Y2.5625 Z-0.2
G1 Y2.8125 Z-0.5
G1 Y4.1458
G1 Y4.3958 Z-0.2
G1 Y4.6458 Z-0.5
G1 Y5.3125
G3 X8.1875 Y5.4375 I-0.125 J0.0
G1 X7.4375
G3 X7.3443 Y5.3958 I0.0 J-0.125
G3 X7.3125 Y5.3125 I0.0932 J-0.0833
G1 Y5.1458
G1 Y4.8958
G1 Y3.5625
G1 Y3.3125 Z-0.2
G1 Y3.0625 Z-0.5
G1 Y1.7292
G1 Y1.4792 Z-0.2
G1 Y1.2292 Z-0.5
G1 Y0.5625
G3 X7.4375 Y0.4375 I0.125 J0.0
G0 Z1.0
G0 X9.1253 Y0.5539
G1 F10.0 Z-0.25
G3 F30.0 X9.25 Y0.4375 I0.1247 J0.0086
G1 X10.0
G3 X10.0932 Y0.4792 I0.0 J0.125
G3 X10.125 Y0.5625 I-0.0932 J0.0833
G1 Y0.7292
G1 Y0.9792
G1 Y2.3125
G1 Y2.5625 Z-0.2
G1 Y2.8125 Z-0.25
G1 Y4.1458
G1 Y4.3958 Z-0.2
G1 Y4.6458 Z-0.25
G1 Y5.3125
G3 X10.0 Y5.4375 I-0.125 J0.0
G1 X9.25
G3 X9.1568 Y5.3958 I0.0 J-0.125
G3 X9.125 Y5.3125 I0.0932 J-0.0833
G1 Y5.1458
G1 Y4.8958
G1 Y3.5625
G1 Y3.3125 Z-0.2
G1 Y3.0625 Z-0.25
G1 Y1.7292
G1 Y1.4792 Z-0.2
G1 Y1.2292 Z-0.25
G1 Y0.5625
G3 X9.1253 Y0.5539 I0.125 J0.0
G1 F10.0 Z-0.5
G3 F30.0 X9.25 Y0.4375 I0.1247 J0.0086
G1 X10.0
G3 X10.0932 Y0.4792 I0.0 J0.125
G3 X10.125 Y0.5625 I-0.0932 J0.0833
G1 Y0.7292
G1 Y0.9792
G1 Y2.3125
G1 Y2.5625 Z-0.2
G1 Y2.8125 Z-0.5
G1 Y4.1458
G1 Y4.3958 Z-0.2
G1 Y4.6458 Z-0.5
G1 Y5.3125
G3 X10.0 Y5.4375 I-0.125 J0.0
G1 X9.25
G3 X9.1568 Y5.3958 I0.0 J-0.125
G3 X9.125 Y5.3125 I0.0932 J-0.0833
G1 Y5.1458
G1 Y4.8958
G1 Y3.5625
G1 Y3.3125 Z-0.2
G1 Y3.0625 Z-0.5
G1 Y1.7292
G1 Y1.4792 Z-0.2
G1 Y1.2292 Z-0.5
G1 Y0.5625
G3 X9.1253 Y0.5539 I0.125 J0.0
G0 Z1.0
G0 Y6.4375
G1 F10.0 Z-0.25
G1 F30.0 X9.3646
G1 X9.6146
G1 X9.8125
G3 X9.8646 Y6.4489 I0.0 J0.125
G3 X9.9375 Y6.5625 I-0.0521 J0.1136
G1 Y8.0938
G1 Y8.3438 Z-0.2
G1 Y8.5938 Z-0.25
G1 Y10.0729
G1 Y10.3229 Z-0.2
G1 Y10.5729 Z-0.25
G1 Y11.3125
G3 X9.8125 Y11.4375 I-0.125 J0.0
G1 X9.0729
G1 X8.8229
G1 X8.625
G3 X8.5729 Y11.4261 I0.0 J-0.125
G3 X8.5313 Y11.3952 I0.0521 J-0.1136
G3 X8.4375 Y11.4375 I-0.0938 J-0.0827
G1 X7.6979
G1 X7.4479
G1 X7.25
G3 X7.1979 Y11.4261 I0.0 J-0.125
G3 X7.125 Y11.3125 I0.0521 J-0.1136
G1 Y9.7813
G1 Y9.5313 Z-0.2
G1 Y9.2813 Z-0.25
G1 Y7.8021
G1 Y7.5521 Z-0.2
G1 Y7.3021 Z-0.25
G1 Y6.5625
G3 X7.25 Y6.4375 I0.125 J0.0
G1 X7.9896
G1 X8.2396
G1 X8.4375
G3 X8.4896 Y6.4489 I0.0 J0.125
G3 X8.5313 Y6.4798 I-0.0521 J0.1136
G3 X8.625 Y6.4375 I0.0938 J0.0827
G1 X9.1253
G1 F10.0 Z-0.5
G1 F30.0 X9.3646
G1 X9.6146
G1 X9.8125
G3 X9.8646 Y6.4489 I0.0 J0.125
G3 X9.9375 Y6.5625 I-0.0521 J0.1136
G1 Y8.0938
G1 Y8.3438 Z-0.2
G1 Y8.5938 Z-0.5
G1 Y10.0729
G1 Y10.3229 Z-0.2
G1 Y10.5729 Z-0.5
G1 Y11.3125
G3 X9.8125 Y11.4375 I-0.125 J0.0
G1 X9.0729
G1 X8.8229
G1 X8.625
G3 X8.5729 Y11.4261 I0.0 J-0.125
G3 X8.5313 Y11.3952 I0.0521 J-0.1136
G3 X8.4375 Y11.4375 I-0.0938 J-0.0827
G1 X7.6979
G1 X7.4479
G1 X7.25
G3 X7.1979 Y11.4261 I0.0 J-0.125
G3 X7.125 Y11.3125 I0.0521 J-0.1136
G1 Y9.7813
G1 Y9.5313 Z-0.2
G1 Y9.2813 Z-0.5
G1 Y7.8021
G1 Y7.5521 Z-0.2
G1 Y7.3021 Z-0.5
G1 Y6.5625
G3 X7.25 Y6.4375 I0.125 J0.0
G1 X7.9896
G1 X8.2396
G1 X8.4375
G3 X8.4896 Y6.4489 I0.0 J0.125
G3 X8.5313 Y6.4798 I-0.0521 J0.1136
G3 X8.625 Y6.4375 I0.0938 J0.0827
G1 X9.1253
( Drill2 )
S1000
G0 Z1.0
G0 X9.3125 Y10.5625
G98
G81 X9.3125 Y10.5625 Z-0.5 R1.0 F10.0
G81 Y9.0625 Z-0.5
G81 X7.75 Z-0.5
G81 Y10.5625 Z-0.5
G81 Y7.0625 Z-0.5
G81 X9.3125 Z-0.5
G81 X9.5 Y4.5625 Z-0.5
G81 Y3.0625 Z-0.5
G81 X7.9375 Z-0.5
G81 Y4.5625 Z-0.5
G81 Y1.0625 Z-0.5
G81 X9.5 Z-0.5
G80
M5
M30
